<?xml version="1.0" encoding="UTF-8"?>
<map version="1.10" tiledversion="1.12.1" orientation="orthogonal" renderorder="right-down" width="50" height="50" tilewidth="16" tileheight="16" infinite="0" nextlayerid="6" nextobjectid="1">
 <tileset firstgid="1" name="summer_town" tilewidth="16" tileheight="16" tilecount="2304" columns="32">
  <image source="summer_town.png" width="512" height="1152"/>
  <tile id="736">
   <properties>
    <property name="Type" value="Dirt"/>
   </properties>
  </tile>
  <tile id="737">
   <properties>
    <property name="Type" value="Dirt"/>
   </properties>
  </tile>
  <tile id="768">
   <properties>
    <property name="Type" value="Dirt"/>
   </properties>
  </tile>
  <tile id="769">
   <properties>
    <property name="Type" value="Dirt"/>
   </properties>
  </tile>
 </tileset>
 <tileset firstgid="2305" name="mine" tilewidth="16" tileheight="16" tilecount="288" columns="16">
  <image source="mine_slime.png" width="256" height="288"/>
  <tile id="0">
   <properties>
    <property name="Type" value="Dirt"/>
   </properties>
  </tile>
  <tile id="137">
   <properties>
    <property name="Type" value="Stone"/>
   </properties>
  </tile>
  <tile id="138">
   <properties>
    <property name="Type" value="Stone"/>
   </properties>
  </tile>
  <tile id="139">
   <properties>
    <property name="Type" value="Stone"/>
   </properties>
  </tile>
  <tile id="140">
   <properties>
    <property name="Type" value="Stone"/>
   </properties>
  </tile>
  <tile id="153">
   <properties>
    <property name="Type" value="Stone"/>
   </properties>
  </tile>
  <tile id="154">
   <properties>
    <property name="Type" value="Stone"/>
   </properties>
  </tile>
  <tile id="155">
   <properties>
    <property name="Type" value="Stone"/>
   </properties>
  </tile>
  <tile id="165">
   <properties>
    <property name="Type" value="Dirt"/>
   </properties>
  </tile>
  <tile id="166">
   <properties>
    <property name="Type" value="Stone"/>
   </properties>
  </tile>
  <tile id="167">
   <properties>
    <property name="Type" value="Stone"/>
   </properties>
  </tile>
  <tile id="168">
   <properties>
    <property name="Type" value="Stone"/>
   </properties>
  </tile>
  <tile id="169">
   <properties>
    <property name="Type" value="Stone"/>
   </properties>
  </tile>
  <tile id="170">
   <properties>
    <property name="Type" value="Stone"/>
   </properties>
  </tile>
  <tile id="171">
   <properties>
    <property name="Type" value="Stone"/>
   </properties>
  </tile>
  <tile id="172">
   <properties>
    <property name="Type" value="Stone"/>
   </properties>
  </tile>
  <tile id="181">
   <properties>
    <property name="Type" value="Dirt"/>
   </properties>
  </tile>
  <tile id="182">
   <properties>
    <property name="Type" value="Stone"/>
   </properties>
  </tile>
  <tile id="183">
   <properties>
    <property name="Type" value="Dirt"/>
   </properties>
  </tile>
  <tile id="184">
   <properties>
    <property name="Type" value="Stone"/>
   </properties>
  </tile>
  <tile id="185">
   <properties>
    <property name="Type" value="Stone"/>
   </properties>
  </tile>
  <tile id="186">
   <properties>
    <property name="Type" value="Stone"/>
   </properties>
  </tile>
  <tile id="187">
   <properties>
    <property name="Type" value="Stone"/>
   </properties>
  </tile>
  <tile id="188">
   <properties>
    <property name="Type" value="Stone"/>
   </properties>
  </tile>
  <tile id="198">
   <properties>
    <property name="Type" value="Stone"/>
   </properties>
  </tile>
  <tile id="199">
   <properties>
    <property name="Type" value="Stone"/>
   </properties>
  </tile>
  <tile id="200">
   <properties>
    <property name="Type" value="Stone"/>
   </properties>
  </tile>
  <tile id="201">
   <properties>
    <property name="Type" value="Stone"/>
   </properties>
  </tile>
  <tile id="202">
   <properties>
    <property name="Type" value="Stone"/>
   </properties>
  </tile>
  <tile id="203">
   <properties>
    <property name="Type" value="Stone"/>
   </properties>
  </tile>
  <tile id="204">
   <properties>
    <property name="Type" value="Stone"/>
   </properties>
  </tile>
  <tile id="217">
   <properties>
    <property name="Type" value="Stone"/>
   </properties>
  </tile>
  <tile id="218">
   <properties>
    <property name="Type" value="Stone"/>
   </properties>
  </tile>
  <tile id="219">
   <properties>
    <property name="Type" value="Stone"/>
   </properties>
  </tile>
  <tile id="233">
   <properties>
    <property name="Type" value="Stone"/>
   </properties>
  </tile>
  <tile id="234">
   <properties>
    <property name="Type" value="Stone"/>
   </properties>
  </tile>
  <tile id="235">
   <properties>
    <property name="Type" value="Stone"/>
   </properties>
  </tile>
  <tile id="240">
   <properties>
    <property name="Type" value="Wood"/>
   </properties>
  </tile>
  <tile id="241">
   <properties>
    <property name="Type" value="Wood"/>
   </properties>
  </tile>
  <tile id="242">
   <properties>
    <property name="Type" value="Wood"/>
   </properties>
  </tile>
  <tile id="256">
   <properties>
    <property name="Type" value="Wood"/>
   </properties>
  </tile>
  <tile id="257">
   <properties>
    <property name="Type" value="Wood"/>
   </properties>
  </tile>
  <tile id="258">
   <properties>
    <property name="Type" value="Wood"/>
   </properties>
  </tile>
  <tile id="272">
   <properties>
    <property name="Type" value="Wood"/>
   </properties>
  </tile>
  <tile id="273">
   <properties>
    <property name="Type" value="Wood"/>
   </properties>
  </tile>
  <tile id="274">
   <properties>
    <property name="Type" value="Wood"/>
   </properties>
  </tile>
 </tileset>
 <layer id="1" name="Back" width="50" height="50">
  <data encoding="csv">
0,0,0,0,0,0,0,0,0,0,0,0,0,0,0,0,0,0,0,0,0,0,0,0,0,0,0,0,0,0,0,0,0,0,0,0,0,0,0,0,0,0,0,0,0,0,0,0,0,0,
0,0,0,0,0,0,0,0,0,0,0,0,0,0,0,0,0,0,0,0,0,0,0,0,0,0,0,0,0,0,0,0,0,0,0,0,0,0,0,0,0,0,0,0,0,0,0,0,0,0,
0,0,0,0,0,0,0,0,0,0,0,0,0,0,0,0,0,0,0,0,0,0,0,0,0,0,0,0,0,0,0,0,0,0,0,0,0,0,0,0,0,0,0,0,0,0,0,0,0,0,
0,0,0,0,0,2443,2506,2507,2507,2507,2507,2507,2507,2507,2508,0,0,0,0,0,0,0,0,0,0,0,0,0,0,0,0,0,0,0,0,0,0,0,0,0,0,0,0,0,0,0,0,0,0,0,
0,0,0,0,0,2507,2493,2523,2523,2523,2523,2523,2523,2523,2492,0,0,0,0,0,0,0,0,0,0,0,0,0,0,0,0,0,0,0,0,0,0,0,0,0,0,0,0,0,0,0,0,0,0,0,
0,0,2506,2507,2493,2523,2491,2539,2539,2539,2509,2539,2539,2490,2523,2523,0,0,0,0,0,0,0,0,0,0,0,0,0,0,0,0,0,0,0,0,0,0,0,0,0,0,0,0,0,0,0,0,0,0,
0,0,2522,2523,2491,2539,2540,2443,2443,2460,2443,2443,2443,2538,2490,2523,0,0,0,0,0,0,0,0,0,0,0,0,0,0,0,0,0,0,0,0,0,0,0,0,0,0,0,0,0,0,0,0,0,0,
0,0,2538,2539,2540,2443,2443,2443,2445,2443,2442,2443,2443,2443,2522,2523,0,0,0,0,0,0,0,0,0,0,0,0,0,0,0,0,0,0,0,0,0,0,0,0,0,0,0,0,0,0,0,0,0,0,
0,0,2443,2443,2443,2443,2474,2443,2442,2443,2443,2458,2443,2443,2522,2523,0,0,0,0,0,0,0,0,0,0,0,0,0,0,0,0,0,0,0,0,0,0,0,0,0,0,0,0,0,0,0,0,0,0,
0,0,2443,2443,2443,2442,2460,2443,2459,2443,2443,2460,2474,2443,2522,2523,0,0,0,0,0,0,0,0,0,0,0,0,0,0,0,0,0,0,0,0,0,0,0,0,0,0,0,0,0,0,0,0,0,0,
0,0,2443,2443,2443,2443,2443,2443,2442,2443,2443,2442,2443,2443,2442,2523,0,0,0,0,0,0,0,0,0,0,0,0,0,0,0,0,0,0,0,0,0,0,0,0,0,0,0,0,0,0,0,0,0,0,
0,0,2443,2443,2443,2443,2443,2443,2443,2444,2460,2443,2443,2443,2522,2523,0,0,0,0,0,0,0,0,0,0,0,0,0,0,0,0,0,0,0,0,0,0,0,0,0,0,0,0,0,0,0,0,0,0,
2443,2443,2443,2443,2443,2443,2443,2443,2443,2442,2443,2443,2443,0,0,2523,0,0,0,0,0,0,0,0,0,0,0,0,0,0,0,0,0,0,0,0,0,0,0,0,0,0,0,0,0,0,0,0,0,0,
2443,2443,2460,2443,2460,2443,2443,2443,2443,2443,2443,0,0,0,0,0,0,0,0,0,0,0,0,0,0,0,0,0,0,0,0,0,0,0,0,0,0,0,0,0,0,0,0,0,0,0,0,0,0,0,
2443,2443,2443,2443,2443,2443,2474,2443,2443,2443,2443,0,0,0,0,0,0,0,0,0,0,0,0,0,0,0,0,0,0,0,0,0,0,0,0,0,0,0,0,0,0,0,0,0,0,0,0,0,0,0,
2443,2443,2443,2443,2443,2443,2443,2443,2443,2443,2443,0,0,0,0,0,0,0,0,0,0,0,0,0,0,0,0,0,0,0,0,0,0,0,0,0,0,0,0,0,0,0,0,0,0,0,0,0,0,0,
2443,2443,2443,2443,2443,2443,2443,2443,2443,2443,2443,0,0,0,0,0,0,0,0,0,0,0,0,0,0,0,0,0,0,0,0,0,0,0,0,0,0,0,0,0,0,0,0,0,0,0,0,0,0,0,
2506,2507,2508,2507,2508,2442,2443,2460,2443,2443,2443,0,0,0,0,0,0,0,0,0,0,0,0,0,0,0,0,0,0,0,0,0,0,0,0,0,0,0,0,0,0,0,0,0,0,0,0,0,0,0,
0,2522,2523,2523,2524,2443,2460,2443,2443,2443,2443,0,0,0,0,0,0,0,0,0,0,0,0,0,0,0,0,0,0,0,0,0,0,0,0,0,0,0,0,0,0,0,0,0,0,0,0,0,0,0,
0,2493,2523,2491,2540,2443,2443,2443,0,0,0,0,0,0,0,0,0,0,0,0,0,0,0,0,0,0,0,0,0,0,0,0,0,0,0,0,0,0,0,0,0,0,0,0,0,0,0,0,0,0,
0,2523,2523,2524,2442,2443,2443,2443,0,0,0,0,0,0,0,0,0,0,0,0,0,0,0,0,0,0,0,0,0,0,0,0,0,0,0,0,0,0,0,0,0,0,0,0,0,0,0,0,0,0,
0,2538,2539,2540,2443,2443,2443,0,0,0,0,0,0,0,0,0,0,0,2443,2443,0,0,0,0,0,0,0,0,0,0,0,0,0,0,0,0,0,0,0,0,0,0,0,0,0,0,0,0,0,0,
0,2443,2443,2443,2460,2506,2507,0,0,0,0,0,0,0,0,0,0,0,0,0,0,0,0,0,0,0,0,0,0,0,0,0,0,0,0,0,0,0,0,0,0,0,0,0,0,0,0,0,0,0,
0,2443,2443,2460,2443,2522,2523,0,0,0,0,0,0,0,0,0,0,0,0,0,0,0,0,0,0,0,0,0,0,0,0,0,0,0,0,0,0,0,0,0,0,0,0,0,0,0,0,0,0,0,
0,2443,2443,2474,2443,2522,2523,0,0,0,0,0,0,0,0,0,0,0,0,0,0,0,0,0,0,0,0,0,0,0,0,0,0,0,0,0,0,0,0,0,0,0,0,0,0,0,0,0,0,0,
0,2443,2443,2443,2443,2522,2523,2523,2492,2507,2507,2507,2507,2507,2508,2443,2443,2443,2443,2443,2443,2443,2443,2443,2443,2443,2443,2443,2506,2507,2507,2507,2507,2507,2507,2507,2507,2507,2507,2507,2507,2507,2507,2508,2443,0,0,0,0,0,
0,2443,2443,2460,2445,2538,2539,2490,2523,2523,2523,2523,2523,2523,2492,2507,2508,2443,2443,2443,2443,2506,2507,2507,2507,2507,2507,2507,2493,2523,2523,2523,2523,2523,2523,2523,2523,2523,2523,2523,2523,2523,2523,2492,2507,0,0,0,0,0,
0,2443,2443,2443,2442,2443,2443,2538,2539,2539,2539,2539,2490,2523,2523,2523,2492,2507,2507,2507,2507,2493,2523,2523,2523,2523,2523,2523,2491,2539,2539,2539,2539,2539,2539,2539,2539,2539,2539,2539,2539,2490,2523,2523,2523,0,0,0,0,0,
0,2443,2443,2443,2443,2459,2443,2443,2443,2443,2442,2443,2538,2539,2490,2523,2523,2523,2523,2523,2523,2523,2491,2539,2539,2539,2539,2539,2540,2443,2443,2459,2443,2443,2443,2458,2443,2443,2443,2474,2443,2538,2539,2490,2523,2523,2523,0,0,0,
0,0,2443,2443,2443,2443,2474,2442,2443,2460,2443,2443,2460,2443,2538,2539,2539,2539,2539,2509,2539,2539,2540,2442,2443,2460,2443,2460,2443,2442,2443,2442,2443,2460,2443,2443,2442,2443,2460,2443,2443,2443,2443,2538,2539,2490,2523,0,0,0,
0,0,2443,2443,2443,2443,2443,2443,2443,2443,2443,2443,2443,2443,2471,2472,2472,2473,2460,2443,2443,2460,2443,2443,2443,2442,2443,2443,2445,2443,2443,2443,2443,2443,2443,2443,2443,2443,2443,2443,2443,2443,2460,2443,2443,2522,2523,2524,2443,0,
0,0,2443,2443,2443,2443,2443,2443,2443,2443,2443,2443,2443,2443,2487,2486,2455,2505,2443,2471,2472,2472,2472,2472,2473,2458,2443,2443,2443,2443,2443,2443,2443,2443,2443,2443,2443,2443,2443,2443,2443,2443,2443,2442,2443,2522,2523,2524,2443,0,
0,0,0,0,0,0,0,0,0,2443,2471,2472,2473,2443,2487,2470,2456,2473,2471,2457,2488,2488,2488,2486,2456,2473,2443,2443,2443,2443,2443,2443,2443,2443,2443,2443,2443,2443,2443,2443,2443,2443,2443,2443,2460,2522,2523,2524,2443,0,
0,0,0,0,0,0,0,0,0,2443,2487,2488,2489,2443,2487,2488,2455,2505,2487,2470,2470,2470,2470,2488,2488,2489,2442,2443,2443,2443,2443,2443,2443,2443,2443,2443,2443,2443,2443,2443,2443,2443,2443,2443,2443,2522,2523,2524,2443,0,
0,0,0,0,0,0,0,0,0,0,0,0,0,0,2443,2504,2505,2471,2457,2488,2455,2504,2454,2470,2470,2489,2443,2506,2507,2508,2443,2443,2443,2443,2443,2443,2443,2443,2443,2443,2443,0,2443,2443,2443,2522,2523,2492,2508,0,
0,0,0,0,0,0,0,0,0,0,0,0,0,2506,2443,2443,2471,2457,2488,2488,2489,2474,2487,2488,2470,2489,2458,2522,2523,2524,2443,2443,2443,2443,2443,2443,2443,2443,2443,2443,2443,0,2443,2443,2460,2522,2523,2523,2524,0,
0,0,0,0,0,0,0,0,0,0,0,2506,2507,2493,2443,2443,2487,2488,2470,2488,2456,2472,2457,2488,2488,2489,2443,2522,2523,2524,2443,2443,2443,2443,2443,2443,2443,2443,2443,2443,2443,0,2443,2443,2443,2538,2490,2523,2524,0,
0,0,0,0,0,0,0,2443,2443,2506,2507,2493,2523,2523,2443,2443,2487,2486,2470,2470,2470,2470,2488,2486,2455,2505,2443,2522,2523,2524,2443,2443,2443,2443,2443,2443,2443,2443,2443,2443,2443,2443,2443,2443,2474,2443,2522,2523,2524,0,
0,0,0,2507,2507,2507,2507,2507,2507,2493,2523,2523,2491,2539,2443,2443,2503,2454,2488,2470,2470,2488,2455,2504,2505,2442,2442,2522,2523,2492,2507,2508,2443,2443,2443,2443,2443,2443,2506,2507,2507,2507,2508,2443,2442,2443,2522,2523,2524,0,
0,0,2523,2523,2523,2523,2523,2523,2523,2523,2523,2491,2540,2443,2443,2443,2473,2503,2454,2488,2488,2455,2505,2471,2472,2472,2473,2522,2523,2523,2523,2492,2507,2507,2507,2507,2507,2507,2493,2523,2523,2523,2524,2443,2443,2459,2522,2523,2524,0,
0,0,2490,2523,2491,2539,2539,2539,2539,2539,2539,2540,2443,2442,2443,2443,2443,2473,2503,2504,2504,2505,2471,2457,2488,2488,2489,2538,2490,2523,2523,2523,2523,2523,2523,2523,2523,2523,2523,2523,2523,2491,2540,2443,2460,2506,2493,2523,2524,0,
0,0,2538,2539,2540,2443,2443,2443,2442,2443,2443,2443,2443,2460,2443,2443,2443,2443,2443,2474,2443,2471,2457,2488,2470,2488,2456,2473,2538,2539,2490,2523,2523,2523,2523,2523,2523,2523,2523,2491,2539,2540,2443,2445,2443,2522,2523,2491,2540,0,
0,0,2443,2475,2476,2443,2443,2460,2442,2443,2443,2443,2474,2443,2443,2474,2443,2443,2445,2443,2443,2487,2488,2470,2470,2470,2488,2489,2443,2443,2538,2539,2539,2539,2539,2539,2539,2539,2539,2540,2443,2443,2460,2506,2507,2493,2523,2524,2443,0,
0,0,2443,2443,2442,2443,2443,2445,2443,2458,2443,2442,2460,2443,2445,2443,2443,2443,2443,2443,2443,2503,2454,2486,2470,2488,2455,2505,2458,2443,2443,2460,2442,2443,2474,2443,2443,2442,2443,2443,2459,2443,2443,2522,2523,0,0,0,0,0,
0,0,2443,2443,2443,2443,2459,2474,2443,2460,2443,2443,2443,2506,2443,2443,2443,2443,2443,2443,2443,2443,2503,2504,2504,2504,2505,2443,2443,2443,2443,2443,2443,2442,2443,2443,2443,2460,2443,2460,2443,2443,2443,2538,2539,0,0,0,0,0,
0,0,2443,2443,2443,2443,2460,2443,2443,2442,2442,2443,2443,2522,2443,2443,2443,2443,2443,2443,2443,2443,2443,2443,2443,2443,2443,2443,2443,2443,2443,2443,2443,2443,2443,2443,2443,2443,2443,2443,2443,2443,2443,2443,0,0,0,0,0,0,
0,0,0,2443,2443,2443,2442,2443,2443,2443,2443,2443,2506,2493,2443,2443,0,0,0,0,0,0,0,0,0,0,0,0,0,0,0,0,0,0,0,0,0,0,0,0,0,0,0,0,0,0,0,0,0,0,
0,0,0,2443,2443,2443,2443,2443,2443,2443,2443,2443,2522,2523,0,0,0,0,0,0,0,0,0,0,0,0,0,0,0,0,0,0,0,0,0,0,0,0,0,0,0,0,0,0,0,0,0,0,0,0,
0,0,0,0,0,0,0,0,0,0,0,0,0,0,0,0,0,0,0,0,0,0,0,0,0,0,0,0,0,0,0,0,0,0,0,0,0,0,0,0,0,0,0,0,0,0,0,0,0,0,
0,0,0,0,0,0,0,0,0,0,0,0,0,0,0,0,0,0,0,0,0,0,0,0,0,0,0,0,0,0,0,0,0,0,0,0,0,0,0,0,0,0,0,0,0,0,0,0,0,0
</data>
 </layer>
 <layer id="2" name="Buildings" width="50" height="50">
  <data encoding="csv">
0,0,0,0,0,0,0,0,0,0,0,0,0,0,0,0,0,0,0,0,0,0,0,0,0,0,0,0,0,0,0,0,0,0,0,0,0,0,0,0,0,0,0,0,0,0,0,0,0,0,
0,0,0,0,0,2374,2375,2380,2312,2378,2372,2378,2313,2398,2399,0,0,0,0,0,0,0,0,0,0,0,0,0,0,0,0,0,0,0,0,0,0,0,0,0,0,0,0,0,0,0,0,0,0,0,
0,0,0,2374,2375,2390,2391,2396,2328,2394,2388,2394,2329,2414,2415,2416,0,0,0,0,0,0,0,0,0,0,0,0,0,0,0,0,0,0,0,0,0,0,0,0,0,0,0,0,0,0,0,0,0,0,
0,0,2373,2390,2391,2403,2407,2412,2344,2410,2404,2410,2345,2430,2431,2432,0,0,0,0,0,0,0,0,0,0,0,0,0,0,0,0,0,0,0,0,0,0,0,0,0,0,0,0,0,0,0,0,0,0,
0,0,2389,2402,2407,2419,2423,2428,2360,2426,2420,2426,2361,2446,2447,2448,0,0,0,0,0,0,0,0,0,0,0,0,0,0,0,0,0,0,0,0,0,0,0,0,0,0,0,0,0,0,0,0,0,0,
0,0,2405,2422,2423,2438,2439,0,0,0,0,0,0,2462,2463,2464,0,0,0,0,0,0,0,0,0,0,0,0,0,0,0,0,0,0,0,0,0,0,0,0,0,0,0,0,0,0,0,0,0,0,
0,0,2421,2438,2439,0,0,0,0,0,0,0,0,0,0,2480,0,0,0,0,0,0,0,0,0,0,0,0,0,0,0,0,0,0,0,0,0,0,0,0,0,0,0,0,0,0,0,0,0,0,
0,0,2437,0,0,0,0,0,0,0,0,0,0,0,0,2496,0,0,0,0,0,0,0,0,0,0,0,0,0,0,0,0,0,0,0,0,0,0,0,0,0,0,0,0,0,0,0,0,0,0,
0,0,2453,0,0,0,0,0,0,0,0,0,0,0,0,2512,0,0,0,0,0,0,0,0,0,0,0,0,0,0,0,0,0,0,0,0,0,0,0,0,0,0,0,0,0,0,0,0,0,0,
0,0,2469,0,0,0,0,0,0,0,0,0,0,0,0,2511,0,0,0,0,0,0,0,0,0,0,0,0,0,0,0,0,0,0,0,0,0,0,0,0,0,0,0,0,0,0,0,0,0,0,
0,0,2501,0,0,0,0,0,0,0,0,0,0,0,2541,2399,0,0,0,0,0,0,0,0,0,0,0,0,0,0,0,0,0,0,0,0,0,0,0,0,0,0,0,0,0,0,0,0,0,0,
0,0,0,2518,0,0,0,0,0,0,0,0,0,0,2399,0,0,0,0,0,0,0,0,0,0,0,0,0,0,0,0,0,0,0,0,0,0,0,0,0,0,0,0,0,0,0,0,0,0,0,
0,0,0,0,2537,0,0,0,0,0,0,0,0,2399,0,0,0,0,0,0,0,0,0,0,0,0,0,0,0,0,0,0,0,0,0,0,0,0,0,0,0,0,0,0,0,0,0,0,0,0,
0,0,0,0,2453,0,0,0,0,0,0,2399,2399,0,0,0,0,0,0,0,0,0,0,0,0,0,0,0,0,0,0,0,0,0,0,0,0,0,0,0,0,0,0,0,0,0,0,0,0,0,
0,0,2374,2375,2376,0,0,0,0,2541,2399,0,0,0,0,0,0,0,0,0,0,0,0,0,0,0,0,0,0,0,0,0,0,0,0,0,0,0,0,0,0,0,0,0,0,0,0,0,0,0,
0,2373,2390,2391,2392,0,0,0,0,2399,0,0,0,0,0,0,0,0,0,0,0,0,0,0,0,0,0,0,0,0,0,0,0,0,0,0,0,0,0,0,0,0,0,0,0,0,0,0,0,0,
0,2389,2406,2402,2408,0,0,0,2541,2399,0,0,0,0,0,0,0,0,0,0,0,0,0,0,0,0,0,0,0,0,0,0,0,0,0,0,0,0,0,0,0,0,0,0,0,0,0,0,0,0,
0,2405,2422,2423,2424,0,0,0,2399,0,0,0,0,0,0,0,0,0,0,0,0,0,0,0,0,0,0,0,0,0,0,0,0,0,0,0,0,0,0,0,0,0,0,0,0,0,0,0,0,0,
0,2421,2438,2439,0,0,0,2541,2399,0,0,0,0,0,0,0,0,0,0,0,0,0,0,0,0,0,0,0,0,0,0,0,0,0,0,0,0,0,0,0,0,0,0,0,0,0,0,0,0,0,
0,2453,0,0,0,0,0,2399,0,0,0,0,0,0,0,0,0,0,0,0,0,0,0,0,0,0,0,0,0,0,0,0,0,0,0,0,0,0,0,0,0,0,0,0,0,0,0,0,0,0,
0,2469,0,0,0,0,2496,0,0,0,0,0,0,0,0,0,0,0,0,0,0,0,0,0,0,0,0,0,0,0,0,0,0,0,0,0,0,0,0,0,0,0,0,0,0,0,0,0,0,0,
0,2437,0,0,0,0,2512,0,2363,0,0,0,0,0,0,0,0,0,0,0,0,0,0,0,0,0,0,0,0,0,0,0,0,0,0,0,0,0,0,0,0,0,0,0,0,0,0,0,0,0,
0,2453,0,0,0,0,2377,2398,2399,0,0,0,0,0,0,0,0,0,0,0,0,0,0,0,0,0,0,0,0,0,0,0,0,0,0,0,0,0,0,0,0,0,0,0,0,0,0,0,0,0,
0,2469,0,0,0,0,2393,2414,2415,2312,2381,2312,2379,2398,2399,0,0,0,0,0,0,0,0,0,0,0,0,2374,2375,2378,2313,2380,2309,2310,2311,2380,2381,2378,2379,2312,2378,2379,2398,2399,0,0,0,0,0,0,
0,2485,0,0,0,0,2409,2430,2431,2328,2397,2328,2395,2414,2415,2398,2399,0,0,0,0,2374,2375,2378,2313,2312,2381,2390,2391,2394,2329,2396,2325,2326,2327,2370,2371,2394,2395,2328,2394,2395,2414,2415,2398,2399,0,0,0,0,
0,2501,0,0,0,0,2425,2446,2447,2344,2413,2344,2411,2430,2431,2414,2415,2378,2379,2372,2381,2390,2391,2394,2329,2328,2397,2403,2407,2410,2345,2412,2341,2342,2343,2386,2387,2410,2411,2344,2410,2411,2430,2431,2414,2415,2416,0,0,0,
0,0,2537,0,0,0,0,2462,2463,2360,2429,2360,2427,2446,2447,2418,2431,2394,2395,2388,2397,2406,2402,2410,2345,2344,2413,2419,2423,2426,2361,2428,2357,2358,2359,2428,2429,2426,2427,2360,2426,2427,2446,2447,2418,2431,2432,0,0,0,
0,0,2518,0,0,0,0,0,0,0,0,0,0,2462,2463,2446,2447,2410,2411,2404,2413,2422,2423,2426,2361,2360,2429,2438,2439,0,0,0,0,0,0,0,0,0,0,0,0,0,2462,2463,2446,2447,2448,0,0,0,
0,0,0,2537,0,0,0,0,0,0,0,0,0,0,0,2462,2463,2426,2427,2420,2429,2438,2439,0,0,0,0,0,0,0,0,0,0,0,0,0,0,0,0,0,0,0,0,0,2462,2463,2464,0,0,0,
0,0,0,2399,0,0,0,0,0,0,0,0,0,0,0,0,0,0,0,0,0,0,0,0,0,0,0,0,0,0,0,0,0,0,0,0,0,0,0,0,0,0,0,0,0,0,2480,0,0,0,
0,0,0,0,2399,0,0,0,0,2382,0,0,0,0,0,0,0,0,0,0,0,0,0,0,0,0,0,0,0,0,0,0,0,2382,2382,0,0,0,2382,2382,0,0,0,0,0,0,2496,0,0,0,
0,0,0,0,0,2399,2399,2399,2399,2382,2382,2382,2382,0,0,0,0,0,0,0,0,0,0,0,0,0,0,0,0,0,0,2382,2382,2382,2382,2382,2382,2382,2382,2382,2382,0,0,0,0,0,2512,0,0,0,
0,0,0,0,0,0,0,0,0,0,0,0,2382,2537,0,0,0,0,0,0,0,0,0,0,0,0,0,0,0,2382,2382,2382,0,0,2382,2382,2382,2382,2382,0,2382,2382,2537,0,0,0,2377,2416,0,0,
0,0,0,0,0,0,0,0,0,0,0,0,0,2453,0,0,0,0,0,0,0,0,0,0,0,0,0,0,2480,0,0,0,0,0,0,0,0,0,0,0,0,0,2437,0,0,0,2393,2432,0,0,
0,0,0,0,0,0,0,0,0,0,0,2374,2375,2390,0,0,0,0,0,0,0,0,0,0,0,0,0,0,2496,0,0,0,0,0,0,0,0,0,0,0,0,0,2453,0,0,0,2409,2448,0,0,
0,0,0,0,0,0,0,0,0,2374,2375,2390,2391,2406,0,0,0,0,0,0,0,0,0,0,0,0,0,0,2512,0,0,0,0,0,0,0,0,0,0,0,0,0,2469,0,0,0,2425,2464,0,0,
0,0,0,2374,2375,2380,2381,2312,2313,2390,2391,2406,2402,2422,0,0,0,0,0,0,0,0,0,0,0,0,0,0,2377,2398,2399,0,0,0,0,0,0,0,0,0,2374,2375,2376,0,0,0,0,2480,0,0,
0,0,2373,2390,2391,2370,2371,2328,2329,2406,2407,2422,2423,2438,0,0,0,0,0,0,0,0,0,0,0,0,0,0,2393,2414,2312,2398,2399,0,0,0,0,0,2374,2375,2390,2391,2392,0,0,0,0,2496,0,0,
0,0,2389,2406,2407,2386,2387,2344,2345,2422,2423,2438,2439,0,0,0,0,0,0,0,0,0,0,0,0,0,0,0,2409,2418,2328,2414,2415,2380,2312,2378,2379,2312,2390,2391,2403,2402,2408,0,0,0,0,2512,0,0,
0,0,2405,2422,2423,2428,2429,2360,2361,2438,2439,0,0,0,0,0,0,0,0,0,0,0,0,0,0,0,0,0,2425,2446,2344,2430,2431,2396,2328,2370,2371,2328,2406,2407,2419,2423,2424,0,0,0,0,2511,0,0,
0,0,2421,2438,2439,0,0,0,0,0,0,0,0,0,0,0,0,0,0,0,0,0,0,0,0,0,0,0,0,2462,2360,2446,2447,2412,2344,2386,2387,2344,2422,2423,2438,2439,0,0,0,0,0,2382,0,0,
0,0,2437,0,0,0,0,0,0,0,0,0,0,0,0,0,0,0,0,0,0,0,0,0,0,0,0,0,0,0,0,2462,2463,2428,2360,2426,2427,2360,2438,2439,0,0,0,0,0,0,2382,2382,0,0,
0,0,2453,0,0,0,0,0,0,0,0,0,0,0,0,0,0,0,0,0,0,0,0,0,0,0,0,0,0,0,0,0,0,0,0,0,0,0,0,0,0,0,0,0,0,2382,0,0,0,0,
0,0,2469,0,0,0,0,0,0,0,0,0,0,0,0,0,0,0,2382,2382,0,0,0,0,0,0,0,0,0,0,0,0,0,0,0,0,0,0,0,0,0,0,0,0,2382,0,0,0,0,0,
0,0,2501,0,0,0,0,0,0,0,0,0,0,0,2382,2382,0,2382,0,0,2382,0,0,0,0,0,0,0,0,0,0,0,0,0,0,0,0,0,0,0,0,0,0,2382,0,0,0,0,0,0,
0,0,2399,2537,0,0,0,0,0,0,0,0,0,0,0,2382,2382,0,0,0,0,2382,2382,2382,2382,2382,0,0,0,2382,2382,0,2382,2382,0,0,2382,2382,0,0,0,2382,2382,0,0,0,0,0,0,0,
0,0,0,2399,0,0,0,0,0,0,0,0,0,2541,0,0,0,0,0,0,0,0,0,0,0,0,2382,2382,2382,2382,0,2382,2382,0,2382,2382,2382,0,2382,2382,2382,0,0,0,0,0,0,0,0,0,
0,0,0,0,2399,0,0,2399,2399,2399,2399,0,0,2399,0,0,0,0,0,0,0,0,0,0,0,0,0,0,0,0,0,0,0,0,0,0,0,0,0,0,0,0,0,0,0,0,0,0,0,0,
0,0,0,0,0,2399,2399,2399,0,0,0,2399,2399,0,0,0,0,0,0,0,0,0,0,0,0,0,0,0,0,0,0,0,0,0,0,0,0,0,0,0,0,0,0,0,0,0,0,0,0,0,
0,0,0,0,0,0,0,0,0,0,0,0,0,0,0,0,0,0,0,0,0,0,0,0,0,0,0,0,0,0,0,0,0,0,0,0,0,0,0,0,0,0,0,0,0,0,0,0,0,0
</data>
 </layer>
 <layer id="3" name="Paths" width="50" height="50">
  <data encoding="csv">
0,0,0,0,0,0,0,0,0,0,0,0,0,0,0,0,0,0,0,0,0,0,0,0,0,0,0,0,0,0,0,0,0,0,0,0,0,0,0,0,0,0,0,0,0,0,0,0,0,0,
0,0,0,0,0,0,0,0,0,0,0,0,0,0,0,0,0,0,0,0,0,0,0,0,0,0,0,0,0,0,0,0,0,0,0,0,0,0,0,0,0,0,0,0,0,0,0,0,0,0,
0,0,0,0,0,0,0,0,0,0,0,0,0,0,0,0,0,0,0,0,0,0,0,0,0,0,0,0,0,0,0,0,0,0,0,0,0,0,0,0,0,0,0,0,0,0,0,0,0,0,
0,0,0,0,0,0,0,0,0,0,0,0,0,0,0,0,0,0,0,0,0,0,0,0,0,0,0,0,0,0,0,0,0,0,0,0,0,0,0,0,0,0,0,0,0,0,0,0,0,0,
0,0,0,0,0,0,0,0,0,0,0,0,0,0,0,0,0,0,0,0,0,0,0,0,0,0,0,0,0,0,0,0,0,0,0,0,0,0,0,0,0,0,0,0,0,0,0,0,0,0,
0,0,0,0,0,0,0,0,0,0,0,0,0,0,0,0,0,0,0,0,0,0,0,0,0,0,0,0,0,0,0,0,0,0,0,0,0,0,0,0,0,0,0,0,0,0,0,0,0,0,
0,0,0,0,0,0,0,0,0,0,0,0,0,0,0,0,0,0,0,0,0,0,0,0,0,0,0,0,0,0,0,0,0,0,0,0,0,0,0,0,0,0,0,0,0,0,0,0,0,0,
0,0,0,0,0,0,0,0,0,0,0,0,0,0,0,0,0,0,0,0,0,0,0,0,0,0,0,0,0,0,0,0,0,0,0,0,0,0,0,0,0,0,0,0,0,0,0,0,0,0,
0,0,0,0,0,0,0,0,0,0,0,0,0,0,0,0,0,0,0,0,0,0,0,0,0,0,0,0,0,0,0,0,0,0,0,0,0,0,0,0,0,0,0,0,0,0,0,0,0,0,
0,0,0,0,0,0,0,0,0,0,0,0,0,0,0,0,0,0,0,0,0,0,0,0,0,0,0,0,0,0,0,0,0,0,0,0,0,0,0,0,0,0,0,0,0,0,0,0,0,0,
0,0,0,0,0,0,0,0,0,0,0,0,0,0,0,0,0,0,0,0,0,0,0,0,0,0,0,0,0,0,0,0,0,0,0,0,0,0,0,0,0,0,0,0,0,0,0,0,0,0,
0,0,0,0,0,0,0,0,0,0,0,0,0,0,0,0,0,0,0,0,0,0,0,0,0,0,0,0,0,0,0,0,0,0,0,0,0,0,0,0,0,0,0,0,0,0,0,0,0,0,
0,0,0,0,0,0,0,0,0,0,0,0,0,0,0,0,0,0,0,0,0,0,0,0,0,0,0,0,0,0,0,0,0,0,0,0,0,0,0,0,0,0,0,0,0,0,0,0,0,0,
0,0,0,0,0,0,0,0,0,0,0,0,0,0,0,0,0,0,0,0,0,0,0,0,0,0,0,0,0,0,0,0,0,0,0,0,0,0,0,0,0,0,0,0,0,0,0,0,0,0,
0,0,0,0,0,0,0,0,0,0,0,0,0,0,0,0,0,0,0,0,0,0,0,0,0,0,0,0,0,0,0,0,0,0,0,0,0,0,0,0,0,0,0,0,0,0,0,0,0,0,
0,0,0,0,0,0,0,0,0,0,0,0,0,0,0,0,0,0,0,0,0,0,0,0,0,0,0,0,0,0,0,0,0,0,0,0,0,0,0,0,0,0,0,0,0,0,0,0,0,0,
0,0,0,0,0,0,0,0,0,0,0,0,0,0,0,0,0,0,0,0,0,0,0,0,0,0,0,0,0,0,0,0,0,0,0,0,0,0,0,0,0,0,0,0,0,0,0,0,0,0,
0,0,0,0,0,0,0,0,0,0,0,0,0,0,0,0,0,0,0,0,0,0,0,0,0,0,0,0,0,0,0,0,0,0,0,0,0,0,0,0,0,0,0,0,0,0,0,0,0,0,
0,0,0,0,0,0,0,0,0,0,0,0,0,0,0,0,0,0,0,0,0,0,0,0,0,0,0,0,0,0,0,0,0,0,0,0,0,0,0,0,0,0,0,0,0,0,0,0,0,0,
0,0,0,0,0,0,0,0,0,0,0,0,0,0,0,0,0,0,0,0,0,0,0,0,0,0,0,0,0,0,0,0,0,0,0,0,0,0,0,0,0,0,0,0,0,0,0,0,0,0,
0,0,0,0,0,0,0,0,0,0,0,0,0,0,0,0,0,0,0,0,0,0,0,0,0,0,0,0,0,0,0,0,0,0,0,0,0,0,0,0,0,0,0,0,0,0,0,0,0,0,
0,0,0,0,0,0,0,0,0,0,0,0,0,0,0,0,0,0,0,0,0,0,0,0,0,0,0,0,0,0,0,0,0,0,0,0,0,0,0,0,0,0,0,0,0,0,0,0,0,0,
0,0,0,0,0,0,0,0,0,0,0,0,0,0,0,0,0,0,0,0,0,0,0,0,0,0,0,0,0,0,0,0,0,0,0,0,0,0,0,0,0,0,0,0,0,0,0,0,0,0,
0,0,0,0,0,0,0,0,0,0,0,0,0,0,0,0,0,0,0,0,0,0,0,0,0,0,0,0,0,0,0,0,0,0,0,0,0,0,0,0,0,0,0,0,0,0,0,0,0,0,
0,0,0,0,0,0,0,0,0,0,0,0,0,0,0,0,0,0,0,0,0,0,0,0,0,0,0,0,0,0,0,0,0,0,0,0,0,0,0,0,0,0,0,0,0,0,0,0,0,0,
0,0,0,0,0,0,0,0,0,0,0,0,0,0,0,0,0,0,0,0,0,0,0,0,0,0,0,0,0,0,0,0,0,0,0,0,0,0,0,0,0,0,0,0,0,0,0,0,0,0,
0,0,0,0,0,0,0,0,0,0,0,0,0,0,0,0,0,0,0,0,0,0,0,0,0,0,0,0,0,0,0,0,0,0,0,0,0,0,0,0,0,0,0,0,0,0,0,0,0,0,
0,0,0,0,0,0,0,0,0,0,0,0,0,0,0,0,0,0,0,0,0,0,0,0,0,0,0,0,0,0,0,0,0,0,0,0,0,0,0,0,0,0,0,0,0,0,0,0,0,0,
0,0,0,0,0,0,0,0,0,0,0,0,0,0,0,0,0,0,0,0,0,0,0,0,0,0,0,0,0,0,0,0,0,0,0,0,0,0,0,0,0,0,0,0,0,0,0,0,0,0,
0,0,0,0,0,0,0,0,0,0,0,0,0,0,0,0,0,0,0,0,0,0,0,0,0,0,0,0,0,0,0,0,0,0,0,0,0,0,0,0,0,0,0,0,0,0,0,0,0,0,
0,0,0,0,0,0,0,0,0,0,0,0,0,0,0,0,0,0,0,0,0,0,0,0,0,0,0,0,0,0,0,0,0,0,0,0,0,0,0,0,0,0,0,0,0,0,0,0,0,0,
0,0,0,0,0,0,0,0,0,0,0,0,0,0,0,0,0,0,0,0,0,0,0,0,0,0,0,0,0,0,0,0,0,0,0,0,0,0,0,0,0,0,0,0,0,0,0,0,0,0,
0,0,0,0,0,0,0,0,0,0,0,0,0,0,0,0,0,0,0,0,0,0,0,0,0,0,0,0,0,0,0,0,0,0,0,0,0,0,0,0,0,0,0,0,0,0,0,0,0,0,
0,0,0,0,0,0,0,0,0,0,0,0,0,0,0,0,0,0,0,0,0,0,0,0,0,0,0,0,0,0,0,0,0,0,0,0,0,0,0,0,0,0,0,0,0,0,0,0,0,0,
0,0,0,0,0,0,0,0,0,0,0,0,0,0,0,0,0,0,0,0,0,0,0,0,0,0,0,0,0,0,0,0,0,0,0,0,0,0,0,0,0,0,0,0,0,0,0,0,0,0,
0,0,0,0,0,0,0,0,0,0,0,0,0,0,0,0,0,0,0,0,0,0,0,0,0,0,0,0,0,0,0,0,0,0,0,0,0,0,0,0,0,0,0,0,0,0,0,0,0,0,
0,0,0,0,0,0,0,0,0,0,0,0,0,0,0,0,0,0,0,0,0,0,0,0,0,0,0,0,0,0,0,0,0,0,0,0,0,0,0,0,0,0,0,0,0,0,0,0,0,0,
0,0,0,0,0,0,0,0,0,0,0,0,0,0,0,0,0,0,0,0,0,0,0,0,0,0,0,0,0,0,0,0,0,0,0,0,0,0,0,0,0,0,0,0,0,0,0,0,0,0,
0,0,0,0,0,0,0,0,0,0,0,0,0,0,0,0,0,0,0,0,0,0,0,0,0,0,0,0,0,0,0,0,0,0,0,0,0,0,0,0,0,0,0,0,0,0,0,0,0,0,
0,0,0,0,0,0,0,0,0,0,0,0,0,0,0,0,0,0,0,0,0,0,0,0,0,0,0,0,0,0,0,0,0,0,0,0,0,0,0,0,0,0,0,0,0,0,0,0,0,0,
0,0,0,0,0,0,0,0,0,0,0,0,0,0,0,0,0,0,0,0,0,0,0,0,0,0,0,0,0,0,0,0,0,0,0,0,0,0,0,0,0,0,0,0,0,0,0,0,0,0,
0,0,0,0,0,0,0,0,0,0,0,0,0,0,0,0,0,0,0,0,0,0,0,0,0,0,0,0,0,0,0,0,0,0,0,0,0,0,0,0,0,0,0,0,0,0,0,0,0,0,
0,0,0,0,0,0,0,0,0,0,0,0,0,0,0,0,0,0,0,0,0,0,0,0,0,0,0,0,0,0,0,0,0,0,0,0,0,0,0,0,0,0,0,0,0,0,0,0,0,0,
0,0,0,0,0,0,0,0,0,0,0,0,0,0,0,0,0,0,0,0,0,0,0,0,0,0,0,0,0,0,0,0,0,0,0,0,0,0,0,0,0,0,0,0,0,0,0,0,0,0,
0,0,0,0,0,0,0,0,0,0,0,0,0,0,0,0,0,0,0,0,0,0,0,0,0,0,0,0,0,0,0,0,0,0,0,0,0,0,0,0,0,0,0,0,0,0,0,0,0,0,
0,0,0,0,0,0,0,0,0,0,0,0,0,0,0,0,0,0,0,0,0,0,0,0,0,0,0,0,0,0,0,0,0,0,0,0,0,0,0,0,0,0,0,0,0,0,0,0,0,0,
0,0,0,0,0,0,0,0,0,0,0,0,0,0,0,0,0,0,0,0,0,0,0,0,0,0,0,0,0,0,0,0,0,0,0,0,0,0,0,0,0,0,0,0,0,0,0,0,0,0,
0,0,0,0,0,0,0,0,0,0,0,0,0,0,0,0,0,0,0,0,0,0,0,0,0,0,0,0,0,0,0,0,0,0,0,0,0,0,0,0,0,0,0,0,0,0,0,0,0,0,
0,0,0,0,0,0,0,0,0,0,0,0,0,0,0,0,0,0,0,0,0,0,0,0,0,0,0,0,0,0,0,0,0,0,0,0,0,0,0,0,0,0,0,0,0,0,0,0,0,0,
0,0,0,0,0,0,0,0,0,0,0,0,0,0,0,0,0,0,0,0,0,0,0,0,0,0,0,0,0,0,0,0,0,0,0,0,0,0,0,0,0,0,0,0,0,0,0,0,0,0
</data>
 </layer>
 <layer id="4" name="Front" width="50" height="50">
  <data encoding="csv">
2382,2382,2346,2347,2382,2334,2330,2331,2334,2382,2382,2382,2330,2331,2334,2346,2347,2382,2382,0,0,0,0,0,0,0,0,0,0,0,0,0,0,0,0,0,0,0,0,0,0,0,0,0,0,0,0,0,0,0,
2382,2382,2382,2362,2363,0,0,0,0,0,0,0,0,0,2362,2363,2334,2382,2382,2382,0,0,0,0,0,0,0,0,0,0,0,0,0,0,0,0,0,0,0,0,0,0,0,0,0,0,0,0,0,0,
2382,2382,2334,0,0,0,0,0,0,0,0,0,0,0,0,0,2348,2349,2382,2382,0,0,0,0,0,0,0,0,0,0,0,0,0,0,0,0,0,0,0,0,0,0,0,0,0,0,0,0,0,0,
2382,2382,0,0,0,0,0,0,0,0,0,0,0,0,0,0,2364,2365,2382,2382,0,0,0,0,0,0,0,0,0,0,0,0,0,0,0,0,0,0,0,0,0,0,0,0,0,0,0,0,0,0,
2382,2382,0,0,0,0,0,0,0,0,0,0,0,0,0,0,2334,2314,2315,2382,0,0,0,0,0,0,0,0,0,0,0,0,0,0,0,0,0,0,0,0,0,0,0,0,0,0,0,0,0,0,
2382,2382,0,0,0,0,0,0,0,0,0,0,0,0,0,0,2320,2334,2382,2382,0,0,0,0,0,0,0,0,0,0,0,0,0,0,0,0,0,0,0,0,0,0,0,0,0,0,0,0,0,0,
2382,2382,0,0,0,0,0,0,0,0,0,0,0,0,0,0,2382,2382,2382,2382,0,0,0,0,0,0,0,0,0,0,0,0,0,0,0,0,0,0,0,0,0,0,0,0,0,0,0,0,0,0,
2382,2382,0,0,0,0,0,0,0,0,0,0,0,0,0,0,2314,2315,2382,2382,0,0,0,0,0,0,0,0,0,0,0,0,0,0,0,0,0,0,0,0,0,0,0,0,0,0,0,0,0,0,
2315,2382,0,0,0,0,0,0,0,0,0,0,0,0,0,0,2382,2382,2382,2382,0,0,0,0,0,0,0,0,0,0,0,0,0,0,0,0,0,0,0,0,0,0,0,0,0,0,0,0,0,0,
2382,2334,2469,0,0,0,0,0,0,0,0,0,0,0,2525,0,2382,2382,2382,2314,0,0,0,0,0,0,0,0,0,0,0,0,0,0,0,0,0,0,0,0,0,0,0,0,0,0,0,0,0,0,
2382,2317,2518,2502,0,0,0,0,0,0,0,0,0,0,2541,2382,2382,2382,2382,2382,0,0,0,0,0,0,0,0,0,0,0,0,0,0,0,0,0,0,0,0,0,0,0,0,0,0,0,0,0,0,
2334,2350,2351,2518,2521,0,0,0,0,0,0,0,0,2510,2526,2382,2382,2382,2314,2315,0,0,0,0,0,0,0,0,0,0,0,0,0,0,0,0,0,0,0,0,0,0,0,0,0,0,0,0,0,0,
2382,2366,2367,2317,2537,0,0,0,0,0,0,2510,2520,2526,2382,2382,2382,2382,2382,2330,0,0,0,0,0,0,0,0,0,0,0,0,0,0,0,0,0,0,0,0,0,0,0,0,0,0,0,0,0,0,
2382,2382,2334,2382,0,0,0,0,0,2525,2520,2526,2382,2382,2382,2382,2382,2382,2382,2334,0,0,0,0,0,0,0,0,0,0,0,0,0,0,0,0,0,0,0,0,0,0,0,0,0,0,0,0,0,0,
2382,2382,2382,0,0,0,0,0,0,2541,2314,2315,2382,2382,2382,2382,2382,2382,2382,2382,0,0,0,0,0,0,0,0,0,0,0,0,0,0,0,0,0,0,0,0,0,0,0,0,0,0,0,0,0,0,
2382,0,0,0,0,0,0,0,2525,2526,2382,2382,2382,2382,2382,2382,2382,2382,2382,2382,0,0,0,0,0,0,0,0,0,0,0,0,0,0,0,0,0,0,0,0,0,0,0,0,0,0,0,0,0,0,
2382,0,0,0,0,0,0,0,2541,2382,2382,2382,2382,2382,2382,2382,2382,2382,2382,2382,0,0,0,0,0,0,0,0,0,0,0,0,0,0,0,0,0,0,0,0,0,0,0,0,0,0,0,0,0,0,
2382,0,0,0,0,0,0,2525,2526,2382,2382,2382,2382,2382,2382,2382,2382,2382,2382,2382,0,0,0,0,0,0,0,0,0,0,0,0,0,0,0,0,0,0,0,0,0,0,0,0,0,0,0,0,0,0,
2382,0,0,0,0,0,0,2541,2316,2334,2382,2382,2382,2382,2382,2382,2382,2382,2382,2382,0,0,0,0,0,0,0,0,0,0,0,0,0,0,0,0,0,0,0,0,0,0,0,0,0,0,0,0,0,0,
2382,0,0,0,0,0,2510,2526,2320,2382,2382,2382,2382,2382,2382,2382,2382,2382,2382,2382,0,0,0,0,0,0,0,0,0,0,0,0,0,0,0,0,0,0,0,0,0,0,0,0,0,0,0,0,0,0,
2382,0,0,0,0,0,0,2348,2349,2334,2382,2382,2382,2382,2382,2382,2382,2382,2382,2382,0,0,0,0,0,0,0,0,0,0,0,0,0,0,0,0,0,0,0,0,0,0,0,0,0,0,0,0,0,0,
2382,0,0,0,0,0,0,2364,2363,2382,2314,2315,2382,2382,2382,2382,2382,2334,2382,2382,0,0,0,0,0,0,0,0,0,0,0,0,0,0,0,0,0,0,0,0,0,0,0,0,0,0,0,0,0,0,
2334,0,0,0,0,0,0,0,2330,2368,2330,2331,2334,2382,2348,2382,0,2334,0,0,2314,2315,0,0,2314,2315,2382,2366,2382,2334,2382,2362,2363,2330,2331,2332,2382,2366,2362,2363,2382,2330,2331,2382,2368,2382,2334,2314,2315,0,
2317,0,0,0,0,0,0,0,0,0,0,0,0,0,2364,2363,2332,2382,2382,2334,2382,2382,2368,2330,2331,2362,2363,2352,0,0,0,0,0,0,0,0,0,0,0,0,0,0,0,2332,2362,2363,2348,2382,0,0,
2368,2485,0,0,0,0,0,0,0,0,0,0,0,0,0,0,2362,2363,2382,2382,2368,2366,0,0,0,0,0,0,0,0,0,0,2356,0,0,0,0,0,0,0,0,0,0,0,0,2332,2364,2363,2314,2315,
2382,2518,2521,0,0,0,0,0,0,0,0,0,0,0,0,0,0,0,0,0,0,0,0,0,0,0,0,0,0,0,0,0,0,0,0,0,0,0,0,0,0,0,0,0,0,0,0,2332,0,0,
2350,2351,2537,0,0,0,0,0,0,0,0,0,0,0,0,0,0,0,0,0,0,0,0,0,0,0,0,0,0,0,0,0,0,0,0,0,0,0,0,0,0,0,0,0,0,0,0,2320,2314,2315,
2319,2367,2518,2521,0,0,0,0,0,0,0,0,0,0,0,0,0,0,0,0,0,0,0,0,0,0,0,0,0,0,0,0,0,0,0,0,0,0,0,0,0,0,0,0,0,0,0,2332,2334,0,
2350,2351,2382,2537,0,0,0,0,0,0,0,0,0,0,0,0,0,0,0,0,0,0,0,0,0,0,0,0,0,0,0,0,0,0,0,0,0,0,0,0,0,0,0,0,0,0,0,2368,2336,0,
2382,2367,2363,2518,2502,0,0,0,0,2536,0,0,0,0,0,0,0,0,0,0,0,0,0,0,0,0,0,0,0,0,0,0,0,2535,2536,0,0,0,2535,2536,0,0,0,0,0,0,0,2348,2349,0,
2318,2319,2350,2351,2518,2519,2520,2519,2520,2518,2519,2520,2502,0,0,0,0,0,0,0,0,0,0,0,0,0,0,0,0,0,0,2510,2519,2526,2518,2520,2519,2520,2526,2518,2502,0,0,0,0,0,0,2364,2365,0,
2334,2335,2382,2367,2382,2368,2382,2382,2382,2382,2382,2382,2518,2521,0,0,0,0,0,0,0,0,0,0,0,0,0,0,0,2510,2520,2526,2382,2382,2382,2382,2382,2382,2382,2382,2518,2520,2521,0,0,0,0,2332,2334,2368,
0,0,0,0,0,0,0,0,0,2382,2382,2382,2382,2537,0,0,0,0,0,0,0,0,0,0,0,0,0,0,2510,2526,2382,2382,2382,2382,2382,2382,2382,2382,2382,2382,2382,2382,2537,0,0,0,0,0,2352,0,
0,0,0,0,0,0,0,0,0,2382,2382,2382,2382,0,0,0,0,0,0,0,0,0,0,0,0,0,0,0,2480,2382,2382,2382,2382,2382,2382,2382,2382,2382,2382,2382,2382,2382,0,0,0,0,0,0,2368,2366,
0,2382,2382,2382,2382,2382,2314,2315,2346,2347,2334,0,0,0,0,0,0,0,0,0,0,0,0,0,0,0,0,0,0,2382,2382,2382,2382,2382,2382,2382,2382,2382,2382,2382,2382,2382,0,0,0,0,0,0,2382,0,
0,2382,2382,2382,2382,2334,2349,2330,2331,2336,0,0,0,0,0,0,0,0,0,0,0,0,0,0,0,0,0,0,0,2382,2382,2382,2382,2382,2382,2382,2382,2382,2382,2382,2382,2382,0,0,0,0,0,0,2320,2334,
0,2382,2382,0,0,0,0,0,0,0,0,0,0,0,0,0,0,0,0,0,0,0,0,0,0,0,0,0,0,0,2382,2382,2382,2382,2382,2382,2382,2382,2382,2382,2382,0,0,0,0,0,0,0,2382,0,
2382,2382,0,0,0,0,0,0,0,0,0,0,0,0,0,0,0,0,0,0,0,0,0,0,0,0,0,0,0,0,0,0,2382,2382,2382,2382,2382,2382,2382,0,0,0,0,0,0,0,0,0,2366,2368,
2382,2382,0,0,0,0,0,0,0,0,0,0,0,0,0,0,0,0,0,0,0,0,0,0,0,0,0,0,0,0,0,0,0,0,0,0,0,0,0,0,0,0,0,0,0,0,0,0,2334,2368,
2382,2382,0,0,0,0,0,0,0,0,0,0,0,0,0,0,0,0,0,0,0,0,0,0,0,0,0,0,0,0,0,0,0,0,0,0,0,0,0,0,0,0,0,0,0,0,0,0,2368,0,
2382,2368,0,0,0,0,0,0,0,0,0,0,0,0,0,0,0,0,0,0,0,0,0,0,0,0,0,0,0,0,0,0,0,0,0,0,0,0,0,0,0,0,0,0,0,0,2510,2526,2314,2315,
2334,2317,0,0,0,0,0,0,0,0,0,0,0,0,0,0,0,0,0,0,0,0,0,0,0,0,0,0,0,0,0,0,0,0,0,0,0,0,0,0,0,0,0,0,0,2510,2526,2332,2352,0,
2382,2368,0,0,0,0,0,0,0,0,0,0,0,0,0,0,0,0,2535,2536,0,0,0,0,0,0,0,0,0,0,0,0,0,0,0,0,0,0,0,0,0,0,0,0,2510,2526,2320,2336,2382,0,
2318,2319,2437,0,0,0,0,0,0,0,0,0,0,0,2535,2536,0,2510,2526,2518,2502,0,0,0,0,0,0,0,0,0,0,0,0,0,0,0,0,0,0,0,0,0,0,2510,2526,2332,2368,2334,2314,2315,
2382,2335,2518,2521,0,0,0,0,0,0,0,0,0,0,2526,2518,2520,2526,2368,2382,2518,2519,2520,2519,2520,2502,0,0,0,2535,2536,0,2535,2536,0,0,2535,2536,0,0,0,2510,2520,2526,2368,2330,2331,2382,2382,0,
2334,2350,2351,2537,0,0,0,0,0,0,0,0,0,2525,2368,2382,2336,2382,2330,2331,2334,2382,2330,2351,2334,2518,2519,2520,2519,2526,2518,2520,2526,2518,2520,2519,2526,2518,2519,2520,2519,2526,2382,2334,2366,2334,2382,0,0,0,
2382,2366,2367,2518,2502,0,0,2510,2519,2520,2502,0,0,2541,2330,2331,0,2334,0,0,0,0,2362,2367,2382,2368,2334,2382,2330,2331,2368,2334,2382,2336,2368,2366,2334,2382,2368,2382,2382,2382,2330,2331,2382,2314,2315,0,0,0,
2318,2319,2330,2331,2518,2519,2520,2526,2382,2382,2518,2519,2520,2526,0,0,0,0,0,0,0,0,0,0,0,0,0,0,0,0,0,0,0,0,0,0,0,0,0,0,0,0,0,0,0,0,0,0,0,0,
2382,2335,0,2382,2382,2382,2382,2382,2330,2331,2382,2382,2382,2382,0,0,0,0,0,0,0,0,0,0,0,0,0,0,0,0,0,0,0,0,0,0,0,0,0,0,0,0,0,0,0,0,0,0,0,0,
0,0,0,0,0,0,0,0,0,0,0,0,0,0,0,0,0,0,0,0,0,0,0,0,0,0,0,0,0,0,0,0,0,0,0,0,0,0,0,0,0,0,0,0,0,0,0,0,0,0
</data>
 </layer>
 <layer id="5" name="AlwaysFront" width="50" height="50">
  <data encoding="csv">
0,0,0,0,0,0,0,0,0,0,0,0,0,0,0,0,0,0,0,0,0,0,0,0,0,0,0,0,0,0,0,0,0,0,0,0,0,0,0,0,0,0,0,0,0,0,0,0,0,0,
0,0,0,0,0,0,0,0,0,0,0,0,0,0,0,0,0,0,0,0,0,0,0,0,0,0,0,0,0,0,0,0,0,0,0,0,0,0,0,0,0,0,0,0,0,0,0,0,0,0,
0,0,0,0,0,0,0,0,0,0,0,0,0,0,0,0,0,0,0,0,0,0,0,0,0,0,0,0,0,0,0,0,0,0,0,0,0,0,0,0,0,0,0,0,0,0,0,0,0,0,
0,0,0,0,0,0,0,0,0,0,0,0,0,0,0,0,0,0,0,0,0,0,0,0,0,0,0,0,0,0,0,0,0,0,0,0,0,0,0,0,0,0,0,0,0,0,0,0,0,0,
0,0,0,0,0,0,0,0,0,0,0,0,0,0,0,0,0,0,0,0,0,0,0,0,0,0,0,0,0,0,0,0,0,0,0,0,0,0,0,0,0,0,0,0,0,0,0,0,0,0,
0,0,0,0,0,0,0,0,0,0,0,0,0,0,0,0,0,0,0,0,0,0,0,0,0,0,0,0,0,0,0,0,0,0,0,0,0,0,0,0,0,0,0,0,0,0,0,0,0,0,
0,0,0,0,0,0,0,0,0,0,0,0,0,0,0,0,0,0,0,0,0,0,0,0,0,0,0,0,0,0,0,0,0,0,0,0,0,0,0,0,0,0,0,0,0,0,0,0,0,0,
0,0,0,0,0,0,0,0,0,0,0,0,0,0,0,0,0,0,0,0,0,0,0,0,0,0,0,0,0,0,0,0,0,0,0,0,0,0,0,0,0,0,0,0,0,0,0,0,0,0,
0,0,0,0,0,0,0,0,0,0,0,0,0,0,0,0,0,0,0,0,0,0,0,0,0,0,0,0,0,0,0,0,0,0,0,0,0,0,0,0,0,0,0,0,0,0,0,0,0,0,
0,0,0,0,0,0,0,0,0,0,0,0,0,0,0,0,0,0,0,0,0,0,0,0,0,0,0,0,0,0,0,0,0,0,0,0,0,0,0,0,0,0,0,0,0,0,0,0,0,0,
0,0,0,0,0,0,0,0,0,0,0,0,0,0,0,0,0,0,0,0,0,0,0,0,0,0,0,0,0,0,0,0,0,0,0,0,0,0,0,0,0,0,0,0,0,0,0,0,0,0,
0,0,0,0,0,0,0,0,0,0,0,0,0,0,0,0,0,0,0,0,0,0,0,0,0,0,0,0,0,0,0,0,0,0,0,0,0,0,0,0,0,0,0,0,0,0,0,0,0,0,
0,0,0,0,0,0,0,0,0,0,0,0,0,0,0,0,0,0,0,0,0,0,0,0,0,0,0,0,0,0,0,0,0,0,0,0,0,0,0,0,0,0,0,0,0,0,0,0,0,0,
0,0,0,0,0,0,0,0,0,0,0,0,0,0,0,0,0,0,0,0,0,0,0,0,0,0,0,0,0,0,0,0,0,0,0,0,0,0,0,0,0,0,0,0,0,0,0,0,0,0,
0,0,0,0,0,0,0,0,0,0,0,0,0,0,0,0,0,0,0,0,0,0,0,0,0,0,0,0,0,0,0,0,0,0,0,0,0,0,0,0,0,0,0,0,0,0,0,0,0,0,
0,0,0,0,0,0,0,0,0,0,0,0,0,0,0,0,0,0,0,0,0,0,0,0,0,0,0,0,0,0,0,0,0,0,0,0,0,0,0,0,0,0,0,0,0,0,0,0,0,0,
0,0,0,0,0,0,0,0,0,0,0,0,0,0,0,0,0,0,0,0,0,0,0,0,0,0,0,0,0,0,0,0,0,0,0,0,0,0,0,0,0,0,0,0,0,0,0,0,0,0,
0,0,0,0,0,0,0,0,0,0,0,0,0,0,0,0,0,0,0,0,0,0,0,0,0,0,0,0,0,0,0,0,0,0,0,0,0,0,0,0,0,0,0,0,0,0,0,0,0,0,
0,0,0,0,0,0,0,0,0,0,0,0,0,0,0,0,0,0,0,0,0,0,0,0,0,0,0,0,0,0,0,0,0,0,0,0,0,0,0,0,0,0,0,0,0,0,0,0,0,0,
0,0,0,0,0,0,0,0,0,0,0,0,0,0,0,0,0,0,0,0,0,0,0,0,0,0,0,0,0,0,0,0,0,0,0,0,0,0,0,0,0,0,0,0,0,0,0,0,0,0,
0,0,0,0,0,0,0,0,0,0,0,0,0,0,0,0,0,0,0,0,0,0,0,0,0,0,0,0,0,0,0,0,0,0,0,0,0,0,0,0,0,0,0,0,0,0,0,0,0,0,
0,0,0,0,0,0,0,0,0,0,0,0,0,0,0,0,0,0,0,0,0,0,0,0,0,0,0,0,0,0,0,0,0,0,0,0,0,0,0,0,0,0,0,0,0,0,0,0,0,0,
0,0,0,0,0,0,0,0,0,0,0,0,0,0,0,0,0,0,0,0,0,0,0,0,0,0,0,0,0,0,0,0,0,0,0,0,0,0,0,0,0,0,0,0,0,0,0,0,0,0,
0,0,0,0,0,0,0,0,0,0,0,0,0,0,0,0,0,0,0,0,0,0,0,0,0,0,0,0,0,0,0,0,0,0,0,0,0,0,0,0,0,0,0,0,0,0,0,0,0,0,
0,0,0,0,0,0,0,0,0,0,0,0,0,0,0,0,0,0,0,0,0,0,0,0,0,0,0,0,0,0,0,0,0,0,0,0,0,0,0,0,0,0,0,0,0,0,0,0,0,0,
0,0,0,0,0,0,0,0,0,0,0,0,0,0,0,0,0,0,0,0,0,0,0,0,0,0,0,0,0,0,0,0,0,0,0,0,0,0,0,0,0,0,0,0,0,0,0,0,0,0,
0,0,0,0,0,0,0,0,0,0,0,0,0,0,0,0,0,0,0,0,0,0,0,0,0,0,0,0,0,0,0,0,0,0,0,0,0,0,0,0,0,0,0,0,0,0,0,0,0,0,
0,0,0,0,0,0,0,0,0,0,0,0,0,0,0,0,0,0,0,0,0,0,0,0,0,0,0,0,0,0,0,0,0,0,0,0,0,0,0,0,0,0,0,0,0,0,0,0,0,0,
0,0,0,0,0,0,0,0,0,0,0,0,0,0,0,0,0,0,0,0,0,0,0,0,0,0,0,0,0,0,0,0,0,0,0,0,0,0,0,0,0,0,0,0,0,0,0,0,0,0,
0,0,0,0,0,0,0,0,0,0,0,0,0,0,0,0,0,0,0,0,0,0,0,0,0,0,0,0,0,0,0,0,0,0,0,0,0,0,0,0,0,0,0,0,0,0,0,0,0,0,
0,0,0,0,0,0,0,0,0,0,0,0,0,0,0,0,0,0,0,0,0,0,0,0,0,0,0,0,0,0,0,0,0,0,0,0,0,0,0,0,0,0,0,0,0,0,0,0,0,0,
0,0,0,0,0,0,0,0,0,0,0,0,0,0,0,0,0,0,0,0,0,0,0,0,0,0,0,0,0,0,0,0,0,0,0,0,0,0,0,0,0,0,0,0,0,0,0,0,0,0,
0,0,0,0,0,0,0,0,0,0,0,0,0,0,0,0,0,0,0,0,0,0,0,0,0,0,0,0,0,0,0,0,0,0,0,0,0,0,0,0,0,0,0,0,0,0,0,0,0,0,
0,0,0,0,0,0,0,0,0,0,0,0,0,0,0,0,0,0,0,0,0,0,0,0,0,0,0,0,0,0,0,0,0,0,0,0,0,0,0,0,0,0,0,0,0,0,0,0,0,0,
0,0,0,0,0,0,0,0,0,0,0,0,0,0,0,0,0,0,0,0,0,0,0,0,0,0,0,0,0,0,0,0,0,0,0,0,0,0,0,0,0,0,0,0,0,0,0,0,0,0,
0,0,0,0,0,0,0,0,0,0,0,0,0,0,0,0,0,0,0,0,0,0,0,0,0,0,0,0,0,0,0,0,0,0,0,0,0,0,0,0,0,0,0,0,0,0,0,0,0,0,
0,0,0,0,0,0,0,0,0,0,0,0,0,0,0,0,0,0,0,0,0,0,0,0,0,0,0,0,0,0,0,0,0,0,0,0,0,0,0,0,0,0,0,0,0,0,0,0,0,0,
0,0,0,0,0,0,0,0,0,0,0,0,0,0,0,0,0,0,0,0,0,0,0,0,0,0,0,0,0,0,0,0,0,0,0,0,0,0,0,0,0,0,0,0,0,0,0,0,0,0,
0,0,0,0,0,0,0,0,0,0,0,0,0,0,0,0,0,0,0,0,0,0,0,0,0,0,0,0,0,0,0,0,0,0,0,0,0,0,0,0,0,0,0,0,0,0,0,0,0,0,
0,0,0,0,0,0,0,0,0,0,0,0,0,0,0,0,0,0,0,0,0,0,0,0,0,0,0,0,0,0,0,0,0,0,0,0,0,0,0,0,0,0,0,0,0,0,0,0,0,0,
0,0,0,0,0,0,0,0,0,0,0,0,0,0,0,0,0,0,0,0,0,0,0,0,0,0,0,0,0,0,0,0,0,0,0,0,0,0,0,0,0,0,0,0,0,0,0,0,0,0,
0,0,0,0,0,0,0,0,0,0,0,0,0,0,0,0,0,0,0,0,0,0,0,0,0,0,0,0,0,0,0,0,0,0,0,0,0,0,0,0,0,0,0,0,0,0,0,0,0,0,
0,0,0,0,0,0,0,0,0,0,0,0,0,0,0,0,0,0,0,0,0,0,0,0,0,0,0,0,0,0,0,0,0,0,0,0,0,0,0,0,0,0,0,0,0,0,0,0,0,0,
0,0,0,0,0,0,0,0,0,0,0,0,0,0,0,0,0,0,0,0,0,0,0,0,0,0,0,0,0,0,0,0,0,0,0,0,0,0,0,0,0,0,0,0,0,0,0,0,0,0,
0,0,0,0,0,0,0,0,0,0,0,0,0,0,0,0,0,0,0,0,0,0,0,0,0,0,0,0,0,0,0,0,0,0,0,0,0,0,0,0,0,0,0,0,0,0,0,0,0,0,
0,0,0,0,0,0,0,0,0,0,0,0,0,0,0,0,0,0,0,0,0,0,0,0,0,0,0,0,0,0,0,0,0,0,0,0,0,0,0,0,0,0,0,0,0,0,0,0,0,0,
0,0,0,0,0,0,0,0,0,0,0,0,0,0,0,0,0,0,0,0,0,0,0,0,0,0,0,0,0,0,0,0,0,0,0,0,0,0,0,0,0,0,0,0,0,0,0,0,0,0,
0,0,0,0,0,0,0,0,0,0,0,0,0,0,0,0,0,0,0,0,0,0,0,0,0,0,0,0,0,0,0,0,0,0,0,0,0,0,0,0,0,0,0,0,0,0,0,0,0,0,
0,0,0,0,0,0,0,0,0,0,0,0,0,0,0,0,0,0,0,0,0,0,0,0,0,0,0,0,0,0,0,0,0,0,0,0,0,0,0,0,0,0,0,0,0,0,0,0,0,0,
0,0,0,0,0,0,0,0,0,0,0,0,0,0,0,0,0,0,0,0,0,0,0,0,0,0,0,0,0,0,0,0,0,0,0,0,0,0,0,0,0,0,0,0,0,0,0,0,0,0
</data>
 </layer>
</map>
