<?xml version="1.0" encoding="UTF-8"?>
<map version="1.10" tiledversion="1.12.1" orientation="orthogonal" renderorder="right-down" width="50" height="50" tilewidth="16" tileheight="16" infinite="0" nextlayerid="6" nextobjectid="1">
 <tileset firstgid="1" name="summer_town" tilewidth="16" tileheight="16" tilecount="2304" columns="32">
  <image source="summer_town.png" width="512" height="1152"/>
 </tileset>
 <tileset firstgid="2305" name="mine" tilewidth="16" tileheight="16" tilecount="288" columns="16">
  <image source="mine_quarryshaft.png" width="256" height="288"/>
  <tile id="0">
   <properties>
    <property name="Type" value="Dirt"/>
   </properties>
  </tile>
  <tile id="2">
   <properties>
    <property name="Type" value="Stone"/>
   </properties>
  </tile>
  <tile id="17">
   <properties>
    <property name="Type" value="Stone"/>
   </properties>
  </tile>
  <tile id="18">
   <properties>
    <property name="Type" value="Stone"/>
   </properties>
  </tile>
  <tile id="19">
   <properties>
    <property name="Type" value="Stone"/>
   </properties>
  </tile>
  <tile id="33">
   <properties>
    <property name="Type" value="Stone"/>
   </properties>
  </tile>
  <tile id="34">
   <properties>
    <property name="Type" value="Stone"/>
   </properties>
  </tile>
  <tile id="137">
   <properties>
    <property name="Type" value="Stone"/>
   </properties>
  </tile>
  <tile id="138">
   <properties>
    <property name="Type" value="Stone"/>
   </properties>
  </tile>
  <tile id="139">
   <properties>
    <property name="Type" value="Stone"/>
   </properties>
  </tile>
  <tile id="140">
   <properties>
    <property name="Type" value="Stone"/>
   </properties>
  </tile>
  <tile id="153">
   <properties>
    <property name="Type" value="Stone"/>
   </properties>
  </tile>
  <tile id="154">
   <properties>
    <property name="Type" value="Stone"/>
   </properties>
  </tile>
  <tile id="155">
   <properties>
    <property name="Type" value="Stone"/>
   </properties>
  </tile>
  <tile id="165">
   <properties>
    <property name="Type" value="Dirt"/>
   </properties>
  </tile>
  <tile id="166">
   <properties>
    <property name="Type" value="Stone"/>
   </properties>
  </tile>
  <tile id="167">
   <properties>
    <property name="Type" value="Stone"/>
   </properties>
  </tile>
  <tile id="168">
   <properties>
    <property name="Type" value="Stone"/>
   </properties>
  </tile>
  <tile id="169">
   <properties>
    <property name="Type" value="Stone"/>
   </properties>
  </tile>
  <tile id="170">
   <properties>
    <property name="Type" value="Stone"/>
   </properties>
  </tile>
  <tile id="171">
   <properties>
    <property name="Type" value="Stone"/>
   </properties>
  </tile>
  <tile id="172">
   <properties>
    <property name="Type" value="Stone"/>
   </properties>
  </tile>
  <tile id="181">
   <properties>
    <property name="Type" value="Dirt"/>
   </properties>
  </tile>
  <tile id="182">
   <properties>
    <property name="Type" value="Stone"/>
   </properties>
  </tile>
  <tile id="183">
   <properties>
    <property name="Type" value="Dirt"/>
   </properties>
  </tile>
  <tile id="184">
   <properties>
    <property name="Type" value="Stone"/>
   </properties>
  </tile>
  <tile id="185">
   <properties>
    <property name="Type" value="Stone"/>
   </properties>
  </tile>
  <tile id="186">
   <properties>
    <property name="Type" value="Stone"/>
   </properties>
  </tile>
  <tile id="187">
   <properties>
    <property name="Type" value="Stone"/>
   </properties>
  </tile>
  <tile id="188">
   <properties>
    <property name="Type" value="Stone"/>
   </properties>
  </tile>
  <tile id="198">
   <properties>
    <property name="Type" value="Stone"/>
   </properties>
  </tile>
  <tile id="199">
   <properties>
    <property name="Type" value="Stone"/>
   </properties>
  </tile>
  <tile id="200">
   <properties>
    <property name="Type" value="Stone"/>
   </properties>
  </tile>
  <tile id="201">
   <properties>
    <property name="Type" value="Stone"/>
   </properties>
  </tile>
  <tile id="202">
   <properties>
    <property name="Type" value="Stone"/>
   </properties>
  </tile>
  <tile id="203">
   <properties>
    <property name="Type" value="Stone"/>
   </properties>
  </tile>
  <tile id="204">
   <properties>
    <property name="Type" value="Stone"/>
   </properties>
  </tile>
  <tile id="217">
   <properties>
    <property name="Type" value="Stone"/>
   </properties>
  </tile>
  <tile id="218">
   <properties>
    <property name="Type" value="Stone"/>
   </properties>
  </tile>
  <tile id="219">
   <properties>
    <property name="Type" value="Stone"/>
   </properties>
  </tile>
  <tile id="233">
   <properties>
    <property name="Type" value="Stone"/>
   </properties>
  </tile>
  <tile id="234">
   <properties>
    <property name="Type" value="Stone"/>
   </properties>
  </tile>
  <tile id="235">
   <properties>
    <property name="Type" value="Stone"/>
   </properties>
  </tile>
  <tile id="240">
   <properties>
    <property name="Type" value="Wood"/>
   </properties>
  </tile>
  <tile id="241">
   <properties>
    <property name="Type" value="Wood"/>
   </properties>
  </tile>
  <tile id="242">
   <properties>
    <property name="Type" value="Wood"/>
   </properties>
  </tile>
  <tile id="256">
   <properties>
    <property name="Type" value="Wood"/>
   </properties>
  </tile>
  <tile id="257">
   <properties>
    <property name="Type" value="Wood"/>
   </properties>
  </tile>
  <tile id="258">
   <properties>
    <property name="Type" value="Wood"/>
   </properties>
  </tile>
  <tile id="272">
   <properties>
    <property name="Type" value="Wood"/>
   </properties>
  </tile>
  <tile id="273">
   <properties>
    <property name="Type" value="Wood"/>
   </properties>
  </tile>
  <tile id="274">
   <properties>
    <property name="Type" value="Wood"/>
   </properties>
  </tile>
 </tileset>
 <layer id="1" name="Back" width="50" height="50">
  <data encoding="csv">
0,0,0,0,0,0,0,0,0,0,0,0,0,0,0,0,0,0,0,0,0,0,0,0,0,0,0,0,0,0,0,0,0,0,0,0,0,0,0,0,0,0,0,0,0,0,0,0,0,0,
0,0,0,0,0,0,0,0,0,0,0,0,0,0,0,0,0,0,0,0,0,0,0,0,0,0,0,0,0,0,0,0,0,0,0,0,0,0,0,0,0,0,0,0,0,0,0,0,0,0,
0,0,0,0,0,0,0,0,0,0,0,0,0,0,0,0,0,0,0,0,0,0,0,0,0,0,0,0,0,0,0,0,0,0,0,0,0,0,0,0,0,0,0,0,0,0,0,0,0,0,
0,0,0,0,0,0,0,0,0,0,0,0,0,0,0,0,0,0,0,0,0,2443,0,0,0,0,2475,2459,2444,2443,2459,2444,2460,2476,2444,2474,2475,2444,0,0,0,0,0,0,0,0,0,0,0,0,
0,0,0,0,0,0,0,0,0,0,0,0,0,0,0,0,0,0,0,0,0,2443,0,0,2459,2459,2458,2460,2458,2459,2506,2507,2507,2507,2507,2507,2507,2507,2507,2507,2508,2443,0,0,0,0,0,0,0,0,
0,0,0,0,0,0,0,0,0,0,0,0,0,0,0,0,0,0,0,0,0,2443,0,2460,2506,2443,2475,2442,2443,2476,2493,2523,2523,2523,2523,2523,2523,2523,2523,2523,2492,2507,0,0,0,0,0,0,0,0,
0,0,0,0,0,0,0,0,0,2443,2443,2443,2323,2443,2443,2522,2523,2443,2443,2443,2506,2508,2523,2523,2493,2523,2523,2523,2523,2523,2523,2491,2539,2539,2539,2539,2539,2539,2490,2523,2523,2492,2493,2523,2524,0,0,0,0,0,
0,0,0,0,0,0,0,0,0,2443,2443,2443,2459,2444,2460,2476,2444,2474,2506,2507,2493,2523,2523,2523,2523,2491,2539,2539,2539,2539,2539,2540,2443,2443,2307,2307,2458,2443,2538,2539,2490,2523,2523,2523,2524,0,0,0,0,0,
0,0,0,0,0,0,0,0,0,2443,2443,2459,2506,2507,2507,2507,2507,2507,2493,2523,2491,2539,2539,2539,2539,2540,2445,2458,2443,2322,2323,2340,2322,2323,2338,2324,2338,2324,2460,2307,2538,2539,2490,2523,2524,0,0,0,0,0,
0,0,0,0,0,0,0,0,0,2443,2443,2476,2493,2523,2523,2523,2523,2523,2523,2491,2540,2460,2475,2443,2445,2458,2443,2474,2472,2472,2472,2472,2472,2459,2442,2459,2339,2444,2442,2443,2475,2443,2522,2523,2524,0,0,0,0,0,
0,0,0,0,0,0,0,0,2443,2443,2443,2523,2523,2491,2539,2539,2539,2539,2539,2540,2545,2546,2547,2443,2443,2472,2472,2457,2488,2488,2470,2488,2488,2456,2472,2474,2442,2443,2442,2475,2443,2443,2522,2523,2524,0,0,0,0,0,
0,0,0,0,0,0,0,0,2443,2443,2443,2539,2539,2540,2443,2443,2443,2443,2443,2443,2561,2562,2563,2475,2457,2488,2488,2488,2488,2488,2488,2488,2488,2488,2488,2456,2476,2442,2442,2443,2443,2443,2522,2523,2492,2493,2523,0,0,0,
0,0,0,0,0,0,0,0,2443,2443,2443,2443,2443,2460,2443,2443,2443,2443,0,2443,2577,2578,2579,2487,2488,2488,2488,2470,2488,2488,2486,2470,2488,2488,2470,2488,2475,2443,2475,2476,2307,2443,2538,2490,2523,2523,2523,0,0,0,
0,0,0,0,0,0,0,0,2322,2443,2443,2443,2458,2307,2443,2443,2443,2443,0,2443,2443,2443,2443,2487,2488,2470,2488,2488,2488,2488,2488,2488,2488,2488,2488,2488,2445,2442,2443,2322,2338,2323,2324,2538,2539,2490,2523,0,0,0,
0,0,0,0,0,0,0,0,2443,2443,2443,2443,2323,2443,2443,2522,2507,2443,0,0,2443,2443,2475,2487,2488,2488,2486,2488,2488,2488,2488,2488,2488,2486,2488,2455,2475,2442,2475,2444,2323,2338,2323,2443,2443,2522,2523,2524,0,0,
0,0,0,0,0,0,0,0,2443,2443,2443,2443,2338,2324,2444,2522,2523,2524,0,0,2507,2508,2445,2487,2488,2470,2488,2488,2488,2488,2488,2488,2488,2488,2455,2459,2476,2475,2458,2474,2444,2339,2459,2458,2443,2522,2523,2492,0,0,
0,0,0,0,0,0,0,0,2443,2443,2443,2443,2323,2338,2443,2522,2523,2524,0,0,2523,2524,2443,2443,2454,2488,2488,2488,2488,2488,2470,2488,2488,2455,2443,2442,2443,2458,2445,2307,2476,2445,2445,2458,2443,2522,2523,2491,0,0,
0,0,0,0,0,0,0,0,2443,2443,2443,2443,2322,2340,2443,2522,2523,2443,0,0,2539,2540,2459,2443,2443,2504,2504,2504,2454,2488,2488,2455,2504,2460,2474,2459,2459,2444,2322,2338,2323,2443,2443,2443,2443,2538,0,0,0,0,
0,0,0,0,0,0,0,0,2443,2443,2443,2443,2323,2338,2443,2522,2443,2443,2382,2382,2382,2443,2443,2443,2545,2546,2547,2443,2443,2504,2504,2443,2443,2443,2443,2443,2459,2442,2474,2340,2443,2475,2443,0,0,0,0,2382,0,0,
0,0,0,0,0,0,0,0,2443,2443,2443,2443,2322,2340,2443,2522,2507,2443,2382,2382,2382,2443,2443,2443,2561,2562,2563,2443,2475,2443,2443,2443,2443,2443,2443,2443,2442,2442,2443,2506,2507,0,0,0,0,0,0,0,0,0,
0,0,0,0,0,0,0,0,2443,2443,2443,2443,2443,2443,2443,2522,2523,2524,2382,2382,2382,2443,2443,2443,2577,2578,2579,2443,2443,2443,0,0,0,2443,2443,2443,2476,2474,2445,2522,2523,0,0,0,0,0,0,0,0,0,
0,0,0,0,0,0,0,0,0,2443,2443,2443,2323,2443,2443,2522,2523,2524,0,0,0,0,0,0,0,0,0,0,0,0,0,0,0,2443,2443,2443,2444,2474,2444,2522,2523,0,0,0,0,0,0,0,0,0,
0,0,0,0,0,0,0,0,0,2443,2443,2443,2338,2324,2444,2522,2523,2443,0,0,0,0,0,0,0,0,0,0,0,0,2384,2443,2443,2443,2443,2443,2459,2476,2475,2522,2523,0,0,0,0,0,0,0,0,0,
0,0,0,0,0,0,0,0,2322,2443,2443,2443,2323,2338,2443,2522,2443,2443,0,0,0,0,0,0,0,0,0,0,0,0,2384,2443,2443,2443,2443,2443,2460,2475,2474,2522,2523,2492,2507,2507,2507,2507,2507,2507,0,0,
0,0,0,0,0,0,0,0,2443,2443,2443,2443,2322,2340,2443,2522,2507,2443,0,0,0,0,0,0,0,0,0,0,0,0,2384,2443,2443,2443,2443,2443,2442,2476,2474,2522,2523,2523,2523,2523,2523,2523,2523,2523,0,0,
0,0,0,0,0,0,0,0,2443,2443,2443,2443,2323,2443,2443,2522,2523,2524,0,0,0,0,0,0,0,0,0,0,0,0,2384,2507,2507,2507,2507,2508,2443,2475,2444,2538,2539,2539,2539,2539,2539,2490,2523,2523,0,0,
0,0,0,0,0,0,0,0,2322,2443,2443,2443,2338,2324,2444,2522,2523,2524,0,0,0,0,0,0,0,0,0,0,0,0,2384,2523,2523,2523,2523,2524,2474,2474,2474,2444,2458,2444,2442,2475,2443,2538,2490,2523,0,0,
0,0,0,0,0,0,0,0,2443,2443,2443,2443,2323,2338,2443,2522,2523,2443,0,0,0,0,0,0,0,0,0,0,0,0,2384,2539,2539,2539,2539,2540,2444,2472,2472,2472,2445,2474,2442,2444,2443,2443,2522,2523,0,0,
0,0,0,0,0,0,0,0,2443,2443,2443,2443,2322,2324,2444,2522,2507,2443,0,0,0,0,0,0,0,0,0,0,0,0,2443,2443,2475,2443,2458,2472,2457,2488,2488,2488,2456,2472,2442,2443,2443,2475,2522,2523,2445,2475,
0,0,0,0,0,0,0,0,2322,2443,2443,2443,2443,2338,2443,2522,2523,2524,0,0,0,0,0,0,0,0,0,0,0,0,2443,2443,2442,2443,2457,2488,2488,2488,2488,2488,2488,2488,2456,2458,2442,2443,2522,2523,2444,2442,
0,0,0,0,0,0,0,0,2443,2443,2443,2443,2443,2443,2443,2522,2523,2524,0,0,0,0,0,0,0,0,0,0,0,0,2443,2443,2474,2487,2488,2488,2488,2488,2488,2488,2488,2488,2488,2489,2442,2444,2522,2523,0,0,
0,0,0,0,0,0,0,0,2443,2443,2443,2443,2323,2443,2443,2522,2523,0,0,0,0,0,0,0,0,0,0,0,0,0,2443,2443,2475,2487,2488,2488,2488,2488,2488,2488,2488,2488,2488,2456,2458,2445,2522,2523,0,0,
0,0,0,0,0,0,0,0,2443,2443,2443,2443,2338,2324,2444,2522,2523,0,0,0,0,0,0,0,0,0,0,2443,2443,2443,2443,2443,2443,2443,2454,2488,2488,2488,2488,2488,2488,2488,2488,2455,2476,2459,2522,2523,0,0,
0,0,0,0,0,0,0,0,2443,2443,2443,2443,2323,2338,2443,2522,2523,2523,2523,2523,2523,2523,2523,2523,2523,2523,2523,2507,2507,2507,2507,2508,2445,2442,2475,2454,2488,2488,2488,2488,2488,2488,2455,2475,2442,2443,2522,2523,0,0,
0,0,0,0,0,0,0,0,0,2443,2443,2443,2322,2340,2443,2522,2523,2523,2523,2523,2523,2523,2523,2523,2523,2523,2523,2523,2523,2523,2523,2524,2442,2458,2475,2444,2504,2454,2488,2488,2455,2504,2443,2476,2445,2445,2522,2523,0,0,
0,0,0,0,0,0,0,0,0,2443,2443,2443,2443,2324,2475,2538,2539,2539,2539,2539,2539,2539,2539,2539,2539,2539,2539,2539,2539,2539,2539,2540,2459,2458,2445,2443,2442,2443,2504,2442,2475,2442,2442,2443,2445,2443,2522,2523,0,0,
0,0,0,0,0,0,0,0,0,2443,2443,2443,2443,2340,2443,2459,2445,2443,2443,2443,2340,2322,2323,2338,2323,2324,2307,2340,2458,2460,2474,2443,2444,2306,2307,2308,2340,2475,2442,2442,2442,2443,2474,2340,2445,2445,2522,2523,0,0,
0,0,0,0,0,0,0,0,0,2443,2443,2443,2443,2460,2443,2443,2443,2443,2443,2443,2443,2443,2443,2340,2322,2339,2323,2338,2323,2442,2322,2323,2324,2322,2323,2324,2458,2442,2307,2476,2306,2307,2323,2324,2476,2443,2522,2523,2444,2442,
0,0,0,0,0,0,0,0,0,2443,2443,2443,2458,2307,2443,2443,2443,2443,2443,2443,2443,2443,2443,2458,2460,2443,2443,2443,2443,2443,2443,2476,2476,2338,2339,2340,2322,2323,2323,2324,2339,2323,2323,2324,2475,2443,2522,2443,2443,2444,
0,0,0,0,0,0,0,0,0,2443,2443,2443,2475,2323,2460,2443,2443,2443,2443,2443,2443,2443,2443,2443,2443,2443,2443,2443,0,2545,2546,2547,2443,2475,2460,2442,2443,2340,2442,2444,2323,2323,2324,2443,2443,2443,2522,2460,2460,2475,
0,0,0,0,0,0,0,0,0,2443,2443,2443,2443,2460,2443,2506,2507,2443,2443,2443,2443,2443,0,0,0,0,0,0,0,2561,2562,2563,2443,2545,2546,2477,2476,2445,2444,2460,2340,2339,2340,2443,2443,2443,2538,0,0,0,
0,0,0,0,0,0,0,0,2443,2443,2443,2443,2443,2460,2324,2522,2523,2524,2443,2443,2443,2443,0,0,0,0,0,0,0,2577,2578,2579,2475,2561,2562,2563,2442,2475,2460,2340,2476,2443,2443,2443,2443,2443,2443,0,0,0,
0,0,0,0,0,0,0,0,2507,2443,2443,2443,2475,2323,2460,2443,2443,2524,2443,2443,2443,2443,0,0,0,0,0,0,0,0,2443,2443,2443,2577,2578,2579,2460,2443,2443,2443,2443,2443,2443,2476,2458,2458,0,0,0,0,
0,0,0,0,0,0,0,0,2523,2443,2443,2443,2443,2460,2443,2506,2507,0,0,0,0,0,0,0,0,0,0,0,0,0,0,0,2459,2459,2444,2459,2459,2474,2458,2475,2445,2443,2442,2443,2444,0,0,0,0,0,
0,0,0,0,0,0,0,0,2539,2443,2443,2443,2443,2460,2324,2522,2523,0,0,0,0,0,0,0,0,0,0,0,0,0,0,0,0,0,2474,2444,2458,2475,2445,2442,2443,2474,2458,2460,0,0,0,0,0,0,
0,0,0,0,0,0,0,0,2458,2443,2443,2460,2443,2475,2443,2522,2523,0,0,0,0,0,0,0,0,0,0,0,0,0,0,0,0,0,0,0,0,0,0,0,0,0,0,0,0,0,0,0,0,0,
0,0,0,0,0,0,0,0,2323,2324,2443,2443,2443,2443,2443,2522,2523,0,0,0,0,0,0,0,0,0,0,0,0,0,0,0,0,0,0,0,0,0,0,0,0,0,0,0,0,0,0,0,0,0,
0,0,0,0,0,0,0,0,2474,2444,2458,2475,2445,2474,2444,2458,2475,2445,2442,0,0,0,0,0,0,0,0,0,0,0,0,0,0,0,0,0,0,0,0,0,0,0,0,0,0,0,0,0,0,0,
0,0,0,0,0,0,0,0,0,0,0,0,0,0,0,0,0,0,0,0,0,0,0,0,0,0,0,0,0,0,0,0,0,0,0,0,0,0,0,0,0,0,0,0,0,0,0,0,0,0,
0,0,0,0,0,0,0,0,0,0,0,0,0,0,0,0,0,0,0,0,0,0,0,0,0,0,0,0,0,0,0,0,0,0,0,0,0,0,0,0,0,0,0,0,0,0,0,0,0,0
</data>
 </layer>
 <layer id="2" name="Buildings" width="50" height="50">
  <data encoding="csv">
0,0,0,0,0,0,0,0,0,0,0,0,0,0,0,0,0,0,0,0,0,0,0,0,0,0,0,0,0,2382,2382,2382,2382,2382,2382,2382,2382,2382,2382,2382,2382,2382,0,0,0,0,0,0,0,0,
0,0,0,0,0,0,0,0,0,0,0,0,0,0,0,0,0,0,0,0,0,0,0,0,0,0,0,0,0,2382,2382,2382,2382,2382,2382,2382,2382,2382,2382,2382,2382,2382,0,0,0,0,0,0,0,0,
0,0,0,0,0,0,0,0,0,0,0,0,0,0,0,0,0,0,0,0,0,0,2382,2382,2382,2382,2382,2382,2382,2374,2375,2378,2313,2380,2381,2378,2379,2380,2381,2398,2382,2382,2382,2382,0,0,0,0,0,0,
0,0,0,0,0,0,0,0,0,0,0,0,0,0,0,0,0,0,0,0,2382,2382,2382,2374,2375,2378,2379,2380,2381,2390,2391,2394,2329,2396,2397,2370,2371,2435,2436,2414,2381,2398,2399,2382,2382,0,0,0,0,0,
0,0,0,0,0,0,0,0,0,0,0,0,0,0,0,0,0,0,2382,2374,2375,2378,2379,2390,2391,2435,2436,2396,2397,2406,2407,2410,2345,2412,2413,2386,2387,2451,2452,2430,2397,2414,2415,2416,2382,0,0,0,0,0,
0,0,0,0,0,0,0,0,0,0,0,2382,2382,2382,2382,2382,2382,2382,2375,2390,2391,2370,2371,2406,2407,2451,2452,2412,2413,2422,2423,2426,2361,2428,2429,2426,2427,2467,2468,2446,2413,2430,2431,2432,2382,0,0,0,0,0,
0,0,0,0,0,0,0,0,0,2382,2383,2374,2375,2378,2313,2380,2381,2378,2391,2406,2407,2386,2387,2422,2423,2467,2468,2428,2429,2438,2439,0,0,0,0,0,0,0,0,2462,2429,2446,2447,2448,2382,0,0,0,0,0,
0,0,0,0,0,0,0,0,0,2382,2383,2390,2391,2394,2329,2396,2397,2370,2407,2422,2423,2426,2427,2438,2439,0,0,0,0,0,0,0,0,0,0,0,0,0,0,0,0,2462,2463,2464,2382,2382,2382,0,0,0,
0,0,0,0,0,0,0,0,0,2382,2453,2406,2407,2410,2345,2412,2413,2386,2423,2438,2439,0,0,0,0,0,0,0,0,0,0,0,0,0,0,0,0,0,0,0,0,0,0,2377,2398,2399,2382,0,0,0,
0,0,0,0,0,0,0,0,0,2382,2453,2422,2423,2426,2361,2428,2429,2426,2439,0,0,0,0,0,0,0,0,0,0,0,0,0,0,0,0,0,0,0,0,0,0,0,0,2393,2414,2415,2416,0,0,0,
0,0,0,0,0,0,0,0,2382,2382,2469,2438,2439,0,0,0,0,0,0,0,0,0,0,0,0,0,0,0,0,0,0,0,0,0,0,0,0,0,0,0,0,0,0,2409,2418,2431,2432,0,0,0,
0,0,0,0,0,0,0,0,2382,2382,2453,0,0,0,0,0,0,2382,0,0,0,0,0,0,0,0,0,0,0,0,0,0,0,0,0,0,0,0,0,0,0,0,0,2425,2446,2447,2448,0,0,0,
0,0,0,0,0,0,0,0,2382,2382,2446,0,0,0,0,0,2382,2382,2382,2383,2383,0,0,0,0,0,0,0,0,0,0,0,0,0,0,0,0,0,0,0,0,0,0,0,2462,2463,2464,0,0,0,
0,0,0,0,0,0,0,0,2382,2382,2462,0,0,0,0,0,2480,2383,2382,2383,2375,2469,0,0,0,0,0,0,0,0,0,0,0,0,0,0,0,0,0,0,0,0,0,0,0,0,2480,0,0,0,
0,0,0,0,0,0,0,0,2382,2382,2453,0,0,0,0,0,2480,2383,2382,2382,2389,2392,0,0,0,0,0,0,0,0,0,0,0,0,0,0,0,0,0,0,0,0,0,0,0,0,2496,2382,0,0,
0,0,0,0,0,0,0,0,2382,2382,2453,0,0,0,0,0,2512,2383,2382,2382,2405,2408,0,0,0,0,0,0,0,0,0,0,0,0,0,0,0,0,0,0,0,0,0,0,0,0,2512,2382,0,0,
0,0,0,0,0,0,0,0,2382,2382,2469,0,0,0,0,0,2480,2382,2382,2382,2421,2424,0,0,0,0,0,0,0,0,0,0,0,0,0,0,0,0,0,0,0,0,0,0,0,0,2528,2382,0,0,
0,0,0,0,0,0,0,0,2382,2382,2453,0,0,0,0,0,2496,2382,2382,2382,2501,0,0,0,0,0,0,0,0,0,0,0,0,0,0,0,0,0,0,0,0,0,0,0,0,2382,2382,2382,0,0,
0,0,0,0,0,0,0,0,2382,2382,2453,0,0,0,0,0,2480,2383,2382,2382,2382,2382,0,0,0,0,0,0,0,0,0,0,0,0,0,0,0,0,0,0,0,2382,2382,2382,2382,2382,2382,2382,0,0,
0,0,0,0,0,0,0,0,2382,2382,2469,0,0,0,0,0,2480,2383,2382,2382,2382,2382,2382,2382,0,0,0,0,0,0,0,0,0,0,0,0,0,0,0,0,0,2382,2382,2382,0,0,0,0,0,0,
0,0,0,0,0,0,0,0,2382,2382,2453,0,0,0,0,0,2512,2383,2382,2382,2382,2382,2382,2382,2382,0,0,0,0,2382,2382,2382,2382,2383,2383,0,0,0,0,0,2528,2382,2382,2382,2382,2382,2382,2382,2382,0,
0,0,0,0,0,0,0,0,2382,2382,2453,0,0,0,0,0,2480,2382,0,0,0,0,2382,2382,2382,2382,2382,2382,2382,2382,2382,2382,2382,2383,2383,2469,0,0,0,0,2377,2313,2380,2381,2381,2398,2399,2382,2382,0,
0,0,0,0,0,0,0,0,2382,2382,2469,0,0,0,0,0,2496,2382,0,0,0,0,0,0,0,0,0,0,0,0,0,2383,2383,2383,2383,2485,0,0,0,0,2393,2329,2396,2397,2397,2414,2415,2382,2382,2382,
0,0,0,0,0,0,0,0,2382,2382,2453,0,0,0,0,0,2480,2383,0,0,0,0,0,0,0,0,0,0,0,0,0,2373,2379,2379,2380,2376,0,0,0,0,2409,2345,2412,2413,2413,2418,2431,2416,2382,2382,
0,0,0,0,0,0,0,0,2382,2382,2469,0,0,0,0,0,2480,2383,0,0,0,0,0,0,0,0,0,0,0,0,0,2389,2395,2395,2396,2392,0,0,0,0,2425,2361,2428,2429,2429,2446,2447,2432,2382,2382,
0,0,0,0,0,0,0,0,2382,2382,2469,0,0,0,0,0,2512,2383,0,0,0,0,0,0,0,0,0,0,0,0,0,2405,2411,2411,2412,2408,0,0,0,0,0,0,0,0,0,2462,2463,2448,2382,2382,
0,0,0,0,0,0,0,0,2382,2382,2462,0,0,0,0,0,2480,2382,0,0,0,0,0,0,0,0,0,0,0,0,0,2421,2427,2427,2428,2424,0,0,0,0,0,0,0,0,0,0,0,2464,2382,2382,
0,0,0,0,0,0,0,0,2382,2382,2453,0,0,0,0,0,2496,2382,0,0,0,0,0,0,0,0,0,0,0,0,0,2437,0,0,0,0,0,0,0,0,0,0,0,0,0,0,0,2480,2382,2382,
0,0,0,0,0,0,0,0,2382,2382,2453,0,0,0,0,0,2480,2383,0,0,0,0,0,0,0,0,0,2382,2382,2382,2382,2453,0,0,0,0,0,0,0,0,0,0,0,0,0,0,0,2480,2382,2382,
0,0,0,0,0,0,0,0,2382,2382,2469,0,0,0,0,0,2512,2383,0,0,0,0,0,0,0,0,0,2382,2382,2382,2382,2469,0,0,0,0,0,0,0,0,0,0,0,0,0,0,0,2496,2382,2382,
0,0,0,0,0,0,0,0,2382,2382,2453,0,0,0,0,0,2480,2382,2382,2382,2382,2382,2382,2382,2382,2382,2382,2382,2382,2382,2382,2485,0,0,0,0,0,0,0,0,0,0,0,0,0,0,0,2512,2382,0,
0,0,0,0,0,0,0,0,2382,2382,2453,0,0,0,0,0,2496,2382,2378,2379,2380,2381,2381,2378,2379,2380,2381,2378,2313,2380,2381,2376,0,0,0,0,0,0,0,0,0,0,0,0,0,0,0,2528,2382,0,
0,0,0,0,0,0,0,0,2382,2382,2469,0,0,0,0,0,2393,2396,2370,2371,2396,2397,2397,2370,2371,2396,2397,2394,2329,2396,2397,2392,0,0,0,0,0,0,0,0,0,0,0,0,0,0,0,2480,2382,0,
0,0,0,0,0,0,0,0,2382,2382,2453,0,0,0,0,0,2409,2412,2386,2387,2412,2413,2413,2386,2387,2412,2413,2410,2345,2412,2413,2408,0,0,0,0,0,0,0,0,0,0,0,0,0,0,0,2496,2382,0,
0,0,0,0,0,0,0,0,2382,2382,2453,0,0,0,0,0,2425,2428,2426,2427,2428,2429,2429,2426,2427,2428,2429,2426,2361,2428,2429,2424,0,0,0,0,0,0,0,0,0,0,0,0,0,0,0,2512,2382,0,
0,0,0,0,0,0,0,0,2382,2382,2469,0,0,0,0,0,0,0,0,0,0,0,0,0,0,0,0,0,0,0,0,0,0,0,0,0,0,0,0,0,0,0,0,0,0,0,0,2528,2382,0,
0,0,0,0,0,0,0,0,2382,2382,2453,0,0,0,0,0,0,0,0,0,0,0,0,0,0,0,0,0,0,0,0,0,0,0,0,0,0,0,0,0,0,0,0,0,0,0,0,2480,2382,0,
0,0,0,0,0,0,0,0,2382,2382,2469,0,0,0,0,0,0,2382,2382,2382,0,0,0,0,0,0,0,0,0,0,0,0,0,0,0,0,0,0,0,0,0,0,0,0,0,0,0,2528,2382,2382,
0,0,0,0,0,0,0,0,2382,2382,2469,0,0,0,0,0,2382,2382,2382,2382,2330,2331,0,0,0,0,0,0,0,0,0,0,0,0,0,0,0,0,0,0,0,0,0,0,0,0,0,2511,2382,2382,
0,0,0,0,0,0,0,0,2382,2382,2485,0,0,0,0,0,2480,2383,2382,2382,2382,2382,2382,0,0,0,0,2382,2317,2537,0,0,0,0,0,0,0,0,0,0,0,0,0,0,0,0,2382,2382,2382,2400,
0,0,0,0,0,0,0,0,2382,2382,2469,0,0,0,0,0,2480,2383,2383,2383,2383,2383,2400,2400,2330,2331,2400,2400,2382,2485,0,0,0,0,0,0,0,0,0,0,0,0,0,0,0,2382,2382,2382,2382,0,
0,0,0,0,0,0,0,0,2382,2382,2469,0,0,0,0,0,2512,2383,2383,2383,2383,2383,0,0,0,0,0,2382,2382,2382,0,0,0,0,0,0,0,0,0,0,0,0,0,0,2382,2382,2382,2382,0,0,
0,0,0,0,0,0,0,0,2382,2382,2485,0,0,0,0,0,2480,2382,2382,2383,2383,2383,0,0,0,0,0,2382,2382,2382,2382,0,0,0,0,0,0,0,0,0,0,0,0,2382,2382,2382,2382,0,0,0,
0,0,0,0,0,0,0,0,2382,2382,2469,0,0,0,0,0,2480,2382,2382,0,0,0,0,0,0,0,0,2382,2382,2382,2382,2382,2382,2382,2382,2382,2382,2382,2382,2382,2382,2382,2382,2382,2382,0,0,0,0,0,
0,0,0,0,0,0,0,0,2382,2382,0,0,0,0,0,0,2512,2382,2382,0,0,0,0,0,0,0,0,2382,2382,2382,2382,2382,2382,2382,2382,2382,2382,2382,2382,2382,2400,2400,2400,2400,0,0,0,0,0,0,
0,0,0,0,0,0,0,0,2382,2382,0,0,0,0,0,0,2528,2382,2382,0,0,0,0,0,0,0,0,0,0,0,0,0,0,2382,2382,2382,2382,2382,2382,2382,0,0,0,0,0,0,0,0,0,0,
0,0,0,0,0,0,0,0,2382,2382,0,0,0,0,0,0,2382,2382,2382,0,0,0,0,0,0,0,0,0,0,0,0,0,0,0,0,0,0,0,0,0,0,0,0,0,0,0,0,0,0,0,
0,0,0,0,0,0,0,0,2382,2382,2382,2382,2382,2382,2382,2382,2382,2382,2382,0,0,0,0,0,0,0,0,0,0,0,0,0,0,0,0,0,0,0,0,0,0,0,0,0,0,0,0,0,0,0,
0,0,0,0,0,0,0,0,2382,2382,2382,2382,2382,2382,2382,2382,2382,2382,2382,0,0,0,0,0,0,0,0,0,0,0,0,0,0,0,0,0,0,0,0,0,0,0,0,0,0,0,0,0,0,0,
0,0,0,0,0,0,0,0,0,0,0,0,0,0,0,0,0,0,0,0,0,0,0,0,0,0,0,0,0,0,0,0,0,0,0,0,0,0,0,0,0,0,0,0,0,0,0,0,0,0
</data>
 </layer>
 <layer id="3" name="Paths" width="50" height="50">
  <data encoding="csv">
0,0,0,0,0,0,0,0,0,0,0,0,0,0,0,0,0,0,0,0,0,0,0,0,0,0,0,0,0,0,0,0,0,0,0,0,0,0,0,0,0,0,0,0,0,0,0,0,0,0,
0,0,0,0,0,0,0,0,0,0,0,0,0,0,0,0,0,0,0,0,0,0,0,0,0,0,0,0,0,0,0,0,0,0,0,0,0,0,0,0,0,0,0,0,0,0,0,0,0,0,
0,0,0,0,0,0,0,0,0,0,0,0,0,0,0,0,0,0,0,0,0,0,0,0,0,0,0,0,0,0,0,0,0,0,0,0,0,0,0,0,0,0,0,0,0,0,0,0,0,0,
0,0,0,0,0,0,0,0,0,0,0,0,0,0,0,0,0,0,0,0,0,0,0,0,0,0,0,0,0,0,0,0,0,0,0,0,0,0,0,0,0,0,0,0,0,0,0,0,0,0,
0,0,0,0,0,0,0,0,0,0,0,0,0,0,0,0,0,0,0,0,0,0,0,0,0,0,0,0,0,0,0,0,0,0,0,0,0,0,0,0,0,0,0,0,0,0,0,0,0,0,
0,0,0,0,0,0,0,0,0,0,0,0,0,0,0,0,0,0,0,0,0,0,0,0,0,0,0,0,0,0,0,0,0,0,0,0,0,0,0,0,0,0,0,0,0,0,0,0,0,0,
0,0,0,0,0,0,0,0,0,0,0,0,0,0,0,0,0,0,0,0,0,0,0,0,0,0,0,0,0,0,0,0,0,0,0,0,0,0,0,0,0,0,0,0,0,0,0,0,0,0,
0,0,0,0,0,0,0,0,0,0,0,0,0,0,0,0,0,0,0,0,0,0,0,0,0,0,0,0,0,0,0,0,0,0,0,0,0,0,0,0,0,0,0,0,0,0,0,0,0,0,
0,0,0,0,0,0,0,0,0,0,0,0,0,0,0,0,0,0,0,0,0,0,0,0,0,0,0,0,0,0,0,0,0,0,0,0,0,0,0,0,0,0,0,0,0,0,0,0,0,0,
0,0,0,0,0,0,0,0,0,0,0,0,0,0,0,0,0,0,0,0,0,0,0,0,0,0,0,0,0,0,0,0,0,0,0,0,0,0,0,0,0,0,0,0,0,0,0,0,0,0,
0,0,0,0,0,0,0,0,0,0,0,0,0,0,0,0,0,0,0,0,0,0,0,0,0,0,0,0,0,0,0,0,0,0,0,0,0,0,0,0,0,0,0,0,0,0,0,0,0,0,
0,0,0,0,0,0,0,0,0,0,0,0,0,0,0,0,0,0,0,0,0,0,0,0,0,0,0,0,0,0,0,0,0,0,0,0,0,0,0,0,0,0,0,0,0,0,0,0,0,0,
0,0,0,0,0,0,0,0,0,0,0,0,0,0,0,0,0,0,0,0,0,0,0,0,0,0,0,0,0,0,0,0,0,0,0,0,0,0,0,0,0,0,0,0,0,0,0,0,0,0,
0,0,0,0,0,0,0,0,0,0,0,0,0,0,0,0,0,0,0,0,0,0,0,0,0,0,0,0,0,0,0,0,0,0,0,0,0,0,0,0,0,0,0,0,0,0,0,0,0,0,
0,0,0,0,0,0,0,0,0,0,0,0,0,0,0,0,0,0,0,0,0,0,0,0,0,0,0,0,0,0,0,0,0,0,0,0,0,0,0,0,0,0,0,0,0,0,0,0,0,0,
0,0,0,0,0,0,0,0,0,0,0,0,0,0,0,0,0,0,0,0,0,0,0,0,0,0,0,0,0,0,0,0,0,0,0,0,0,0,0,0,0,0,0,0,0,0,0,0,0,0,
0,0,0,0,0,0,0,0,0,0,0,0,0,0,0,0,0,0,0,0,0,0,0,0,0,0,0,0,0,0,0,0,0,0,0,0,0,0,0,0,0,0,0,0,0,0,0,0,0,0,
0,0,0,0,0,0,0,0,0,0,0,0,0,0,0,0,0,0,0,0,0,0,0,0,0,0,0,0,0,0,0,0,0,0,0,0,0,0,0,0,0,0,0,0,0,0,0,0,0,0,
0,0,0,0,0,0,0,0,0,0,0,0,0,0,0,0,0,0,0,0,0,0,0,0,0,0,0,0,0,0,0,0,0,0,0,0,0,0,0,0,0,0,0,0,0,0,0,0,0,0,
0,0,0,0,0,0,0,0,0,0,0,0,0,0,0,0,0,0,0,0,0,0,0,0,0,0,0,0,0,0,0,0,0,0,0,0,0,0,0,0,0,0,0,0,0,0,0,0,0,0,
0,0,0,0,0,0,0,0,0,0,0,0,0,0,0,0,0,0,0,0,0,0,0,0,0,0,0,0,0,0,0,0,0,0,0,0,0,0,0,0,0,0,0,0,0,0,0,0,0,0,
0,0,0,0,0,0,0,0,0,0,0,0,0,0,0,0,0,0,0,0,0,0,0,0,0,0,0,0,0,0,0,0,0,0,0,0,0,0,0,0,0,0,0,0,0,0,0,0,0,0,
0,0,0,0,0,0,0,0,0,0,0,0,0,0,0,0,0,0,0,0,0,0,0,0,0,0,0,0,0,0,0,0,0,0,0,0,0,0,0,0,0,0,0,0,0,0,0,0,0,0,
0,0,0,0,0,0,0,0,0,0,0,0,0,0,0,0,0,0,0,0,0,0,0,0,0,0,0,0,0,0,0,0,0,0,0,0,0,0,0,0,0,0,0,0,0,0,0,0,0,0,
0,0,0,0,0,0,0,0,0,0,0,0,0,0,0,0,0,0,0,0,0,0,0,0,0,0,0,0,0,0,0,0,0,0,0,0,0,0,0,0,0,0,0,0,0,0,0,0,0,0,
0,0,0,0,0,0,0,0,0,0,0,0,0,0,0,0,0,0,0,0,0,0,0,0,0,0,0,0,0,0,0,0,0,0,0,0,0,0,0,0,0,0,0,0,0,0,0,0,0,0,
0,0,0,0,0,0,0,0,0,0,0,0,0,0,0,0,0,0,0,0,0,0,0,0,0,0,0,0,0,0,0,0,0,0,0,0,0,0,0,0,0,0,0,0,0,0,0,0,0,0,
0,0,0,0,0,0,0,0,0,0,0,0,0,0,0,0,0,0,0,0,0,0,0,0,0,0,0,0,0,0,0,0,0,0,0,0,0,0,0,0,0,0,0,0,0,0,0,0,0,0,
0,0,0,0,0,0,0,0,0,0,0,0,0,0,0,0,0,0,0,0,0,0,0,0,0,0,0,0,0,0,0,0,0,0,0,0,0,0,0,0,0,0,0,0,0,0,0,0,0,0,
0,0,0,0,0,0,0,0,0,0,0,0,0,0,0,0,0,0,0,0,0,0,0,0,0,0,0,0,0,0,0,0,0,0,0,0,0,0,0,0,0,0,0,0,0,0,0,0,0,0,
0,0,0,0,0,0,0,0,0,0,0,0,0,0,0,0,0,0,0,0,0,0,0,0,0,0,0,0,0,0,0,0,0,0,0,0,0,0,0,0,0,0,0,0,0,0,0,0,0,0,
0,0,0,0,0,0,0,0,0,0,0,0,0,0,0,0,0,0,0,0,0,0,0,0,0,0,0,0,0,0,0,0,0,0,0,0,0,0,0,0,0,0,0,0,0,0,0,0,0,0,
0,0,0,0,0,0,0,0,0,0,0,0,0,0,0,0,0,0,0,0,0,0,0,0,0,0,0,0,0,0,0,0,0,0,0,0,0,0,0,0,0,0,0,0,0,0,0,0,0,0,
0,0,0,0,0,0,0,0,0,0,0,0,0,0,0,0,0,0,0,0,0,0,0,0,0,0,0,0,0,0,0,0,0,0,0,0,0,0,0,0,0,0,0,0,0,0,0,0,0,0,
0,0,0,0,0,0,0,0,0,0,0,0,0,0,0,0,0,0,0,0,0,0,0,0,0,0,0,0,0,0,0,0,0,0,0,0,0,0,0,0,0,0,0,0,0,0,0,0,0,0,
0,0,0,0,0,0,0,0,0,0,0,0,0,0,0,0,0,0,0,0,0,0,0,0,0,0,0,0,0,0,0,0,0,0,0,0,0,0,0,0,0,0,0,0,0,0,0,0,0,0,
0,0,0,0,0,0,0,0,0,0,0,0,0,0,0,0,0,0,0,0,0,0,0,0,0,0,0,0,0,0,0,0,0,0,0,0,0,0,0,0,0,0,0,0,0,0,0,0,0,0,
0,0,0,0,0,0,0,0,0,0,0,0,0,0,0,0,0,0,0,0,0,0,0,0,0,0,0,0,0,0,0,0,0,0,0,0,0,0,0,0,0,0,0,0,0,0,0,0,0,0,
0,0,0,0,0,0,0,0,0,0,0,0,0,0,0,0,0,0,0,0,0,0,0,0,0,0,0,0,0,0,0,0,0,0,0,0,0,0,0,0,0,0,0,0,0,0,0,0,0,0,
0,0,0,0,0,0,0,0,0,0,0,0,0,0,0,0,0,0,0,0,0,0,0,0,0,0,0,0,0,0,0,0,0,0,0,0,0,0,0,0,0,0,0,0,0,0,0,0,0,0,
0,0,0,0,0,0,0,0,0,0,0,0,0,0,0,0,0,0,0,0,0,0,0,0,0,0,0,0,0,0,0,0,0,0,0,0,0,0,0,0,0,0,0,0,0,0,0,0,0,0,
0,0,0,0,0,0,0,0,0,0,0,0,0,0,0,0,0,0,0,0,0,0,0,0,0,0,0,0,0,0,0,0,0,0,0,0,0,0,0,0,0,0,0,0,0,0,0,0,0,0,
0,0,0,0,0,0,0,0,0,0,0,0,0,0,0,0,0,0,0,0,0,0,0,0,0,0,0,0,0,0,0,0,0,0,0,0,0,0,0,0,0,0,0,0,0,0,0,0,0,0,
0,0,0,0,0,0,0,0,0,0,0,0,0,0,0,0,0,0,0,0,0,0,0,0,0,0,0,0,0,0,0,0,0,0,0,0,0,0,0,0,0,0,0,0,0,0,0,0,0,0,
0,0,0,0,0,0,0,0,0,0,0,0,0,0,0,0,0,0,0,0,0,0,0,0,0,0,0,0,0,0,0,0,0,0,0,0,0,0,0,0,0,0,0,0,0,0,0,0,0,0,
0,0,0,0,0,0,0,0,0,0,0,0,0,0,0,0,0,0,0,0,0,0,0,0,0,0,0,0,0,0,0,0,0,0,0,0,0,0,0,0,0,0,0,0,0,0,0,0,0,0,
0,0,0,0,0,0,0,0,0,0,0,0,0,0,0,0,0,0,0,0,0,0,0,0,0,0,0,0,0,0,0,0,0,0,0,0,0,0,0,0,0,0,0,0,0,0,0,0,0,0,
0,0,0,0,0,0,0,0,0,0,0,0,0,0,0,0,0,0,0,0,0,0,0,0,0,0,0,0,0,0,0,0,0,0,0,0,0,0,0,0,0,0,0,0,0,0,0,0,0,0,
0,0,0,0,0,0,0,0,0,0,0,0,0,0,0,0,0,0,0,0,0,0,0,0,0,0,0,0,0,0,0,0,0,0,0,0,0,0,0,0,0,0,0,0,0,0,0,0,0,0,
0,0,0,0,0,0,0,0,0,0,0,0,0,0,0,0,0,0,0,0,0,0,0,0,0,0,0,0,0,0,0,0,0,0,0,0,0,0,0,0,0,0,0,0,0,0,0,0,0,0
</data>
 </layer>
 <layer id="4" name="Front" width="50" height="50">
  <data encoding="csv">
0,0,0,0,0,0,0,0,0,0,0,0,0,0,0,0,0,0,0,0,0,0,0,0,0,0,0,0,0,0,0,2348,2349,0,2314,2315,0,0,0,0,0,0,0,0,0,0,0,0,0,0,
0,0,0,0,0,0,0,0,0,0,0,0,0,0,0,0,0,0,0,0,0,0,0,0,0,0,0,0,0,0,0,2364,2365,2362,2363,2362,2363,0,0,0,0,0,0,0,0,0,0,0,0,0,
0,0,0,0,0,0,0,0,0,0,0,0,0,0,0,0,0,0,0,0,0,0,0,0,2362,2363,0,0,0,0,0,0,0,0,0,0,0,0,0,0,0,0,0,0,0,0,0,0,0,0,
0,0,0,0,0,0,0,0,0,0,0,0,0,0,0,0,0,0,2350,2351,2352,0,0,0,0,0,0,0,0,0,0,0,0,0,0,0,0,0,0,0,0,0,0,0,0,0,0,0,0,0,
0,0,0,0,0,0,0,0,0,0,0,0,0,0,0,0,0,0,2366,2367,0,0,0,0,0,0,0,0,0,0,0,0,0,0,0,0,0,0,0,0,0,0,0,0,0,0,0,0,0,0,
0,0,0,0,0,0,0,0,0,0,0,0,0,2364,2365,2362,2363,2362,0,0,0,0,0,0,0,0,0,0,0,0,0,0,0,0,0,0,0,0,0,0,0,0,0,0,2314,0,0,0,0,0,
0,0,0,0,0,0,0,0,0,2520,2350,0,0,0,0,0,0,0,0,0,0,0,0,0,0,0,0,0,0,0,0,0,0,0,0,0,0,0,0,0,0,0,0,0,2348,0,0,0,0,0,
0,0,0,0,0,0,0,0,0,2351,2366,0,0,0,0,0,0,0,0,0,0,0,0,0,0,0,0,0,0,0,0,0,0,0,0,0,0,0,0,0,0,0,0,0,2364,2365,0,0,0,0,
0,0,0,0,0,0,0,0,0,2367,2521,0,0,0,0,0,0,0,0,0,0,0,0,0,0,0,0,0,0,0,0,0,0,0,0,0,0,0,0,0,0,0,0,0,0,0,2320,0,0,0,
0,0,0,0,0,0,0,0,0,2351,2537,0,0,0,0,0,0,0,0,0,0,0,0,0,0,0,0,0,0,0,0,0,0,0,0,0,0,0,0,0,0,0,0,0,0,0,0,0,0,0,
0,0,0,0,0,0,0,0,2315,2520,0,0,0,0,0,0,0,0,0,0,0,0,0,0,0,0,0,0,0,0,0,0,0,0,0,0,0,0,0,0,0,0,0,0,0,0,0,0,0,0,
0,0,0,0,0,0,0,0,2350,2351,0,0,0,0,0,0,2510,2510,2519,2519,2520,2521,0,0,0,0,0,0,0,0,0,0,0,0,0,0,0,0,0,0,0,0,0,0,0,0,0,0,0,0,
0,0,0,0,0,0,0,0,2366,2367,2521,0,0,0,0,0,2525,2526,2366,0,0,2537,0,0,0,0,0,0,0,0,0,0,0,0,0,0,0,0,0,0,0,0,0,0,0,0,0,0,0,0,
0,0,0,0,0,0,0,0,2315,2351,2537,0,0,0,0,0,2541,2526,2350,2366,0,2376,0,0,0,0,0,0,0,0,0,0,0,0,0,0,0,0,0,0,0,0,0,0,0,0,0,0,0,0,
0,0,0,0,0,0,0,0,2366,2367,0,0,0,0,0,0,0,0,2366,2367,2389,2392,0,0,0,0,0,0,0,0,0,0,0,0,0,0,0,0,0,0,0,0,0,0,0,0,0,0,0,0,
0,0,0,0,0,0,0,0,2315,2520,2521,0,0,0,0,0,0,0,2382,2336,2437,0,0,0,0,0,0,0,0,0,0,0,0,0,0,0,0,0,0,0,0,0,0,0,0,0,0,0,0,0,
0,0,0,0,0,0,0,0,2350,2351,2537,0,0,0,0,0,2510,2510,2382,2382,2453,0,0,0,0,0,0,0,0,0,0,0,0,0,0,0,0,0,0,0,0,0,0,0,0,2510,2511,0,0,0,
0,0,0,0,0,0,0,0,2366,2367,0,0,0,0,0,0,2525,2526,2382,2382,2501,2502,0,0,0,0,0,0,0,0,0,0,0,0,0,0,0,0,0,0,0,2510,2519,2520,2520,2526,2382,2382,0,0,
0,0,0,0,0,0,0,0,2315,2351,2521,0,0,0,0,0,2541,0,0,2350,2351,2518,2519,2520,2521,0,0,0,0,0,0,0,0,0,0,0,0,0,0,0,2525,2526,2330,2331,2382,2382,2382,0,0,0,
0,0,0,0,0,0,0,0,2366,2367,2537,0,0,0,0,0,0,0,0,2366,2367,2336,2350,2351,2537,0,0,0,0,2510,2519,2520,2519,2519,2520,2521,0,0,0,0,2541,2330,2331,0,0,0,0,0,0,0,
0,0,0,0,0,0,0,0,2366,2367,2521,0,0,0,0,0,0,0,0,0,0,2382,2366,2367,2518,2519,2520,2519,2520,2526,0,0,0,2350,2351,2537,0,0,0,0,0,2362,2363,2362,2363,2314,2315,2314,2315,0,
0,0,0,0,0,0,0,0,2315,2351,2537,0,0,0,0,0,2510,2510,0,0,0,0,0,0,0,0,0,0,0,0,0,0,0,2366,2367,0,0,0,0,0,0,0,0,0,0,0,2330,2331,0,0,
0,0,0,0,0,0,0,0,2366,2367,0,0,0,0,0,0,2525,2526,0,0,0,0,0,0,0,0,0,0,0,0,0,0,0,0,2336,0,0,0,0,0,0,0,0,0,0,0,0,2330,2331,0,
0,0,0,0,0,0,0,0,2315,0,0,0,0,0,0,0,2541,0,0,0,0,0,0,0,0,0,0,0,0,0,0,0,0,0,0,0,0,0,0,0,0,0,0,0,0,0,0,0,2348,2349,
0,0,0,0,0,0,0,0,0,0,0,0,0,0,0,0,0,0,0,0,0,0,0,0,0,0,0,0,0,0,0,0,0,0,0,0,0,0,0,0,0,0,0,0,0,0,0,0,2364,2365,
0,0,0,0,0,0,0,0,2350,2351,2521,0,0,0,0,0,2510,2510,0,0,0,0,0,0,0,0,0,0,0,0,0,0,0,0,0,0,0,0,0,0,0,0,0,0,0,0,0,0,2349,0,
0,0,0,0,0,0,0,0,2350,2351,2537,0,0,0,0,0,2525,2526,0,0,0,0,0,0,0,0,0,0,0,0,0,0,0,0,0,0,0,0,0,0,0,0,0,0,0,0,0,0,0,0,
0,0,0,0,0,0,0,0,2366,2367,0,0,0,0,0,0,2541,0,0,0,0,0,0,0,0,0,0,0,0,0,0,0,0,0,0,0,0,0,0,0,0,0,0,0,0,0,0,0,0,0,
0,0,0,0,0,0,0,0,2315,2520,2521,0,0,0,0,0,2320,2320,0,0,0,0,0,0,0,0,0,2315,0,0,0,0,0,0,0,0,0,0,0,0,0,0,0,0,0,0,0,0,0,0,
0,0,0,0,0,0,0,0,2350,2351,2537,0,0,0,0,0,0,0,0,0,0,0,0,0,0,0,0,2348,2349,2350,2351,0,0,0,0,0,0,0,0,0,0,0,0,0,0,0,0,0,0,0,
0,0,0,0,0,0,0,0,2366,2367,0,0,0,0,0,0,2362,2362,0,0,0,0,0,0,0,0,0,2364,2365,2366,2367,0,0,0,0,0,0,0,0,0,0,0,0,0,0,0,0,0,0,0,
0,0,0,0,0,0,0,0,2315,2520,2521,0,0,0,0,0,0,0,0,0,0,0,0,0,0,0,0,0,0,0,0,0,0,0,0,0,0,0,0,0,0,0,0,0,0,0,0,0,0,0,
0,0,0,0,0,0,0,0,2350,2351,2537,0,0,0,0,0,0,0,0,0,0,0,0,0,0,0,0,0,0,0,0,0,0,0,0,0,0,0,0,0,0,0,0,0,0,0,0,0,0,0,
0,0,0,0,0,0,0,0,2366,2367,2521,0,0,0,0,0,0,0,0,0,0,0,0,0,0,0,0,0,0,0,0,0,0,0,0,0,0,0,0,0,0,0,0,0,0,0,0,0,0,0,
0,0,0,0,0,0,0,0,2315,2351,2537,0,0,0,0,0,0,0,0,0,0,0,0,0,0,0,0,0,0,0,0,0,0,0,0,0,0,0,0,0,0,0,0,0,0,0,0,0,0,0,
0,0,0,0,0,0,0,0,2366,2367,0,0,0,0,0,0,0,0,0,0,0,0,0,0,0,0,0,0,0,0,0,0,0,0,0,0,0,0,0,0,0,0,0,0,0,0,0,0,0,0,
0,0,0,0,0,0,0,0,2315,0,0,0,0,0,0,0,0,2510,2520,2502,0,0,0,0,0,0,0,0,0,0,0,0,0,0,0,0,0,0,0,0,0,0,0,0,0,0,0,0,0,0,
0,0,0,0,0,0,0,0,0,0,0,0,0,0,0,0,2510,2510,0,2518,2519,2520,2521,0,0,0,0,0,0,0,0,0,0,0,0,0,0,0,0,0,0,0,0,0,0,0,0,0,0,0,
0,0,0,0,0,0,0,0,2350,2351,0,0,0,0,0,0,2525,2526,0,0,0,0,2537,0,0,0,0,2510,2519,2521,0,0,0,0,0,0,0,0,0,0,0,0,0,0,0,0,2510,0,0,0,
0,0,0,0,0,0,0,0,2366,2367,0,0,0,0,0,0,2541,0,0,0,0,0,2501,2519,2520,2519,2520,2526,0,0,0,0,0,0,0,0,0,0,0,0,0,0,0,0,0,2510,2526,2349,0,0,
0,0,0,0,0,0,0,0,0,0,0,0,0,0,0,0,0,0,0,0,0,0,0,0,0,0,0,0,0,2485,0,0,0,0,0,0,0,0,0,0,0,0,0,0,2510,2526,0,0,0,0,
0,0,0,0,0,0,0,0,0,0,0,0,0,0,0,0,0,0,0,0,0,0,0,0,0,0,0,0,2336,2501,2502,0,0,0,0,0,0,0,0,0,0,0,0,2510,2526,2349,0,0,0,0,
0,0,0,0,0,0,0,0,0,2367,2485,0,0,0,0,0,2541,0,0,0,0,0,0,0,0,0,0,0,2350,2351,2518,2520,2519,2520,2519,2520,2519,2520,2519,2520,2520,2519,2520,2526,0,0,0,0,0,0,
0,0,0,0,0,0,0,0,0,2336,2485,0,0,0,0,0,0,0,0,0,0,0,0,0,0,0,0,0,2366,2367,2336,2382,2382,0,2330,2331,2330,2331,0,0,0,0,0,0,0,0,0,0,0,0,
0,0,0,0,0,0,0,0,0,2336,2485,0,0,0,0,0,0,0,0,0,0,0,0,0,0,0,0,0,0,0,0,0,0,0,0,2314,2315,0,0,0,0,0,0,0,0,0,0,0,0,0,
0,0,0,0,0,0,0,0,0,2336,2501,2502,0,0,0,0,0,0,0,0,0,0,0,0,0,0,0,0,0,0,0,0,0,0,0,0,0,0,0,0,0,0,0,0,0,0,0,0,0,0,
0,0,0,0,0,0,0,0,0,2350,2351,2518,2520,2519,2519,2520,2526,0,0,0,0,0,0,0,0,0,0,0,0,0,0,0,0,0,0,0,0,0,0,0,0,0,0,0,0,0,0,0,0,0,
0,0,0,0,0,0,0,0,0,2314,2315,0,0,0,2314,2315,0,0,0,0,0,0,0,0,0,0,0,0,0,0,0,0,0,0,0,0,0,0,0,0,0,0,0,0,0,0,0,0,0,0,
0,0,0,0,0,0,0,0,0,0,0,0,0,0,0,0,0,0,0,0,0,0,0,0,0,0,0,0,0,0,0,0,0,0,0,0,0,0,0,0,0,0,0,0,0,0,0,0,0,0,
0,0,0,0,0,0,0,0,0,0,0,0,0,0,0,0,0,0,0,0,0,0,0,0,0,0,0,0,0,0,0,0,0,0,0,0,0,0,0,0,0,0,0,0,0,0,0,0,0,0
</data>
 </layer>
 <layer id="5" name="AlwaysFront" width="50" height="50">
  <data encoding="csv">
0,0,0,0,0,0,0,0,0,0,0,0,0,0,0,0,0,0,0,0,0,0,0,0,0,0,0,0,0,0,0,0,0,0,0,0,0,0,0,0,0,0,0,0,0,0,0,0,0,0,
0,0,0,0,0,0,0,0,0,0,0,0,0,0,0,0,0,0,0,0,0,0,0,0,0,0,0,0,0,0,0,0,0,0,0,0,0,0,0,0,0,0,0,0,0,0,0,0,0,0,
0,0,0,0,0,0,0,0,0,0,0,0,0,0,0,0,0,0,0,0,0,0,0,0,0,0,0,0,0,0,0,0,0,0,0,0,0,0,0,0,0,0,0,0,0,0,0,0,0,0,
0,0,0,0,0,0,0,0,0,0,0,0,0,0,0,0,0,0,0,0,0,0,0,0,0,0,0,0,0,0,0,0,0,0,0,0,0,0,0,0,0,0,0,0,0,0,0,0,0,0,
0,0,0,0,0,0,0,0,0,0,0,0,0,0,0,0,0,0,0,0,0,0,0,0,0,0,0,0,0,0,0,0,0,0,0,0,0,0,0,0,0,0,0,0,0,0,0,0,0,0,
0,0,0,0,0,0,0,0,0,0,0,0,0,0,0,0,0,0,0,0,0,0,0,0,0,0,0,0,0,0,0,0,0,0,0,0,0,0,0,0,0,0,0,0,0,0,0,0,0,0,
0,0,0,0,0,0,0,0,0,0,0,0,0,0,0,0,0,0,0,0,0,0,0,0,0,0,0,0,0,0,0,0,0,0,0,0,0,0,0,0,0,0,0,0,0,0,0,0,0,0,
0,0,0,0,0,0,0,0,0,0,0,0,0,0,0,0,0,0,0,0,0,0,0,0,0,0,0,0,0,0,0,0,0,0,0,0,0,0,0,0,0,0,0,0,0,0,0,0,0,0,
0,0,0,0,0,0,0,0,0,0,0,0,0,0,0,0,0,0,0,0,0,0,0,0,0,0,0,0,0,0,0,0,0,0,0,0,0,0,0,0,0,0,0,0,0,0,0,0,0,0,
0,0,0,0,0,0,0,0,0,0,0,0,0,0,0,0,0,0,0,0,0,0,0,0,0,0,0,0,0,0,0,0,0,0,0,0,0,0,0,0,0,0,0,0,0,0,0,0,0,0,
0,0,0,0,0,0,0,0,0,0,0,0,0,0,0,0,0,0,0,0,0,0,0,0,0,0,0,0,0,0,0,0,0,0,0,0,0,0,0,0,0,0,0,0,0,0,0,0,0,0,
0,0,0,0,0,0,0,0,0,0,0,0,0,0,0,0,0,0,0,0,0,0,0,0,0,0,0,0,0,0,0,0,0,0,0,0,0,0,0,0,0,0,0,0,0,0,0,0,0,0,
0,0,0,0,0,0,0,0,0,0,0,0,0,0,0,0,0,0,0,0,0,0,0,0,0,0,0,0,0,0,0,0,0,0,0,0,0,0,0,0,0,0,0,0,0,0,0,0,0,0,
0,0,0,0,0,0,0,0,0,0,0,0,0,0,0,0,0,0,0,0,0,0,0,0,0,0,0,0,0,0,0,0,0,0,0,0,0,0,0,0,0,0,0,0,0,0,0,0,0,0,
0,0,0,0,0,0,0,0,0,0,0,0,0,0,0,0,0,0,0,0,0,0,0,0,0,0,0,0,0,0,0,0,0,0,0,0,0,0,0,0,0,0,0,0,0,0,0,0,0,0,
0,0,0,0,0,0,0,0,0,0,0,0,0,0,0,0,0,0,0,0,0,0,0,0,0,0,0,0,0,0,0,0,0,0,0,0,0,0,0,0,0,0,0,0,0,0,0,0,0,0,
0,0,0,0,0,0,0,0,0,0,0,0,0,0,0,0,0,0,0,0,0,0,0,0,0,0,0,0,0,0,0,0,0,0,0,0,0,0,0,0,0,0,0,0,0,0,0,0,0,0,
0,0,0,0,0,0,0,0,0,0,0,0,0,0,0,0,0,0,0,0,0,0,0,0,0,0,0,0,0,0,0,0,0,0,0,0,0,0,0,0,0,0,0,0,0,0,0,0,0,0,
0,0,0,0,0,0,0,0,0,0,0,0,0,0,0,0,0,0,0,0,0,0,0,0,0,0,0,0,0,0,0,0,0,0,0,0,0,0,0,0,0,0,0,0,0,0,0,0,0,0,
0,0,0,0,0,0,0,0,0,0,0,0,0,0,0,0,0,0,0,0,0,0,0,0,0,0,0,0,0,0,0,0,0,0,0,0,0,0,0,0,0,0,0,0,0,0,0,0,0,0,
0,0,0,0,0,0,0,0,0,0,0,0,0,0,0,0,0,0,0,0,0,0,0,0,0,0,0,0,0,0,0,0,0,0,0,0,0,0,0,0,0,0,0,0,0,0,0,0,0,0,
0,0,0,0,0,0,0,0,0,0,0,0,0,0,0,0,0,0,0,0,0,0,0,0,0,0,0,0,0,0,0,0,0,0,0,0,0,0,0,0,0,0,0,0,0,0,0,0,0,0,
0,0,0,0,0,0,0,0,0,0,0,0,0,0,0,0,0,0,0,0,0,0,0,0,0,0,0,0,0,0,0,0,0,0,0,0,0,0,0,0,0,0,0,0,0,0,0,0,0,0,
0,0,0,0,0,0,0,0,0,0,0,0,0,0,0,0,0,0,0,0,0,0,0,0,0,0,0,0,0,0,0,0,0,0,0,0,0,0,0,0,0,0,0,0,0,0,0,0,0,0,
0,0,0,0,0,0,0,0,0,0,0,0,0,0,0,0,0,0,0,0,0,0,0,0,0,0,0,0,0,0,0,0,0,0,0,0,0,0,0,0,0,0,0,0,0,0,0,0,0,0,
0,0,0,0,0,0,0,0,0,0,0,0,0,0,0,0,0,0,0,0,0,0,0,0,0,0,0,0,0,0,0,0,0,0,0,0,0,0,0,0,0,0,0,0,0,0,0,0,0,0,
0,0,0,0,0,0,0,0,0,0,0,0,0,0,0,0,0,0,0,0,0,0,0,0,0,0,0,0,0,0,0,0,0,0,0,0,0,0,0,0,0,0,0,0,0,0,0,0,0,0,
0,0,0,0,0,0,0,0,0,0,0,0,0,0,0,0,0,0,0,0,0,0,0,0,0,0,0,0,0,0,0,0,0,0,0,0,0,0,0,0,0,0,0,0,0,0,0,0,0,0,
0,0,0,0,0,0,0,0,0,0,0,0,0,0,0,0,0,0,0,0,0,0,0,0,0,0,0,0,0,0,0,0,0,0,0,0,0,0,0,0,0,0,0,0,0,0,0,0,0,0,
0,0,0,0,0,0,0,0,0,0,0,0,0,0,0,0,0,0,0,0,0,0,0,0,0,0,0,0,0,0,0,0,0,0,0,0,0,0,0,0,0,0,0,0,0,0,0,0,0,0,
0,0,0,0,0,0,0,0,0,0,0,0,0,0,0,0,0,0,0,0,0,0,0,0,0,0,0,0,0,0,0,0,0,0,0,0,0,0,0,0,0,0,0,0,0,0,0,0,0,0,
0,0,0,0,0,0,0,0,0,0,0,0,0,0,0,0,0,0,0,0,0,0,0,0,0,0,0,0,0,0,0,0,0,0,0,0,0,0,0,0,0,0,0,0,0,0,0,0,0,0,
0,0,0,0,0,0,0,0,0,0,0,0,0,0,0,0,0,0,0,0,0,0,0,0,0,0,0,0,0,0,0,0,0,0,0,0,0,0,0,0,0,0,0,0,0,0,0,0,0,0,
0,0,0,0,0,0,0,0,0,0,0,0,0,0,0,0,0,0,0,0,0,0,0,0,0,0,0,0,0,0,0,0,0,0,0,0,0,0,0,0,0,0,0,0,0,0,0,0,0,0,
0,0,0,0,0,0,0,0,0,0,0,0,0,0,0,0,0,0,0,0,0,0,0,0,0,0,0,0,0,0,0,0,0,0,0,0,0,0,0,0,0,0,0,0,0,0,0,0,0,0,
0,0,0,0,0,0,0,0,0,0,0,0,0,0,0,0,0,0,0,0,0,0,0,0,0,0,0,0,0,0,0,0,0,0,0,0,0,0,0,0,0,0,0,0,0,0,0,0,0,0,
0,0,0,0,0,0,0,0,0,0,0,0,0,0,0,0,0,0,0,0,0,0,0,0,0,0,0,0,0,0,0,0,0,0,0,0,0,0,0,0,0,0,0,0,0,0,0,0,0,0,
0,0,0,0,0,0,0,0,0,0,0,0,0,0,0,0,0,0,0,0,0,0,0,0,0,0,0,0,0,0,0,0,0,0,0,0,0,0,0,0,0,0,0,0,0,0,0,0,0,0,
0,0,0,0,0,0,0,0,0,0,0,0,0,0,0,0,0,0,0,0,0,0,0,0,0,0,0,0,0,0,0,0,0,0,0,0,0,0,0,0,0,0,0,0,0,0,0,0,0,0,
0,0,0,0,0,0,0,0,0,0,0,0,0,0,0,0,0,0,0,0,0,0,0,0,0,0,0,0,0,0,0,0,0,0,0,0,0,0,0,0,0,0,0,0,0,0,0,0,0,0,
0,0,0,0,0,0,0,0,0,0,0,0,0,0,0,0,0,0,0,0,0,0,0,0,0,0,0,0,0,0,0,0,0,0,0,0,0,0,0,0,0,0,0,0,0,0,0,0,0,0,
0,0,0,0,0,0,0,0,0,0,0,0,0,0,0,0,0,0,0,0,0,0,0,0,0,0,0,0,0,0,0,0,0,0,0,0,0,0,0,0,0,0,0,0,0,0,0,0,0,0,
0,0,0,0,0,0,0,0,0,0,0,0,0,0,0,0,0,0,0,0,0,0,0,0,0,0,0,0,0,0,0,0,0,0,0,0,0,0,0,0,0,0,0,0,0,0,0,0,0,0,
0,0,0,0,0,0,0,0,0,0,0,0,0,0,0,0,0,0,0,0,0,0,0,0,0,0,0,0,0,0,0,0,0,0,0,0,0,0,0,0,0,0,0,0,0,0,0,0,0,0,
0,0,0,0,0,0,0,0,0,0,0,0,0,0,0,0,0,0,0,0,0,0,0,0,0,0,0,0,0,0,0,0,0,0,0,0,0,0,0,0,0,0,0,0,0,0,0,0,0,0,
0,0,0,0,0,0,0,0,0,0,0,0,0,0,0,0,0,0,0,0,0,0,0,0,0,0,0,0,0,0,0,0,0,0,0,0,0,0,0,0,0,0,0,0,0,0,0,0,0,0,
0,0,0,0,0,0,0,0,0,0,0,0,0,0,0,0,0,0,0,0,0,0,0,0,0,0,0,0,0,0,0,0,0,0,0,0,0,0,0,0,0,0,0,0,0,0,0,0,0,0,
0,0,0,0,0,0,0,0,0,0,0,0,0,0,0,0,0,0,0,0,0,0,0,0,0,0,0,0,0,0,0,0,0,0,0,0,0,0,0,0,0,0,0,0,0,0,0,0,0,0,
0,0,0,0,0,0,0,0,0,0,0,0,0,0,0,0,0,0,0,0,0,0,0,0,0,0,0,0,0,0,0,0,0,0,0,0,0,0,0,0,0,0,0,0,0,0,0,0,0,0,
0,0,0,0,0,0,0,0,0,0,0,0,0,0,0,0,0,0,0,0,0,0,0,0,0,0,0,0,0,0,0,0,0,0,0,0,0,0,0,0,0,0,0,0,0,0,0,0,0,0
</data>
 </layer>
</map>
