<?xml version="1.0" encoding="UTF-8"?>
<map version="1.10" tiledversion="1.12.1" orientation="orthogonal" renderorder="left-down" width="50" height="50" tilewidth="16" tileheight="16" infinite="0" nextlayerid="16" nextobjectid="1">
 <properties>
  <property name="AmbientLight" value="95 95 95"/>
  <property name="NPCwarp" value="23 49 CustomMoonvillage2 38 14 "/>
 </properties>
 <tileset firstgid="1" name="townInterior" tilewidth="16" tileheight="16" tilecount="2176" columns="32">
  <image source="Tilesheet/townInterior.png" width="512" height="1088"/>
 </tileset>
 <tileset firstgid="2177" name="townInterior_2" tilewidth="16" tileheight="16" tilecount="1312" columns="32">
  <image source="Tilesheet/townInterior_2.png" width="512" height="656"/>
 </tileset>
 <tileset firstgid="3489" name="ElliottHouseTiles" tilewidth="16" tileheight="16" tilecount="56" columns="4">
  <image source="Tilesheet/ElliottHouseTiles.png" width="64" height="224"/>
 </tileset>
 <tileset firstgid="3545" name="summer_town" tilewidth="16" tileheight="16" tilecount="2304" columns="32">
  <image source="Tilesheet/summer_town.png" width="512" height="1152"/>
 </tileset>
 <tileset firstgid="5849" name="pirates_tilesheet" tilewidth="16" tileheight="16" tilecount="190" columns="19">
  <image source="Tilesheet/pirates_tilesheet.png" width="304" height="160"/>
 </tileset>
 <tileset firstgid="6039" name="summer_outdoorsTileSheet" tilewidth="16" tileheight="16" tilecount="1975" columns="25">
  <image source="Tilesheet/summer_outdoorsTileSheet.png" width="400" height="1264"/>
 </tileset>
 <tileset firstgid="8014" name="2" tilewidth="16" tileheight="16" tilecount="1312" columns="32">
  <image source="Tilesheet/townInterior_2.png" width="512" height="656"/>
 </tileset>
 <tileset firstgid="9326" name="p" tilewidth="16" tileheight="16" tilecount="64" columns="4">
  <image source="Tilesheet/paths.png" width="64" height="256"/>
 </tileset>
 <tileset firstgid="9390" name="1" tilewidth="16" tileheight="16" tilecount="2176" columns="32">
  <image source="Tilesheet/townInterior.png" width="512" height="1088"/>
  <tile id="581">
   <animation>
    <frame tileid="581" duration="500"/>
    <frame tileid="550" duration="500"/>
    <frame tileid="581" duration="500"/>
    <frame tileid="582" duration="500"/>
   </animation>
  </tile>
  <tile id="1378">
   <animation>
    <frame tileid="1378" duration="120"/>
    <frame tileid="1381" duration="120"/>
    <frame tileid="1384" duration="120"/>
   </animation>
  </tile>
  <tile id="1379">
   <animation>
    <frame tileid="1379" duration="120"/>
    <frame tileid="1382" duration="120"/>
    <frame tileid="1385" duration="120"/>
   </animation>
  </tile>
  <tile id="1380">
   <animation>
    <frame tileid="1380" duration="120"/>
    <frame tileid="1383" duration="120"/>
    <frame tileid="1386" duration="120"/>
   </animation>
  </tile>
  <tile id="1410">
   <animation>
    <frame tileid="1410" duration="250"/>
    <frame tileid="1474" duration="250"/>
   </animation>
  </tile>
  <tile id="1411">
   <animation>
    <frame tileid="1411" duration="500"/>
    <frame tileid="1475" duration="500"/>
   </animation>
  </tile>
 </tileset>
 <layer id="1" name="Back" width="50" height="50">
  <data encoding="csv">
1,1,1,1,1,1,1,1,1,1,1,1,1,1,1,1,1,1,1,1,1,1,1,1,1,1,1,1,1,1,1,1,1,1,1,1,1,1,1,1,1,1,1,1,1,1,1,1,1,1,
1,1,1,1,1,1,1,1,1,1,1,1,1,1,1,1,1,1,1,1,1,1,1,1,1,1,1,1,1,1,1,1,1,1,1,1,1,1,1,1,1,1,1,1,1,1,1,1,1,1,
1,1,1,1,1,1,1,1,1,1,1,1,1,1,1,1,1,1,1,1,1,1,1,1,1,1,1,1,1,1,1,1,1,1,1,1,1,1,1,1,1,1,1,1,1,1,1,1,1,1,
1,1,1,1,1,1,1,1,1,1,1,1,1,1,1,1,1,1,1,1,1,1,1,1,1,1,1,1,1,1,1,1,1,1,1,1,1,1,1,1,1,1,1,1,1,1,1,1,1,1,
1,1,1,1,1,1,1,1,1,1,1,1,1,1,1,1,1,1,1,1,1,1,1,35,35,35,35,35,35,1,1,1,1,1,1,1,1,1,1,1,1,1,1,1,1,1,1,1,1,1,
1,1,1,1,1,1,1,1,1,1,1,1,1,1,1,1,1,1,1,1,1,1,1,67,67,67,67,67,67,1,1,1,1,1,1,1,1,1,1,1,1,1,1,1,1,1,1,1,1,1,
1,1,1,1,1,1,1,1,1,1,1,1,1,1,1,1,1,1,1,1,1,1,1074,99,99,99,99,99,99,1,1,1,1,1,1,1,1,1,1,1,1,1,1,1,1,1,1,1,1,1,
232,232,232,232,232,232,232,232,998,998,998,998,998,999,998,998,998,998,998,998,998,998,998,998,232,232,232,232,232,232,1,1,1,1,1,1,1,1,1,1,1,1,1,1,1,1,1,1,1,1,
264,232,232,232,232,264,264,264,998,998,998,998,998,999,998,998,999,998,998,999,998,998,998,998,232,232,232,264,264,264,1,1,1,232,232,232,232,232,232,232,232,232,232,232,232,232,232,232,232,232,
264,264,264,264,264,264,265,264,999,998,999,998,998,999,998,999,1000,998,998,999,999,998,999,998,264,264,264,264,265,264,1,1,1,264,264,264,264,264,264,264,264,264,264,264,264,264,264,264,264,264,
232,232,232,232,232,232,232,232,998,998,998,998,998,999,998,998,998,999,998,999,998,998,998,998,232,232,232,232,232,232,1,1,1,232,232,232,232,232,232,232,232,232,232,232,232,232,232,232,232,232,
232,232,232,232,232,232,232,232,998,998,998,998,998,998,998,998,998,999,998,999,998,998,998,998,232,232,232,232,232,232,1,1,1,264,264,264,264,264,264,264,264,264,264,264,264,264,264,264,232,232,
264,232,232,232,232,264,264,264,6376,6377,6378,6378,998,999,998,999,998,999,998,999,6376,6377,6378,6378,232,232,232,264,264,264,1,1,1,232,232,232,232,232,232,232,232,232,232,232,232,232,232,232,232,232,
264,264,264,264,1661,1662,1663,1664,264,264,264,264,265,264,264,264,264,264,264,264,265,264,1661,1662,1663,1664,264,264,265,264,1,1,1,232,232,264,264,264,232,232,232,232,264,264,264,264,232,232,232,232,
232,232,232,232,1693,1694,1695,1696,232,232,232,232,232,232,232,232,1661,1662,1663,1664,232,232,1693,1694,1695,1696,232,232,232,232,1,1,1,264,264,264,265,264,264,264,264,264,264,265,264,264,264,264,264,264,
264,264,264,264,1725,1726,1727,1728,264,264,1661,1662,1663,1664,264,264,1693,1694,1695,1696,264,264,1725,1726,1727,1728,264,264,264,264,264,264,264,232,232,232,232,232,232,232,232,232,232,232,232,232,232,232,232,232,
264,232,232,232,1757,1758,1759,1760,232,232,1693,1694,1695,1696,264,232,1725,1726,1727,1728,232,232,1757,1758,1759,1760,232,232,232,232,232,232,232,264,264,264,264,264,264,264,264,264,264,264,264,264,264,264,232,232,
232,232,232,232,1789,1790,1791,1792,232,232,1725,1726,1727,1728,232,232,1757,1758,1759,1760,232,232,1789,1790,1791,1792,232,232,232,264,264,264,232,232,232,232,232,232,232,232,232,232,232,232,232,232,232,232,232,232,
232,232,232,232,232,232,232,232,232,232,1757,1758,1759,1760,232,232,1789,1790,1791,1792,232,232,232,232,264,264,264,264,264,264,265,264,232,232,232,264,264,264,232,232,232,232,264,264,264,264,232,232,232,232,
264,232,232,232,232,264,264,264,264,232,1789,1790,1791,1792,264,232,232,232,232,264,264,264,264,232,232,232,232,232,232,232,232,1,1,1,1,1,1,1,1,1,1,1,1,1,1,1,1,1,1,1,
264,264,264,264,264,264,265,264,264,264,264,264,265,264,264,264,264,264,264,264,265,264,264,264,232,232,232,232,232,232,232,1,1,1,1,1,1,1,1,1,1,1,1,1,1,1,1,1,1,1,
232,232,232,232,232,232,232,232,232,232,232,232,232,232,232,232,232,232,232,232,232,232,232,232,264,232,232,232,232,264,264,1,1,232,232,232,232,232,232,232,232,232,232,232,232,232,232,232,232,232,
1,1,1,1,1,1,1,1,1,1,1,1,1,1,1,1,1,1,1,1,1,1,1,1,1,264,264,264,264,264,265,1,1,264,264,264,264,264,264,264,264,264,264,264,264,264,264,264,264,264,
1,1,1,1,1,1,1,1,1,1,1,1,1,1,1,1,1,1,1,1,1,1,1,1,1,232,232,232,232,232,232,1,1,232,232,232,232,232,232,232,232,232,232,232,232,232,232,232,232,232,
1,1,1,1,1,1,1,1,1,1,1,1,1,1,1,1,1,1,1,1,1,1,1,1,264,264,6376,6376,6377,6378,264,264,1,264,264,264,264,264,264,264,264,232,232,232,264,264,264,264,232,232,
1,1,1,1,1,1,1,1,1,1,35,35,35,35,35,35,35,35,35,35,35,35,35,35,35,232,6376,6376,6377,6378,232,232,1,232,232,232,232,232,232,232,232,232,232,232,232,232,232,232,232,232,
1,1,1,1,1,1,1,1,1,67,67,67,67,67,67,67,67,67,67,67,67,67,67,67,67,232,6376,6376,6377,6378,232,232,1,232,232,264,264,264,264,232,232,232,232,232,264,264,232,232,232,232,
1,232,232,232,264,264,232,232,232,99,99,99,99,99,99,99,99,99,99,99,99,99,99,1,232,232,6376,6376,6377,6378,232,232,1,264,264,264,265,264,264,264,264,264,264,264,264,264,264,264,264,264,
1,232,232,232,232,232,232,232,232,232,264,264,264,264,264,264,264,264,264,264,264,264,264,264,264,232,232,232,232,264,264,264,264,232,232,232,232,232,232,232,232,232,232,232,232,232,232,232,232,232,
1,264,264,264,264,264,264,264,264,264,232,232,232,232,232,232,232,232,232,232,232,264,264,232,264,264,264,264,264,264,265,264,232,264,264,264,264,264,264,264,264,232,232,232,264,264,264,264,232,232,
1,232,232,232,232,232,232,264,264,232,264,264,264,264,232,232,232,232,232,232,232,232,232,232,232,232,232,232,232,232,232,232,232,232,232,232,232,232,232,232,232,232,232,232,232,232,232,232,232,232,
1,232,232,232,232,232,232,232,232,232,232,264,264,264,264,264,264,264,264,264,264,264,232,232,232,232,232,232,232,232,264,232,232,232,232,264,264,264,264,232,232,232,232,232,264,264,232,232,232,232,
264,264,264,264,264,264,264,264,232,232,232,232,232,232,232,232,232,232,232,232,232,232,264,264,264,264,264,264,264,264,1,1,1,1,1,1,1,1,1,1,1,1,1,1,1,1,1,1,1,1,
9653,232,232,232,232,232,232,232,264,264,264,264,264,264,264,264,264,264,264,264,264,264,232,232,232,232,232,232,232,232,1,1,1,232,232,232,232,232,232,232,232,232,232,232,232,232,232,232,232,232,
9621,232,232,232,232,232,232,232,232,232,232,232,232,232,232,232,232,232,232,232,264,232,264,264,264,264,264,264,264,264,1,1,1,264,264,264,264,264,264,264,264,264,264,264,264,264,264,264,232,232,
1,1,1,1,10028,10029,10028,10029,10028,10029,10028,10029,10028,10029,10028,10029,10028,10029,10028,10029,1,264,232,232,232,232,232,232,232,232,1,1,1,232,232,232,232,232,232,232,232,232,232,232,232,232,232,232,232,232,
1,232,232,232,232,9720,9720,9720,9720,9720,9720,9720,9720,232,232,232,232,232,232,232,264,264,264,264,264,264,264,232,232,232,1,1,1,232,232,232,264,264,264,232,232,232,264,264,264,264,232,232,232,232,
232,8772,8772,8772,8772,9720,9720,9720,9720,9720,9720,9720,9720,8772,8772,8772,8772,8772,8772,8772,8772,8772,232,232,232,232,232,232,232,232,1,1,1,232,232,232,232,232,232,232,232,232,232,232,232,232,232,232,232,232,
264,8804,8804,8804,8804,9720,9720,9720,9720,9720,9720,9720,9720,9720,9720,9720,9720,9720,9720,9720,9720,9720,264,264,264,232,232,232,232,232,1,1,1,232,232,232,264,264,264,264,264,264,2561,2562,2563,2562,2563,264,232,232,
232,9720,9720,9720,9720,9720,9720,9720,9720,9720,9720,9720,9720,9390,9390,9390,9390,9390,9390,9390,9502,9502,265,264,264,264,264,264,264,264,1,1,1,264,264,264,264,264,264,232,232,232,2593,2594,2595,2594,2595,232,232,232,
264,9965,9964,9965,9964,9965,9964,9965,9964,9965,9964,232,232,232,232,232,232,232,232,9964,9964,11534,232,232,232,232,232,232,232,232,69,1,1,232,232,232,232,232,232,232,232,232,2593,2594,2593,2594,2595,232,232,232,
232,10029,11503,10029,11503,10029,11503,10029,11503,10029,11503,264,264,264,232,232,232,232,232,10029,9996,11502,232,232,232,232,232,232,232,232,69,1,1,232,232,232,264,264,264,232,232,232,232,232,232,232,232,232,232,232,
232,232,232,232,232,232,232,232,232,232,232,232,232,232,264,264,264,264,264,9901,10028,8743,232,232,232,232,232,232,232,232,232,232,232,264,264,264,264,264,264,264,264,264,264,264,264,264,264,264,232,232,
264,264,264,264,264,264,264,232,232,232,232,264,264,264,232,232,232,232,232,9933,9996,9997,264,264,264,264,264,232,232,232,264,264,264,232,232,232,232,232,232,232,232,232,232,232,232,232,232,232,232,232,
264,1661,1662,1663,1664,1661,1662,1663,1664,1661,1662,1663,1664,232,232,232,232,232,232,232,232,232,232,232,232,232,232,232,232,232,232,232,232,232,232,232,264,264,264,232,232,232,264,264,264,264,232,232,232,232,
232,1693,1694,1695,1696,1693,1694,1695,1696,1693,1694,1695,1696,232,1,232,232,232,249,250,250,250,250,250,250,250,250,250,251,232,69,1,1,1,1,1,1,1,1,1,1,1,1,1,1,1,1,1,1,1,
264,1725,1726,1727,1728,1725,1726,1727,1728,1725,1726,1727,1728,232,1,232,232,232,281,282,282,282,282,282,282,282,282,282,283,264,168,1,1,1,1,1,1,1,1,1,1,1,1,1,1,1,1,1,1,1,
232,1757,1758,1759,1760,1757,1758,1759,1760,1757,1758,1759,1760,232,1,264,264,264,264,265,264,264,265,201,264,264,264,264,264,265,1,1,1,1,1,1,1,1,1,1,1,1,1,1,1,1,1,1,1,1,
232,1789,1790,1791,1792,1789,1790,1791,1792,1789,1790,1791,1792,232,1,1,1,1,1,1,65,270,271,270,270,271,69,1,1,1,1,1,1,1,1,1,1,1,1,1,1,1,1,1,1,1,1,1,1,1,
264,264,264,264,264,264,265,264,264,264,264,264,264,264,1,1,1,1,1,1,65,270,271,270,270,271,69,1,1,1,1,1,1,1,1,1,1,1,1,1,1,1,1,1,1,1,1,1,1,1
</data>
 </layer>
 <layer id="12" name="Back2" width="50" height="50">
  <data encoding="csv">
1,1,1,1,1,1,1,1,1,1,1,1,1,1,1,1,1,1,1,1,1,1,1,1,1,1,1,1,1,1,1,1,1,1,1,1,1,1,1,1,1,1,1,1,1,1,1,1,1,1,
1,1,1,1,1,1,1,1,1,1,1,1,1,1,1,1,1,1,1,1,1,1,1,1,1,1,1,1,1,1,1,1,1,1,1,1,1,1,1,1,1,1,1,1,1,1,1,1,1,1,
1,1,1,1,1,1,1,1,1,1,1,1,1,1,1,1,1,1,1,1,1,1,1,1,1,1,1,1,1,1,1,1,1,1,1,1,1,1,1,1,1,1,1,1,1,1,1,1,1,1,
1,1,1,1,1,1,1,1,1,1,1,1,1,1,1,1,1,1,1,1,1,1,1,1,1,1,1,1,1,1,1,1,1,1,1,1,1,1,1,1,1,1,1,1,1,1,1,1,1,1,
1,1,1,1,1,1,1,1,1,1,1,1,1,1,1,1,1,1,1,1,1,1,1,35,35,35,35,35,35,1,1,1,1,1,1,1,1,1,1,1,1,1,1,1,1,1,1,1,1,1,
1,1,1,1,1,1,1,1,1,1,1,1,1,1,1,1,1,1,1,1,1,1,1,67,67,67,67,67,67,1,1,1,1,1,1,1,1,1,1,1,1,1,1,1,1,1,1,1,1,1,
1,1,1,1,1,1,1,1,1,1,1,1,1,1,1,1,1,1,1,1,1,1,1074,99,99,99,99,99,99,1,1,1,1,1,1,1,1,1,1,1,1,1,1,1,1,1,1,1,1,1,
232,232,232,232,232,232,232,232,998,998,998,998,998,999,998,998,998,998,998,998,998,998,998,998,232,232,232,232,232,232,1,1,1,1,1,1,1,1,1,1,1,1,1,1,1,1,1,1,1,1,
264,232,232,232,232,264,264,264,998,998,998,998,998,999,998,998,999,998,998,999,998,998,998,998,232,232,232,264,264,264,1,1,1,232,232,232,232,232,232,232,232,232,232,232,232,232,232,232,232,232,
264,264,264,264,264,264,265,264,999,998,999,998,998,999,998,999,1000,998,998,999,999,998,999,998,264,264,264,264,265,264,1,1,1,264,264,264,264,264,264,264,264,264,264,264,264,264,264,264,264,264,
232,232,232,232,232,232,232,232,998,998,998,998,998,999,998,998,998,999,998,999,998,998,998,998,232,232,232,232,232,232,1,1,1,232,232,232,232,232,232,232,232,232,232,232,232,232,232,232,232,232,
232,232,232,232,232,232,232,232,998,998,998,998,998,998,998,998,998,999,998,999,998,998,998,998,232,232,232,232,232,232,1,1,1,264,3114,3115,3116,3114,3115,3116,3115,3116,3114,3115,3116,3116,3115,3116,232,232,
264,232,232,232,232,264,264,264,0,0,0,0,998,999,998,999,998,999,998,999,0,0,0,0,232,232,232,264,264,264,1,1,1,232,3146,3147,3148,3114,3115,3116,3147,3148,3115,3116,3115,3116,3147,3148,232,232,
264,264,264,264,1661,1662,1663,1664,264,264,264,264,265,264,264,264,264,264,264,264,265,264,1661,1662,1663,1664,264,264,265,264,1,1,1,232,3146,3147,3148,3146,3147,3148,3147,6002,3147,3148,3147,3148,3147,3148,232,232,
232,232,232,232,1693,1694,1695,1696,232,232,232,232,232,232,232,232,1661,1662,1663,1664,232,232,1693,1694,1695,1696,232,232,232,232,1,1,1,264,3114,3115,3116,3114,3115,3116,3114,3115,3114,3115,3114,3114,3115,3116,264,264,
264,264,264,264,1725,1726,1727,1728,264,264,1661,1662,1663,1664,264,264,1693,1694,1695,1696,264,264,1725,1726,1727,1728,264,264,264,264,264,264,264,232,3146,3147,3148,3146,3147,3148,3146,3147,3146,3147,3146,3146,3147,3148,232,232,
264,232,232,232,1757,1758,1759,1760,232,232,1693,1694,1695,1696,264,232,1725,1726,1727,1728,232,232,1757,1758,1759,1760,232,232,232,232,232,232,232,264,264,264,264,264,264,264,264,264,264,264,264,264,264,264,232,232,
232,232,232,232,1789,1790,1791,1792,232,232,1725,1726,1727,1728,232,232,1757,1758,1759,1760,232,232,1789,1790,1791,1792,232,232,232,264,264,264,232,232,232,232,232,232,232,232,232,232,232,232,232,232,232,232,232,232,
232,232,232,232,232,232,232,232,232,232,1757,1758,1759,1760,232,232,1789,1790,1791,1792,232,232,232,232,264,264,264,264,264,264,265,264,232,232,232,264,264,264,232,232,232,232,264,264,264,264,232,232,232,232,
264,232,232,232,232,264,264,264,264,232,1789,1790,1791,1792,264,232,232,232,232,264,264,264,264,232,232,232,232,232,232,232,232,1,1,1,1,1,1,1,1,1,1,1,1,1,1,1,1,1,1,1,
264,264,264,264,264,264,265,264,264,264,264,264,265,264,264,264,264,264,264,264,265,264,264,264,232,232,232,232,232,232,232,1,1,1,1,1,1,1,1,1,1,1,1,1,1,1,1,1,1,1,
232,232,232,232,232,232,232,232,232,232,232,232,232,232,232,232,232,232,232,232,232,232,232,232,264,232,232,232,232,264,264,1,1,232,232,232,232,232,232,232,232,232,232,232,232,232,232,232,232,232,
1,1,1,1,1,1,1,1,1,1,1,1,1,1,1,1,1,1,1,1,1,1,1,1,1,264,264,264,264,264,265,1,1,264,264,264,264,264,264,264,264,264,264,264,264,264,264,264,264,264,
1,1,1,1,1,1,1,1,1,1,1,1,1,1,1,1,1,1,1,1,1,1,1,1,1,232,232,232,232,232,232,1,1,1661,1662,1663,1662,1663,1662,1663,1664,232,232,232,232,232,232,232,232,232,
1,1,1,1,1,1,1,1,1,1,1,1,1,1,1,1,1,1,1,1,1,1,1,1,264,264,0,0,0,0,264,264,1,1693,1694,1695,1694,1695,1694,1695,1696,232,232,232,264,264,264,264,232,232,
1,1,1,1,1,1,1,1,1,1,35,35,35,35,35,35,35,35,35,35,35,35,35,35,35,232,0,0,0,0,232,232,1,1693,1694,1695,1694,1695,1694,1695,1696,0,0,0,0,0,0,0,232,232,
1,1,1,1,1,1,1,1,1,67,67,67,67,67,67,67,67,67,67,67,67,67,67,67,67,232,0,0,0,0,232,232,1,1693,1694,1695,1694,1695,1694,1695,1696,0,0,0,0,0,0,0,232,232,
1,232,232,232,264,264,232,232,232,99,99,99,99,99,99,99,99,99,99,99,99,99,99,1,232,232,0,0,0,0,232,232,1,1693,1694,1695,1694,1695,1694,1695,1696,0,0,0,0,0,0,0,264,264,
1,232,232,232,232,232,232,232,232,232,264,264,264,264,264,264,264,264,264,264,264,264,264,264,264,232,232,232,232,264,264,264,264,1725,1726,1727,1726,1727,1726,1727,1728,0,0,0,0,0,0,0,232,232,
1,264,264,264,264,264,264,264,264,264,232,232,232,232,232,232,232,232,232,232,232,264,264,232,264,264,264,264,264,264,265,264,232,1757,1758,1759,1758,1759,1758,1759,1760,232,232,0,0,0,264,264,232,232,
1,232,0,0,0,0,0,0,0,232,264,264,264,264,232,232,232,232,232,232,232,232,232,232,232,232,232,232,232,232,232,232,232,1789,1790,1791,1790,1791,1790,1791,1792,232,232,232,232,232,232,232,232,232,
1,264,0,0,0,0,0,0,0,264,264,264,264,264,264,264,264,264,264,264,264,264,232,232,232,232,232,232,232,232,264,232,232,232,232,264,264,264,264,232,232,232,232,232,264,264,232,232,232,232,
264,232,0,0,0,0,0,0,0,232,232,232,232,232,232,232,232,232,232,232,232,232,264,264,264,264,264,264,264,264,1,1,1,1,1,1,1,1,1,1,1,1,1,1,1,1,1,1,1,1,
264,0,0,0,0,0,0,0,0,264,264,264,264,264,264,264,264,264,264,264,264,264,232,232,232,232,232,232,232,232,1,1,1,232,232,232,232,232,232,232,232,232,232,232,232,232,232,232,232,232,
0,232,232,232,232,232,232,232,232,232,232,232,232,232,232,232,232,232,232,232,264,232,264,264,264,264,264,264,264,264,1,1,1,264,264,264,264,264,264,264,264,264,264,264,264,264,264,264,232,232,
0,0,0,0,264,264,264,264,264,264,264,264,264,264,264,264,264,264,264,264,1,264,232,232,232,232,232,232,232,232,1,1,1,232,232,232,232,232,232,232,232,232,232,232,232,232,232,232,232,232,
0,232,232,232,232,232,232,232,232,232,232,232,232,232,232,232,232,232,232,232,264,264,264,264,264,264,264,232,232,232,1,1,1,232,232,232,264,264,264,232,232,232,264,264,264,264,232,232,232,232,
232,232,232,232,232,264,264,264,264,232,264,264,264,264,264,264,264,264,264,264,264,264,232,232,232,232,232,232,232,232,1,1,1,232,232,232,232,232,232,232,232,232,232,232,232,232,232,232,232,232,
264,264,264,264,264,264,265,264,264,264,232,232,232,232,232,232,232,232,232,232,232,232,264,264,264,232,232,232,232,232,1,1,1,232,232,232,264,264,264,264,264,264,2561,2562,2563,2562,2563,264,232,232,
232,232,232,232,232,232,232,232,232,232,264,264,264,264,264,232,232,264,264,264,232,232,265,264,264,264,264,264,264,264,1,1,1,264,264,264,264,264,264,232,232,232,2593,2594,2595,2594,2595,232,232,232,
264,264,264,264,264,264,264,264,264,264,232,232,232,232,0,232,232,265,264,264,264,264,232,232,232,232,232,232,232,232,69,1,1,232,232,232,232,232,232,232,232,232,2593,2594,2593,2594,2595,232,232,232,
232,232,232,232,232,232,232,232,232,232,264,264,264,232,232,232,232,232,232,232,232,232,232,232,232,232,232,232,232,232,69,1,1,232,232,232,264,264,264,232,232,232,232,232,232,232,232,232,232,232,
232,232,0,0,0,0,0,0,0,0,265,264,264,264,264,264,264,264,232,232,232,232,232,232,232,232,232,232,232,232,232,232,232,264,264,264,264,264,264,264,264,264,264,264,264,264,264,264,232,232,
264,264,0,0,0,0,0,0,0,0,232,232,232,232,232,232,232,232,264,264,264,264,264,264,264,264,264,232,232,232,264,264,264,232,232,232,232,232,232,232,232,232,232,232,232,232,232,232,232,232,
264,1661,1662,1663,1664,1661,1662,1663,1664,1661,1662,1663,1664,232,232,232,232,232,232,232,232,232,232,232,232,232,232,232,232,232,232,232,232,232,232,232,264,264,264,232,232,232,264,264,264,264,232,232,232,232,
232,1693,1694,1695,1696,1693,1694,1695,1696,1693,1694,1695,1696,232,1,232,232,232,249,250,250,250,250,250,250,250,250,250,251,232,69,1,1,1,1,1,1,1,1,1,1,1,1,1,1,1,1,1,1,1,
264,1725,1726,1727,1728,1725,1726,1727,1728,1725,1726,1727,1728,232,1,232,232,232,281,282,282,282,282,282,282,282,282,282,283,264,168,1,1,1,1,1,1,1,1,1,1,1,1,1,1,1,1,1,1,1,
232,1757,1758,1759,1760,1757,1758,1759,1760,1757,1758,1759,1760,232,1,264,264,264,264,265,264,264,265,201,264,264,264,264,264,265,1,1,1,1,1,1,1,1,1,1,1,1,1,1,1,1,1,1,1,1,
232,1789,1790,1791,1792,1789,1790,1791,1792,1789,1790,1791,1792,232,1,1,1,1,1,1,65,270,271,270,270,271,69,1,1,1,1,1,1,1,1,1,1,1,1,1,1,1,1,1,1,1,1,1,1,1,
264,264,264,264,264,264,265,264,264,264,264,264,264,264,1,1,1,1,1,1,65,270,271,270,270,271,69,1,1,1,1,1,1,1,1,1,1,1,1,1,1,1,1,1,1,1,1,1,1,1
</data>
 </layer>
 <layer id="2" name="Buildings" width="50" height="50">
  <data encoding="csv">
0,0,0,0,0,0,0,0,0,0,0,0,0,0,0,0,0,0,0,0,0,0,0,0,0,0,0,0,0,0,0,0,0,0,0,0,0,0,0,0,0,0,0,0,0,0,0,0,0,0,
0,0,0,0,0,0,0,0,0,0,0,0,0,0,0,0,0,0,0,0,0,0,0,0,0,0,0,0,0,0,0,0,0,0,0,0,0,0,0,0,0,0,0,0,0,0,0,0,0,0,
0,0,0,0,0,0,0,0,0,0,0,0,0,0,0,0,0,0,0,0,0,0,0,0,0,0,0,0,0,0,0,0,0,0,0,0,0,0,0,0,0,0,0,0,0,0,0,0,0,0,
1,2,3,3,3,3,3,3,3,3,3,3,3,3,3,3,3,3,3,3,3,3,3,3,3,3,3,3,3,4,0,0,0,0,0,0,0,0,0,0,0,0,0,0,0,0,0,0,0,0,
33,34,35,35,35,35,35,35,35,35,35,35,35,35,35,35,35,35,35,35,35,35,35,35,35,35,35,1584,1585,36,37,0,0,0,0,0,0,0,0,0,0,0,0,0,0,0,0,0,0,0,
65,66,67,67,67,67,67,67,67,67,67,67,67,67,67,67,67,67,67,67,67,67,67,67,67,67,67,1616,1617,68,69,0,0,0,0,0,0,0,0,0,0,0,0,0,0,0,0,0,0,0,
65,98,99,99,99,99,99,99,99,99,99,99,99,99,99,99,99,99,99,99,99,99,99,99,99,99,99,1648,1649,100,69,0,1,2,3,3,3,3,3,3,3,3,3,3,3,3,3,3,4,0,
65,130,0,0,0,0,402,0,155,0,0,0,0,0,0,0,0,0,0,0,0,0,0,156,0,402,0,1680,1681,132,69,0,33,34,35,35,35,35,35,35,35,35,35,35,35,35,35,35,36,37,
65,0,0,0,0,0,0,0,155,0,0,0,0,0,0,0,0,0,0,0,0,0,0,156,0,0,0,0,0,0,69,0,65,66,67,67,67,67,67,67,67,67,67,67,67,67,67,67,68,69,
65,0,0,0,0,0,0,0,155,0,0,0,155,0,1547,1548,1549,1550,0,156,0,0,0,156,0,0,0,0,0,0,69,0,65,98,99,99,99,99,99,99,99,99,99,99,99,99,99,99,100,69,
65,0,0,0,0,0,0,0,155,0,0,0,155,0,1579,1580,1581,1582,444,156,0,0,0,156,0,0,0,0,0,0,69,0,65,130,0,0,0,0,0,0,0,0,0,0,0,0,0,0,132,69,
65,0,0,0,0,0,0,0,155,401,0,0,155,0,1611,1612,1613,1614,476,156,0,0,401,156,0,0,0,0,0,0,194,3,195,0,0,0,0,0,0,0,0,0,0,0,0,0,0,0,0,69,
65,0,0,0,0,0,0,0,0,0,0,0,187,3521,3521,3521,3521,3521,3521,188,0,0,0,0,0,0,0,0,0,0,35,35,35,0,0,0,0,0,0,0,0,0,0,0,0,0,0,0,0,69,
65,0,0,0,887,854,857,0,0,0,0,0,0,0,0,0,0,0,0,0,0,0,0,0,0,0,0,0,0,0,67,67,67,0,0,0,0,0,0,0,0,0,0,0,0,0,0,0,0,69,
65,0,0,0,0,888,889,887,0,0,0,0,0,0,0,0,0,0,0,0,0,0,0,854,857,0,0,0,0,0,99,99,99,0,0,0,0,0,0,0,0,0,0,0,0,0,0,0,0,69,
65,0,0,0,887,0,0,0,0,0,0,0,0,0,0,0,0,854,857,887,0,0,0,888,889,887,0,0,0,0,0,0,0,0,0,0,0,0,0,0,0,0,0,0,0,0,0,0,0,69,
65,0,0,0,0,0,0,0,0,0,0,854,857,887,0,0,887,888,889,0,0,0,0,0,0,0,0,0,0,0,0,0,0,0,0,0,0,0,0,0,0,0,0,0,0,0,0,0,0,69,
65,0,0,0,0,0,0,0,0,0,0,888,889,0,0,0,0,0,0,0,0,0,0,0,0,0,0,0,0,0,0,0,0,0,0,0,0,0,0,0,0,0,0,0,0,0,0,0,0,69,
65,0,0,0,0,0,0,854,857,0,887,0,0,0,854,857,0,0,0,0,854,857,0,0,0,0,0,0,0,0,164,166,166,166,166,166,166,166,166,166,166,166,166,166,166,166,166,166,167,168,
65,0,0,0,0,0,887,888,889,887,0,0,0,887,888,889,0,0,0,887,888,889,887,0,0,0,0,0,0,0,69,0,1,2,3,3,3,3,3,3,3,3,3,3,3,3,3,3,4,0,
65,0,0,0,0,0,0,0,0,0,0,0,0,0,0,0,0,0,0,0,0,0,0,0,0,0,0,0,0,0,69,0,33,34,35,35,35,35,35,35,35,35,35,35,35,35,35,35,36,37,
161,162,166,197,197,197,197,197,197,197,197,197,197,197,197,197,197,197,197,197,197,197,197,197,197,163,0,0,0,0,69,0,65,66,67,67,67,67,67,67,67,67,67,67,67,67,67,67,68,69,
0,0,0,0,0,0,0,0,0,0,0,0,0,0,0,0,0,0,0,0,0,0,0,0,0,65,0,0,0,0,69,0,65,98,99,99,99,99,99,99,99,99,99,99,99,99,99,99,100,69,
0,0,0,0,0,0,0,0,0,0,0,0,0,0,0,0,0,0,0,0,0,0,0,0,0,65,0,0,0,0,69,0,65,130,0,0,0,0,0,0,0,0,0,0,0,0,0,0,132,69,
0,2,3,3,3,3,3,3,3,3,3,3,3,3,3,3,3,3,3,3,3,3,3,3,3,195,0,0,0,0,194,3,195,2522,0,0,0,0,0,0,830,0,854,857,887,0,2639,2640,2772,69,
33,34,35,35,35,35,35,35,35,35,35,35,35,35,35,35,35,35,35,35,0,0,0,0,0,0,0,0,0,0,35,35,35,886,0,0,0,0,0,0,862,0,888,889,0,0,0,0,2804,69,
65,66,67,580,581,580,581,580,581,67,0,0,0,0,67,67,67,67,67,67,0,0,0,0,0,0,0,0,0,0,67,67,67,918,919,920,919,919,919,919,894,0,0,0,0,0,0,0,2836,69,
65,98,99,612,613,612,613,612,613,0,0,0,0,0,0,99,99,99,99,99,99,99,99,99,99,99,0,0,0,0,99,99,99,950,951,952,951,951,951,951,926,0,0,0,854,857,887,0,2867,69,
65,130,0,644,645,644,645,644,645,0,0,6182,6183,0,0,0,0,0,0,0,0,0,0,0,0,0,0,0,0,0,535,536,0,0,0,0,0,0,0,0,0,0,0,887,888,889,0,0,2899,69,
65,0,0,0,0,0,0,0,0,0,0,6207,6208,0,0,0,0,0,0,0,0,0,0,0,0,0,0,0,0,0,0,0,0,0,0,0,0,0,0,0,0,0,0,0,0,0,0,0,2931,69,
65,0,0,1416,1417,1418,1419,1420,0,0,0,0,0,0,0,0,0,0,0,0,0,0,0,0,0,0,0,0,0,0,0,0,0,0,0,0,0,0,0,0,0,0,0,0,0,0,0,2639,2640,69,
65,0,0,1448,1449,1450,1451,1452,0,0,0,0,0,0,0,0,0,0,0,0,0,0,0,0,0,0,0,0,0,0,164,166,166,166,166,166,166,166,166,166,166,166,166,166,166,166,166,166,167,168,
65,0,0,1480,1481,1482,1483,1484,0,0,0,0,0,0,0,0,0,0,0,0,0,0,0,0,0,0,0,0,0,0,69,0,1,2,3,3,3,3,3,3,3,3,3,3,3,3,3,3,4,0,
9390,0,0,0,0,0,0,0,0,0,0,0,0,0,0,0,0,0,0,0,0,0,0,0,0,0,0,0,0,0,69,0,33,34,35,35,35,35,35,35,35,35,35,35,35,35,35,35,36,37,
9390,0,9555,9555,9555,9555,9555,9555,9555,9555,9555,9555,9555,9555,9555,9555,9555,9555,9555,9555,197,163,0,0,0,0,0,0,0,0,69,0,65,66,67,67,67,67,67,67,67,67,67,67,67,67,67,67,68,69,
0,0,0,0,9390,9390,9390,9390,9392,9392,9390,9390,9390,9390,9390,9390,9390,9390,9390,9390,9390,65,0,0,0,0,0,0,0,0,69,0,65,98,99,99,99,99,99,99,99,99,99,99,99,99,99,99,100,69,
0,9391,612,612,613,612,613,612,613,0,0,0,0,0,0,0,0,9392,9392,0,3,195,0,0,0,0,0,0,0,0,69,0,65,130,0,189,190,0,1284,1285,0,0,0,0,0,0,0,2256,3427,69,
9422,35,35,35,35,10267,10268,10269,10270,10271,10272,10273,10274,35,35,35,35,35,35,35,35,35,0,0,0,0,0,0,0,0,69,0,65,0,0,221,222,0,1316,1317,0,0,0,2663,2664,2665,2698,2288,3459,69,
65,67,67,67,67,10299,10300,10301,10302,10303,10304,10305,10306,67,67,67,67,67,67,67,67,67,0,0,0,0,0,0,0,0,69,0,65,0,1217,0,0,0,0,1911,0,0,2634,2695,2696,2697,2730,0,0,69,
65,9502,9502,9502,9609,10331,10332,10333,10334,10335,10336,10337,10338,9502,9502,9502,9502,9502,9502,9502,9502,9502,0,0,0,0,0,0,0,0,194,3,195,0,1249,0,0,0,0,1943,0,0,2666,2727,2728,2729,2730,0,0,69,
65,2579,0,0,0,0,0,0,0,0,0,0,0,0,0,0,0,0,0,0,10862,10863,0,0,0,0,0,0,0,0,35,35,35,0,0,0,0,0,0,0,0,0,0,0,0,0,0,0,0,69,
65,0,0,0,0,0,0,0,0,0,0,0,0,0,10283,10276,0,0,0,0,0,0,0,0,0,0,0,0,2577,0,67,67,67,0,0,0,0,0,0,0,0,0,0,0,0,0,0,0,0,69,
65,0,0,10339,10340,10340,10340,10340,10340,10340,10340,10340,10340,10340,9061,0,2577,0,0,0,0,0,0,0,0,0,0,0,0,0,99,99,99,0,0,0,0,0,0,0,0,0,0,0,0,0,0,1324,1325,69,
65,0,0,0,0,0,0,0,10276,0,10276,0,0,0,10276,0,0,0,0,0,0,0,0,0,0,0,0,0,0,0,0,0,0,0,0,0,0,0,0,0,0,0,0,0,0,0,0,1356,1357,69,
65,887,854,857,0,0,0,0,0,0,0,0,0,164,166,163,0,0,0,0,0,0,0,0,0,0,0,0,0,0,164,166,166,166,166,166,166,166,166,166,166,166,166,166,166,166,166,166,167,168,
65,0,888,889,887,0,854,857,0,0,0,0,0,69,1,65,0,0,0,0,0,0,0,0,0,0,0,0,0,0,69,0,0,0,0,0,0,0,0,0,0,0,0,0,0,0,0,0,0,0,
65,887,0,0,0,0,888,889,0,0,0,0,0,69,0,65,2765,0,0,0,0,0,0,0,0,0,0,0,0,0,69,0,0,0,0,0,0,0,0,0,0,0,0,0,0,0,0,0,0,0,
65,0,0,0,0,0,0,0,0,0,0,0,0,69,0,161,162,166,166,166,163,0,0,0,0,0,164,166,166,167,168,0,0,0,0,0,0,0,0,0,0,0,0,0,0,0,0,0,0,0,
65,0,0,0,0,0,0,0,0,0,0,0,0,69,0,1,1,1,1,1,65,0,0,0,0,0,69,0,0,0,0,0,0,0,0,0,0,0,0,0,0,0,0,0,0,0,0,0,0,0,
161,162,166,166,166,166,166,166,166,166,166,166,167,168,0,1,1,1,1,1,65,0,0,0,0,0,69,0,0,0,0,0,0,0,0,0,0,0,0,0,0,0,0,0,0,0,0,0,0,0
</data>
 </layer>
 <layer id="13" name="Buildings2" width="50" height="50">
  <data encoding="csv">
0,0,0,0,0,0,0,0,0,0,0,0,0,0,0,0,0,0,0,0,0,0,0,0,0,0,0,0,0,0,0,0,0,0,0,0,0,0,0,0,0,0,0,0,0,0,0,0,0,0,
0,0,0,0,0,0,0,0,0,0,0,0,0,0,0,0,0,0,0,0,0,0,0,0,0,0,0,0,0,0,0,0,0,0,0,0,0,0,0,0,0,0,0,0,0,0,0,0,0,0,
0,0,0,0,0,0,0,0,0,0,0,0,0,0,0,0,0,0,0,0,0,0,0,0,0,0,0,0,0,0,0,0,0,0,0,0,0,0,0,0,0,0,0,0,0,0,0,0,0,0,
1,2,3,3,3,3,3,3,3,3,3,3,3,3,3,3,3,3,3,3,3,3,3,3,3,3,3,3,3,4,0,0,0,0,0,0,0,0,0,0,0,0,0,0,0,0,0,0,0,0,
33,34,35,35,35,35,35,35,35,35,35,35,35,35,35,35,35,35,35,35,35,35,35,35,35,35,35,1584,1585,36,37,0,0,0,0,0,0,0,0,0,0,0,0,0,0,0,0,0,0,0,
65,66,67,67,67,67,67,67,67,67,67,67,67,67,67,67,67,67,67,67,67,67,67,67,67,67,67,1616,1617,68,69,0,0,0,0,0,0,0,0,0,0,0,0,0,0,0,0,0,0,0,
65,98,99,99,99,99,99,99,99,99,99,99,99,99,99,99,99,99,99,99,99,99,99,99,99,99,99,1648,1649,100,69,0,1,2,3,3,3,3,3,3,3,3,3,3,3,3,3,3,4,0,
65,130,0,0,0,0,402,0,155,0,0,0,0,0,0,0,0,0,0,0,0,0,0,156,0,402,0,1680,1681,132,69,0,33,34,0,0,0,0,0,0,0,35,35,35,35,35,35,35,36,37,
65,0,0,0,0,0,0,0,155,0,0,0,0,0,0,0,0,0,0,0,0,0,0,156,0,0,0,0,0,0,69,0,65,66,403,403,403,340,340,340,307,307,307,375,375,375,67,67,68,69,
65,0,0,0,0,0,0,0,155,0,0,0,155,0,1547,1548,1549,1550,0,156,0,0,0,156,0,0,0,0,0,0,69,0,65,98,99,99,99,99,0,0,0,99,99,99,99,99,99,99,100,69,
65,0,0,0,0,0,0,0,155,0,0,0,155,0,1579,1580,1581,1582,0,156,0,0,0,156,0,0,0,0,0,0,69,0,65,130,0,0,0,0,0,0,0,0,0,0,0,0,0,0,132,69,
65,0,0,0,0,0,0,0,155,401,0,0,155,0,1611,1612,1613,1614,0,156,0,0,401,156,0,0,0,0,0,0,194,3,195,0,0,0,0,0,0,0,0,0,0,0,0,0,0,0,0,69,
65,0,0,0,0,0,0,0,0,0,0,0,187,3521,3521,3521,3521,3521,3521,188,0,0,0,0,0,0,0,0,0,0,6159,6160,35,0,0,0,0,0,0,0,0,5983,0,0,0,0,0,0,0,69,
65,0,0,0,887,854,857,0,0,0,0,0,0,0,0,0,0,0,0,0,0,0,0,0,0,0,0,0,0,0,6184,6185,67,0,0,4788,4789,4790,4791,4788,4789,4790,4791,4788,4789,4790,4791,0,0,69,
65,0,0,0,0,888,889,887,0,0,0,0,0,0,0,0,0,0,0,0,0,0,0,854,857,0,0,0,0,0,6209,6210,99,0,0,4820,4821,4822,4823,4820,4821,4822,4823,4820,4821,4822,4823,0,0,69,
65,0,0,0,887,0,0,0,0,0,0,0,0,0,0,0,0,854,857,887,0,0,0,888,889,887,0,0,0,0,0,0,0,0,0,0,0,0,0,0,0,0,0,0,0,0,0,0,0,69,
65,0,0,0,0,0,0,0,0,0,0,854,857,887,0,0,887,888,889,0,0,0,0,0,0,0,0,0,0,0,0,0,0,0,0,0,0,0,0,0,0,0,0,0,0,0,0,0,0,69,
65,0,0,0,0,0,0,0,0,0,0,888,889,0,0,0,0,0,0,0,0,0,0,0,0,0,0,0,0,0,0,0,0,0,0,0,0,0,0,0,0,0,0,0,0,0,0,0,0,69,
65,0,0,0,0,0,0,854,857,0,887,0,0,0,854,857,0,0,0,0,854,857,0,0,0,0,0,0,0,0,164,166,166,166,166,166,166,166,166,166,166,166,166,166,166,166,166,166,167,168,
65,0,0,0,0,0,887,888,889,887,0,0,0,887,888,889,0,0,0,887,888,889,887,0,0,0,0,0,0,0,69,0,1,2,3,3,3,3,3,3,3,3,3,3,3,3,3,3,4,0,
65,0,0,0,0,0,0,0,0,0,0,0,0,0,0,0,0,0,0,0,0,0,0,0,0,0,0,0,0,0,69,0,33,34,35,35,35,35,35,35,35,35,35,35,35,35,35,35,36,37,
161,162,166,197,197,197,197,197,197,197,197,197,197,197,197,197,197,197,197,197,197,197,197,197,197,163,0,0,0,0,69,0,65,66,67,67,67,67,67,67,67,67,67,67,67,67,67,67,68,69,
0,0,0,0,0,0,0,0,0,0,0,0,0,0,0,0,0,0,0,0,0,0,0,0,0,65,0,0,0,0,69,0,65,98,99,99,99,99,99,99,99,99,99,99,99,99,99,99,100,69,
0,0,0,0,0,0,0,0,0,0,0,0,0,0,0,0,0,0,0,0,0,0,0,0,0,65,0,0,0,0,69,0,65,130,0,0,0,0,0,0,0,0,0,0,0,0,0,0,132,69,
0,2,3,3,3,3,3,3,3,3,3,3,3,3,3,3,3,3,3,3,3,3,3,3,3,195,0,0,0,0,194,3,195,2522,0,0,0,0,0,0,830,0,0,0,0,0,2639,2640,2772,69,
33,34,35,35,35,35,35,35,35,35,35,35,35,35,35,35,35,35,35,35,35,35,35,0,0,35,0,0,0,0,35,35,35,886,0,2040,0,0,0,0,862,0,0,0,0,0,0,0,2804,69,
65,66,0,0,0,580,581,580,581,67,0,0,0,0,67,67,67,67,67,67,0,67,67,0,0,67,0,0,0,0,67,67,67,1834,919,2072,919,919,1192,919,1046,0,0,0,0,0,0,0,2836,69,
65,98,0,0,0,612,613,612,613,0,0,0,0,0,0,99,0,0,0,0,0,0,99,99,99,99,0,0,0,0,99,99,99,950,951,952,951,951,951,951,926,0,0,0,0,0,0,0,2867,69,
65,130,0,0,0,644,645,644,645,0,0,0,0,0,0,0,0,0,0,0,0,0,0,0,0,0,0,0,0,0,0,0,0,0,0,0,0,0,0,0,0,0,0,0,0,0,0,0,2899,69,
65,0,0,0,0,0,0,0,0,0,0,0,0,0,0,0,0,0,0,0,0,0,0,0,0,0,0,0,0,0,0,0,0,0,0,0,0,0,0,0,0,0,0,0,0,0,0,0,2931,69,
65,0,0,1416,1417,1418,1419,1420,0,0,0,0,0,0,0,0,0,0,0,0,0,0,0,0,0,0,0,0,0,0,0,0,0,0,0,0,0,0,0,0,0,0,0,0,0,0,0,2639,2640,69,
65,0,0,1448,1449,1450,1451,1452,0,0,0,0,0,0,0,0,0,0,0,0,0,0,0,0,0,0,0,0,0,0,164,166,166,166,166,166,166,166,166,166,166,166,166,166,166,166,166,166,167,168,
65,0,0,1480,1481,1482,1483,1484,0,0,0,0,0,0,0,0,0,0,0,0,0,0,0,0,0,0,0,0,0,0,69,0,1,2,3,3,3,3,3,3,3,3,3,3,3,3,3,3,4,0,
65,0,0,0,0,0,0,0,0,0,0,0,0,0,0,0,0,0,0,0,0,0,0,0,0,0,0,0,0,0,69,0,33,34,35,35,35,35,35,35,35,35,35,35,35,35,35,35,36,37,
0,0,0,0,0,0,0,0,0,0,0,0,0,0,0,0,0,0,0,0,197,163,0,0,0,0,0,0,0,0,69,0,65,66,67,67,67,67,67,67,67,1230,1231,1232,1230,1231,1232,67,68,69,
0,0,0,0,0,0,580,581,0,0,0,0,0,0,0,0,0,0,0,0,0,65,0,0,0,0,0,0,0,0,69,0,65,98,99,99,99,99,99,99,99,1262,1263,1264,1262,1263,1264,99,100,69,
0,0,0,0,0,0,612,613,0,0,0,0,0,0,0,0,0,0,0,0,3,195,0,0,0,0,0,0,0,0,69,0,65,130,0,189,190,0,1284,1285,0,1294,1295,1296,1294,1295,1296,2256,3427,69,
65,0,0,0,0,0,644,645,0,0,0,0,0,0,0,0,0,0,0,0,0,0,0,0,0,0,0,0,0,0,69,0,65,0,0,221,222,0,1316,1317,0,0,0,2663,2664,2665,2698,2288,3459,69,
65,0,0,0,0,0,0,0,0,0,0,0,0,0,0,0,0,0,0,0,0,0,0,0,0,0,0,0,0,0,69,0,65,0,1217,0,0,0,0,1911,0,0,2634,2695,2696,2697,2730,0,0,69,
65,0,0,0,0,0,0,0,0,0,0,0,0,0,0,0,0,0,0,0,0,0,0,0,0,0,0,0,0,0,194,3,195,0,1249,0,0,0,0,1943,0,0,2666,2727,2728,2729,2730,0,0,69,
65,2579,0,0,0,0,0,0,0,0,0,0,0,0,0,0,0,0,0,0,0,0,0,0,0,0,0,0,0,0,35,35,35,0,0,0,0,0,0,0,0,0,0,0,0,0,0,0,0,69,
65,0,0,0,0,0,0,0,0,0,0,0,0,0,0,0,0,0,0,0,0,0,0,0,0,0,0,0,2577,0,67,67,67,0,0,0,0,0,0,0,0,0,0,0,0,0,0,0,0,69,
65,0,0,0,0,0,0,0,0,0,0,0,0,0,0,0,2577,0,0,0,0,0,0,0,0,0,0,0,0,0,99,99,99,0,0,0,0,0,0,0,0,0,0,0,0,0,0,1324,1325,69,
65,0,0,0,0,0,0,0,0,0,0,0,0,0,0,0,0,0,0,0,0,0,0,0,0,0,0,0,0,0,0,0,0,0,0,0,0,0,0,0,0,0,0,0,0,0,0,1356,1357,69,
65,887,854,857,0,0,0,0,0,0,0,0,0,164,166,163,0,0,0,0,0,0,0,0,0,0,0,0,0,0,164,166,166,166,166,166,166,166,166,166,166,166,166,166,166,166,166,166,167,168,
65,0,888,889,887,0,854,857,0,0,0,0,0,69,1,65,0,0,0,0,0,0,0,0,0,0,0,0,0,0,69,0,0,0,0,0,0,0,0,0,0,0,0,0,0,0,0,0,0,0,
65,887,0,0,0,0,888,889,887,0,0,0,0,69,0,65,2765,0,0,0,0,0,0,0,0,0,0,0,0,0,69,0,0,0,0,0,0,0,0,0,0,0,0,0,0,0,0,0,0,0,
65,0,0,0,0,0,0,0,0,0,0,0,0,69,0,161,162,166,166,166,163,0,0,0,0,0,164,166,166,167,168,0,0,0,0,0,0,0,0,0,0,0,0,0,0,0,0,0,0,0,
65,0,0,0,0,0,0,0,0,0,0,0,0,69,0,1,1,1,1,1,65,0,0,0,0,0,69,0,0,0,0,0,0,0,0,0,0,0,0,0,0,0,0,0,0,0,0,0,0,0,
161,162,166,166,166,166,166,166,166,166,166,166,167,168,0,1,1,1,1,1,65,0,0,0,0,0,69,0,0,0,0,0,0,0,0,0,0,0,0,0,0,0,0,0,0,0,0,0,0,0
</data>
 </layer>
 <layer id="3" name="Paths" width="50" height="50">
  <data encoding="csv">
0,0,0,0,0,0,0,0,0,0,0,0,0,0,0,0,0,0,0,0,0,0,0,0,0,0,0,0,0,0,0,0,0,0,0,0,0,0,0,0,0,0,0,0,0,0,0,0,0,0,
0,0,0,0,0,0,0,0,0,0,0,0,0,0,0,0,0,0,0,0,0,0,0,0,0,0,0,0,0,0,0,0,0,0,0,0,0,0,0,0,0,0,0,0,0,0,0,0,0,0,
0,0,0,0,0,0,0,0,0,0,0,0,0,0,0,0,0,0,0,0,0,0,0,0,0,0,0,0,0,0,0,0,0,0,0,0,0,0,0,0,0,0,0,0,0,0,0,0,0,0,
0,0,0,0,0,0,0,0,0,0,0,0,0,0,0,0,0,0,0,0,0,0,0,0,0,0,0,0,0,0,0,0,0,0,0,0,0,0,0,0,0,0,0,0,0,0,0,0,0,0,
0,0,0,0,0,0,0,0,0,0,0,0,0,0,0,0,0,0,0,0,0,0,0,0,0,0,0,0,0,0,0,0,0,0,0,0,0,0,0,0,0,0,0,0,0,0,0,0,0,0,
0,0,0,0,0,0,0,0,0,0,0,0,0,0,0,0,0,0,0,0,0,0,0,0,0,0,0,0,0,0,0,0,0,0,0,0,0,0,0,0,0,0,0,0,0,0,0,0,0,0,
0,0,0,0,0,0,0,0,0,0,0,0,0,0,0,0,0,0,0,0,0,0,0,0,0,0,0,0,0,0,0,0,0,0,0,0,0,0,0,0,0,0,0,0,0,0,0,0,0,0,
0,0,0,0,0,0,0,0,0,0,0,0,0,0,0,0,0,0,0,0,0,0,0,0,0,0,0,0,0,0,0,0,0,0,0,0,0,0,0,0,0,0,0,0,0,0,0,0,0,0,
0,0,0,0,0,0,0,0,0,0,0,0,0,0,0,0,0,0,0,0,0,0,0,0,0,0,0,0,0,0,0,0,0,0,0,0,0,0,0,0,0,0,0,0,0,0,0,0,0,0,
0,0,0,0,0,0,0,0,0,0,0,0,0,0,0,0,0,0,0,0,0,0,0,0,0,0,0,0,0,0,0,0,0,0,0,0,0,0,0,0,0,0,0,0,0,0,0,0,0,0,
0,0,0,0,0,0,0,0,0,0,0,0,0,0,0,0,0,0,0,0,0,0,0,0,0,0,0,0,0,0,0,0,0,0,0,0,0,0,0,0,0,0,0,0,0,0,0,0,0,0,
0,0,0,0,0,0,0,0,0,0,0,0,0,0,0,0,0,0,0,0,0,0,0,0,0,0,0,0,0,0,0,0,0,0,0,0,0,0,0,0,0,0,0,0,0,0,0,0,0,0,
0,0,0,0,0,0,0,0,0,0,0,0,0,0,0,0,0,0,0,0,0,0,0,0,0,0,0,0,0,0,0,0,0,0,0,0,0,0,0,0,0,0,0,0,0,0,0,0,0,0,
0,0,0,0,0,0,0,0,0,0,0,0,0,0,0,0,0,0,0,0,0,0,0,0,0,0,0,0,0,0,0,0,0,0,0,0,0,0,0,0,0,0,0,0,0,0,0,0,0,0,
0,0,0,0,0,0,0,0,0,0,0,0,0,0,0,0,0,0,0,0,0,0,0,0,0,0,0,0,0,0,0,0,0,0,0,0,0,0,0,0,0,0,0,0,0,0,0,0,0,0,
0,0,0,0,0,0,0,0,0,0,0,0,0,0,0,0,0,0,0,0,0,0,0,0,0,0,0,0,0,0,0,0,0,0,0,0,0,0,0,0,0,0,0,0,0,0,0,0,0,0,
0,0,0,0,0,0,0,0,0,0,0,0,0,0,0,0,0,0,0,0,0,0,0,0,0,0,0,0,0,0,0,0,0,0,0,0,0,0,0,0,0,0,0,0,0,0,0,0,0,0,
0,0,0,0,0,0,0,0,0,0,0,0,0,0,0,0,0,0,0,0,0,0,0,0,0,0,0,0,0,0,0,0,0,0,0,0,0,0,0,0,0,0,0,0,0,0,0,0,0,0,
0,0,0,0,0,0,0,0,0,0,0,0,0,0,0,0,0,0,0,0,0,0,0,0,0,0,0,0,0,0,0,0,0,0,0,0,0,0,0,0,0,0,0,0,0,0,0,0,0,0,
0,0,0,0,0,0,0,0,0,0,0,0,0,0,0,0,0,0,0,0,0,0,0,0,0,0,0,0,0,0,0,0,0,0,0,0,0,0,0,0,0,0,0,0,0,0,0,0,0,0,
0,0,0,0,0,0,0,0,0,0,0,0,0,0,0,0,0,0,0,0,0,0,0,0,0,0,0,0,0,0,0,0,0,0,0,0,0,0,0,0,0,0,0,0,0,0,0,0,0,0,
0,0,0,0,0,0,0,0,0,0,0,0,0,0,0,0,0,0,0,0,0,0,0,0,0,0,0,0,0,0,0,0,0,0,0,0,0,0,0,0,0,0,0,0,0,0,0,0,0,0,
0,0,0,0,0,0,0,0,0,0,0,0,0,0,0,0,0,0,0,0,0,0,0,0,0,0,0,0,0,0,0,0,0,0,0,0,0,0,0,0,0,0,0,0,0,0,0,0,0,0,
0,0,0,0,0,0,0,0,0,0,0,0,0,0,0,0,0,0,0,0,0,0,0,0,0,0,0,0,0,0,0,0,0,0,0,0,0,0,0,0,0,0,0,0,0,0,0,0,0,0,
0,0,0,0,0,0,0,0,0,0,0,0,0,0,0,0,0,0,0,0,0,0,0,0,0,0,0,0,0,0,0,0,0,0,0,0,0,0,0,0,0,0,0,0,0,0,0,0,0,0,
0,0,0,0,0,0,0,0,0,0,0,0,0,0,0,0,0,0,0,0,0,0,0,0,0,0,0,0,0,0,0,0,0,0,0,0,0,0,0,0,0,0,0,0,0,0,0,0,0,0,
0,0,0,0,0,0,0,0,0,0,0,0,0,0,0,0,0,0,0,0,0,0,0,0,0,0,0,0,0,0,0,0,0,0,0,0,0,0,0,0,0,0,0,0,0,0,0,0,0,0,
0,0,0,0,0,0,0,0,0,0,0,0,0,0,0,0,0,0,0,0,0,0,0,0,0,0,0,0,0,0,0,0,0,0,0,0,0,0,0,0,0,0,0,0,0,0,0,0,0,0,
0,0,0,0,0,0,0,0,0,0,0,0,0,0,0,0,0,0,0,0,0,0,0,0,0,0,0,0,0,0,0,0,0,0,0,0,0,0,0,0,0,0,0,0,0,0,0,0,0,0,
0,0,0,0,0,0,0,0,0,0,0,0,0,0,0,0,0,0,0,0,0,0,0,0,0,0,0,0,0,0,0,0,0,0,0,0,0,0,0,0,0,0,0,0,0,0,0,0,0,0,
0,0,0,0,0,0,0,0,0,0,0,0,0,0,0,0,0,0,0,0,0,0,0,0,0,0,0,0,0,0,0,0,0,0,0,0,0,0,0,0,0,0,0,0,0,0,0,0,0,0,
0,0,0,0,0,0,0,0,0,0,0,0,0,0,0,0,0,0,0,0,0,0,0,0,0,0,0,0,0,0,0,0,0,0,0,0,0,0,0,0,0,0,0,0,0,0,0,0,0,0,
0,0,0,0,0,0,0,0,0,0,0,0,0,0,0,0,0,0,0,0,0,0,0,0,0,0,0,0,0,0,0,0,0,0,0,0,0,0,0,0,0,0,0,0,0,0,0,0,0,0,
0,0,0,0,0,0,0,0,0,0,0,0,0,0,0,0,0,0,0,0,0,0,0,0,0,0,0,0,0,0,0,0,0,0,0,0,0,0,0,0,0,0,0,0,0,0,0,0,0,0,
0,0,0,0,0,0,0,0,0,0,0,0,0,0,0,0,0,0,0,0,0,0,0,0,0,0,0,0,0,0,0,0,0,0,0,0,0,0,0,0,0,0,0,0,0,0,0,0,0,0,
0,0,0,0,0,0,0,0,0,0,0,0,0,0,0,0,0,0,0,0,0,0,0,0,0,0,0,0,0,0,0,0,0,0,0,0,0,0,0,0,0,0,0,0,0,0,0,0,0,0,
0,0,0,0,0,0,0,0,0,0,0,0,0,0,0,0,0,0,0,0,0,0,0,0,0,0,0,0,0,0,0,0,0,0,0,0,0,0,0,0,0,0,0,0,0,0,0,0,0,0,
0,9334,0,0,0,0,0,0,0,0,0,0,0,0,0,0,0,0,0,0,0,0,0,0,0,0,0,0,0,0,0,0,0,0,0,0,0,0,0,0,0,0,0,0,0,0,0,0,0,0,
0,0,0,0,0,0,0,0,0,0,0,0,0,0,0,0,9334,0,0,0,0,0,0,0,0,0,0,0,0,0,0,0,0,0,0,0,0,0,0,0,0,0,0,0,0,0,0,0,0,0,
0,0,0,0,9334,0,0,9334,0,0,9334,0,0,9334,0,0,0,0,0,0,9334,9334,0,0,0,0,0,0,0,0,0,0,0,0,0,0,0,0,0,0,0,0,0,0,0,0,0,0,0,0,
0,0,0,0,0,0,0,0,0,0,0,0,0,0,0,0,0,0,0,0,0,0,0,0,0,0,0,0,0,0,0,0,0,0,0,0,0,0,0,0,0,0,0,0,0,0,0,0,0,0,
0,0,0,0,0,0,0,0,0,0,0,0,0,0,0,0,0,0,0,0,9334,0,0,0,0,0,0,0,0,0,0,0,0,0,0,0,0,0,0,0,0,0,0,0,0,0,0,0,0,0,
0,0,0,0,0,9334,0,9334,0,9334,0,9334,0,9334,0,0,0,0,9334,0,0,0,0,0,0,0,0,0,0,0,0,0,0,0,0,0,0,0,0,0,0,0,0,0,0,0,0,0,0,0,
0,0,0,0,0,0,0,0,0,0,0,0,0,0,0,0,0,0,0,0,9334,0,0,0,0,0,0,0,0,0,0,0,0,0,0,0,0,0,0,0,0,0,0,0,0,0,0,0,0,0,
0,0,0,0,0,0,0,0,0,0,0,0,0,0,0,0,0,0,0,0,0,0,0,0,0,0,0,0,0,0,0,0,0,0,0,0,0,0,0,0,0,0,0,0,0,0,0,0,0,0,
0,0,0,0,0,0,0,0,0,0,0,0,0,0,0,0,0,0,0,0,0,0,0,0,0,0,0,0,0,0,0,0,0,0,0,0,0,0,0,0,0,0,0,0,0,0,0,0,0,0,
0,0,0,0,0,0,0,0,0,0,0,0,0,0,0,0,0,0,0,0,0,0,0,0,0,0,0,0,0,0,0,0,0,0,0,0,0,0,0,0,0,0,0,0,0,0,0,0,0,0,
0,0,0,0,0,0,0,0,0,0,0,0,0,0,0,0,0,0,0,0,0,0,0,0,0,0,0,0,0,0,0,0,0,0,0,0,0,0,0,0,0,0,0,0,0,0,0,0,0,0,
0,0,0,0,0,0,0,0,0,0,0,0,0,0,0,0,0,0,0,0,0,0,0,0,0,0,0,0,0,0,0,0,0,0,0,0,0,0,0,0,0,0,0,0,0,0,0,0,0,0,
0,0,0,0,0,0,0,0,0,0,0,0,0,0,0,0,0,0,0,0,0,0,0,0,0,0,0,0,0,0,0,0,0,0,0,0,0,0,0,0,0,0,0,0,0,0,0,0,0,0
</data>
 </layer>
 <layer id="4" name="Front" width="50" height="50">
  <data encoding="csv">
0,0,0,0,0,0,0,0,0,0,0,0,0,0,0,0,0,0,0,0,0,0,0,0,0,0,0,0,0,0,0,0,0,0,0,0,0,0,0,0,0,0,0,0,0,0,0,0,0,0,
0,0,0,0,0,0,0,0,0,0,0,0,0,0,0,0,0,0,0,0,0,0,0,0,0,0,0,0,0,0,0,0,0,0,0,0,0,0,0,0,0,0,0,0,0,0,0,0,0,0,
0,0,0,0,0,0,0,0,0,0,0,0,0,0,0,0,0,0,0,0,0,0,0,0,0,0,0,0,0,0,0,0,0,0,0,0,0,0,0,0,0,0,0,0,0,0,0,0,0,0,
0,0,0,0,0,0,0,0,0,0,0,0,0,0,0,0,0,0,0,0,0,0,0,0,0,0,0,0,0,0,0,0,0,0,0,0,0,0,0,0,0,0,0,0,0,0,0,0,0,0,
0,0,0,0,0,3519,0,179,180,0,3519,721,722,0,244,245,244,245,0,209,0,3519,0,179,180,1258,3519,0,0,0,0,0,0,0,0,0,0,0,0,0,0,0,0,0,0,0,0,0,0,0,
0,0,0,0,0,3523,0,211,212,1346,3523,1346,0,0,276,277,276,277,0,0,1346,3523,1346,211,212,0,3523,0,0,0,0,0,0,0,0,0,0,0,0,0,0,0,0,0,0,0,0,0,0,0,
0,0,0,0,0,0,0,0,0,0,0,0,0,0,0,0,0,0,0,0,0,0,0,0,0,0,0,0,0,0,0,0,0,0,0,0,0,0,0,0,0,0,0,0,0,0,0,0,0,0,
0,0,0,0,0,0,0,0,0,0,0,0,0,0,0,0,0,0,0,0,0,0,0,0,0,0,0,0,0,0,0,0,0,0,0,0,0,0,0,0,0,0,0,0,0,0,0,0,0,0,
0,0,0,0,0,0,0,0,0,0,0,0,0,0,0,0,0,0,0,0,0,0,0,0,0,0,0,0,0,0,0,0,0,0,0,0,0,0,0,0,0,0,0,0,0,0,0,0,0,0,
0,0,0,0,0,0,0,0,0,0,0,0,0,0,0,0,0,0,0,0,0,0,0,0,0,0,0,0,0,0,0,0,0,0,0,0,0,0,0,0,0,0,0,0,0,0,0,0,0,0,
0,0,0,0,0,0,0,0,0,0,0,0,0,0,0,0,0,0,0,0,0,0,0,0,0,0,0,0,0,0,0,0,0,0,0,0,0,0,0,0,0,0,0,0,0,0,0,0,0,0,
0,0,0,0,0,0,0,0,0,0,0,0,0,0,0,0,0,0,0,0,0,0,0,0,0,0,0,0,0,0,0,0,0,0,0,0,0,0,0,0,0,0,0,0,0,0,0,0,0,0,
0,0,0,0,0,0,0,0,0,0,0,0,0,0,0,0,0,0,0,0,0,0,0,0,0,0,0,0,0,0,0,0,0,0,0,0,0,0,0,0,0,0,0,0,0,0,0,0,0,0,
0,0,0,0,0,0,0,0,0,0,0,0,0,0,0,0,0,0,0,0,0,0,0,0,0,0,0,0,0,0,0,0,0,0,0,0,0,0,0,0,0,0,0,0,0,0,0,0,0,0,
0,0,0,0,0,0,0,0,0,0,0,0,0,0,0,0,0,0,0,0,0,0,0,0,0,0,0,0,0,0,0,0,0,0,0,0,0,0,0,0,0,0,0,0,0,0,0,0,0,0,
0,0,0,0,0,0,0,0,0,0,0,0,0,0,0,0,0,0,0,0,0,0,0,0,0,0,0,0,0,0,0,0,0,0,0,0,0,0,0,0,0,0,0,0,0,0,0,0,0,0,
0,0,0,0,0,0,0,0,0,0,0,0,0,0,0,0,0,0,0,0,0,0,0,0,0,0,0,0,0,0,0,0,0,0,0,0,0,0,0,0,0,0,0,0,0,0,0,0,0,0,
0,0,0,0,0,0,0,0,0,0,0,0,0,0,0,0,0,0,0,0,0,0,0,0,0,0,0,0,0,0,0,0,0,0,0,0,0,0,0,0,0,0,0,0,0,0,0,0,0,0,
0,0,0,0,0,0,0,0,0,0,0,0,0,0,0,0,0,0,0,0,0,0,0,0,0,0,0,0,0,0,0,0,0,0,0,0,0,0,0,0,0,0,0,0,0,0,0,0,0,0,
0,0,0,0,0,0,0,0,0,0,0,0,0,0,0,0,0,0,0,0,0,0,0,0,0,0,0,0,0,0,0,0,0,0,0,0,0,0,0,0,0,0,0,0,0,0,0,0,0,0,
0,0,0,0,0,0,0,0,0,0,0,0,0,0,0,0,0,0,0,0,0,0,0,0,0,0,0,0,0,0,0,0,0,0,2193,2194,721,722,0,0,0,757,758,759,760,0,0,0,0,0,
0,0,0,0,0,0,0,0,0,0,0,0,0,0,0,0,0,0,0,0,0,0,0,0,0,0,0,0,0,0,0,0,0,0,2225,2226,810,0,721,722,810,789,790,791,792,810,0,0,0,0,
0,0,0,0,0,0,0,0,0,0,0,0,0,0,0,0,0,0,0,0,0,0,0,0,0,0,0,0,0,0,0,0,0,0,2257,2258,0,0,0,0,0,821,822,823,824,0,0,0,0,0,
0,0,0,0,0,0,0,0,0,0,0,0,0,0,0,0,0,0,0,0,0,0,0,0,0,0,0,0,0,0,0,0,0,2489,0,0,0,0,0,0,0,0,0,0,0,0,0,0,0,0,
0,0,0,0,0,0,0,0,0,0,0,0,0,0,0,0,0,0,0,0,0,0,0,0,0,0,0,0,0,0,0,0,0,2521,0,0,0,0,0,0,0,0,0,0,0,0,0,0,0,0,
0,0,0,0,0,0,0,0,0,0,0,0,0,0,0,0,0,0,0,0,0,0,0,0,0,0,0,0,0,0,0,810,0,0,0,0,0,0,0,0,0,0,0,0,0,0,0,0,0,0,
0,0,0,0,0,0,0,0,0,0,1346,0,0,1346,0,0,0,0,0,0,0,0,0,0,0,0,0,0,0,0,0,0,0,0,0,920,0,0,0,0,0,0,0,0,0,0,0,0,0,0,
0,0,0,0,0,0,0,0,0,0,0,0,0,0,0,0,0,0,0,0,0,0,0,0,0,0,0,0,0,0,0,0,0,0,0,0,0,0,0,0,0,0,0,0,0,0,0,0,0,0,
0,0,0,0,0,0,0,0,0,0,0,0,0,0,0,0,0,0,0,0,0,0,0,0,0,0,0,0,0,0,0,0,0,0,0,0,0,0,0,0,0,0,0,0,0,0,0,0,0,0,
0,0,0,0,0,0,0,0,0,0,0,0,0,0,0,0,0,0,0,0,0,0,0,0,0,0,0,0,0,0,0,0,0,0,0,0,0,0,0,0,0,0,0,0,0,0,0,0,0,0,
0,0,0,0,0,0,0,0,0,0,0,0,0,0,0,0,0,0,0,0,0,0,0,0,0,0,0,0,0,0,0,0,0,0,0,0,0,0,0,0,0,0,0,0,0,0,0,0,0,0,
0,0,0,0,0,0,0,0,0,0,0,0,0,0,0,0,0,0,0,0,0,0,0,0,0,0,0,0,0,0,0,0,0,0,0,0,0,0,0,0,0,0,0,0,0,0,0,0,0,0,
0,0,0,0,0,0,0,0,0,0,0,0,0,0,0,0,0,0,0,0,0,0,0,0,0,0,0,0,0,0,0,0,0,0,0,0,0,0,0,0,0,0,0,0,0,0,0,0,0,0,
9454,0,0,0,0,0,0,0,0,0,0,0,0,0,0,0,0,0,0,0,0,0,0,0,0,0,0,0,0,0,0,0,0,0,0,0,0,0,0,0,0,0,0,0,0,0,0,0,0,0,
9550,10039,0,0,0,0,0,0,0,0,0,0,0,0,0,0,0,0,0,0,0,0,0,0,0,0,0,0,0,0,0,0,0,0,809,0,841,0,842,0,0,0,0,0,0,0,0,0,0,0,
0,0,0,0,9399,9392,9392,9392,10051,10052,9392,9392,9392,9401,0,0,0,0,0,0,0,0,0,0,0,0,0,0,0,0,0,0,0,0,0,0,0,0,0,0,0,0,0,0,0,0,0,0,0,0,
0,9391,9400,9400,9584,10235,10236,10237,10238,10239,10240,10241,10242,9583,9400,9392,9400,0,0,9400,0,0,0,0,0,0,0,0,0,0,0,0,0,0,0,0,0,0,0,0,0,0,0,0,0,0,0,0,0,0,
9422,9431,10179,10180,10181,0,0,0,0,0,0,0,0,10148,10148,0,10734,0,0,10148,10766,10767,0,0,0,0,0,0,0,0,0,0,0,0,0,0,0,0,0,0,0,0,2634,0,0,0,0,0,0,0,
0,10210,10211,10212,10213,0,0,0,0,0,0,0,0,0,0,10147,0,0,0,0,10798,10799,0,0,0,0,0,0,0,0,0,0,0,0,0,0,0,0,0,0,0,0,2666,0,0,0,2698,0,0,0,
0,0,0,0,0,0,0,0,0,0,0,0,0,0,0,0,0,0,0,0,10830,10831,0,0,0,0,0,0,0,0,0,0,0,0,0,0,0,0,0,0,0,0,0,0,0,0,2730,0,0,0,
0,0,0,10275,0,0,0,0,0,0,0,0,0,0,10275,10244,0,0,0,0,0,0,0,0,0,0,0,0,0,0,0,0,0,0,0,0,0,0,0,0,0,0,0,0,0,0,0,0,0,0,
0,0,10244,10307,10308,10309,10308,10308,10308,10308,10308,10308,10308,10308,10283,0,0,0,0,0,0,0,0,0,0,0,0,0,0,0,0,0,0,0,0,0,0,0,0,0,0,0,0,0,0,0,0,0,0,0,
0,0,0,0,0,0,0,0,10244,0,10244,0,0,0,10244,0,0,0,0,0,0,0,0,0,0,0,0,0,0,0,0,0,0,0,0,0,0,0,0,0,0,0,0,0,0,0,0,0,0,0,
0,0,0,0,10244,0,0,0,0,0,0,0,0,0,0,0,0,0,0,0,0,0,0,0,0,0,0,0,0,0,0,0,0,0,0,0,0,0,0,0,0,0,0,0,0,0,0,0,0,0,
0,0,0,0,0,0,0,0,0,0,0,0,0,0,0,0,0,0,0,0,0,0,0,0,0,0,0,0,0,0,0,0,0,0,0,0,0,0,0,0,0,0,0,0,0,0,0,0,0,0,
0,0,0,0,0,0,0,0,0,0,0,0,0,0,0,0,0,0,0,0,0,0,0,0,0,0,0,0,0,0,0,0,0,0,0,0,0,0,0,0,0,0,0,0,0,0,0,0,0,0,
0,0,0,0,0,0,0,0,0,0,0,0,0,0,0,0,0,0,0,0,0,0,0,0,0,0,0,0,0,0,0,0,0,0,0,0,0,0,0,0,0,0,0,0,0,0,0,0,0,0,
0,0,0,0,0,0,0,0,0,0,0,0,0,0,0,0,0,0,0,0,0,0,0,0,0,0,0,0,0,0,0,0,0,0,0,0,0,0,0,0,0,0,0,0,0,0,0,0,0,0,
0,0,0,0,0,0,0,0,0,0,0,0,0,0,0,0,0,0,0,0,0,0,0,0,0,0,0,0,0,0,0,0,0,0,0,0,0,0,0,0,0,0,0,0,0,0,0,0,0,0,
0,0,0,0,0,0,0,0,0,0,0,0,0,0,0,0,0,0,0,0,0,0,0,0,0,0,0,0,0,0,0,0,0,0,0,0,0,0,0,0,0,0,0,0,0,0,0,0,0,0
</data>
 </layer>
 <layer id="15" name="Front2" width="50" height="50">
  <data encoding="csv">
0,0,0,0,0,0,0,0,0,0,0,0,0,0,0,0,0,0,0,0,0,0,0,0,0,0,0,0,0,0,0,0,0,0,0,0,0,0,0,0,0,0,0,0,0,0,0,0,0,0,
0,0,0,0,0,0,0,0,0,0,0,0,0,0,0,0,0,0,0,0,0,0,0,0,0,0,0,0,0,0,0,0,0,0,0,0,0,0,0,0,0,0,0,0,0,0,0,0,0,0,
0,0,0,0,0,0,0,0,0,0,0,0,0,0,0,0,0,0,0,0,0,0,0,0,0,0,0,0,0,0,0,0,0,0,0,0,0,0,0,0,0,0,0,0,0,0,0,0,0,0,
0,0,0,0,0,0,0,0,0,0,0,0,0,0,0,0,0,0,0,0,0,0,0,0,0,0,0,0,0,0,0,0,0,0,0,0,0,0,0,0,0,0,0,0,0,0,0,0,0,0,
0,0,0,0,0,0,0,0,0,0,0,0,0,0,0,0,0,0,0,0,0,0,0,0,0,0,0,0,0,0,0,0,0,0,0,0,0,0,0,0,0,0,0,0,0,0,0,0,0,0,
0,0,0,0,0,0,0,0,0,0,0,0,0,0,0,0,0,0,0,0,0,0,0,0,0,0,0,0,0,0,0,0,0,0,0,0,0,0,0,0,0,0,0,0,0,0,0,0,0,0,
0,0,0,0,0,0,0,0,0,0,0,0,0,0,0,0,0,0,0,0,0,0,0,0,0,0,0,0,0,0,0,0,0,0,0,0,0,0,0,0,0,0,0,0,0,0,0,0,0,0,
0,0,0,0,0,0,0,0,0,0,0,0,0,0,0,0,0,0,0,0,0,0,0,0,0,0,0,0,0,0,0,0,0,0,0,0,0,0,0,0,0,0,0,0,0,0,0,0,0,0,
0,0,0,0,0,0,0,0,0,0,0,0,0,0,0,0,0,0,0,0,0,0,0,0,0,0,0,0,0,0,0,0,0,0,0,0,0,0,0,0,0,0,0,0,0,0,0,0,0,0,
0,0,0,0,0,0,0,0,0,0,0,0,0,0,0,0,0,0,0,0,0,0,0,0,0,0,0,0,0,0,0,0,0,0,0,0,0,0,0,0,0,0,0,0,0,0,0,0,0,0,
0,0,0,0,0,0,0,0,0,0,0,0,0,0,0,0,0,0,0,0,0,0,0,0,0,0,0,0,0,0,0,0,0,0,0,0,0,0,0,0,0,0,0,0,0,0,0,0,0,0,
0,0,0,0,0,0,0,0,0,0,0,0,0,0,0,0,0,0,0,0,0,0,0,0,0,0,0,0,0,0,0,0,0,0,0,0,0,0,0,0,0,0,0,0,0,0,0,0,0,0,
0,0,0,0,0,0,0,0,0,0,0,0,0,0,0,0,0,0,0,0,0,0,0,0,0,0,0,0,0,0,0,0,0,0,0,0,0,0,0,0,0,0,0,0,0,0,0,0,0,0,
0,0,0,0,0,0,0,0,0,0,0,0,0,0,0,0,0,0,0,0,0,0,0,0,0,0,0,0,0,0,0,0,0,0,0,0,0,0,0,0,0,0,0,0,0,0,0,0,0,0,
0,0,0,0,0,0,0,0,0,0,0,0,0,0,0,0,0,0,0,0,0,0,0,0,0,0,0,0,0,0,0,0,0,0,0,0,0,0,0,0,0,0,0,0,0,0,0,0,0,0,
0,0,0,0,0,0,0,0,0,0,0,0,0,0,0,0,0,0,0,0,0,0,0,0,0,0,0,0,0,0,0,0,0,0,0,0,0,0,0,0,0,0,0,0,0,0,0,0,0,0,
0,0,0,0,0,0,0,0,0,0,0,0,0,0,0,0,0,0,0,0,0,0,0,0,0,0,0,0,0,0,0,0,0,0,0,0,0,0,0,0,0,0,0,0,0,0,0,0,0,0,
0,0,0,0,0,0,0,0,0,0,0,0,0,0,0,0,0,0,0,0,0,0,0,0,0,0,0,0,0,0,0,0,0,0,0,0,0,0,0,0,0,0,0,0,0,0,0,0,0,0,
0,0,0,0,0,0,0,0,0,0,0,0,0,0,0,0,0,0,0,0,0,0,0,0,0,0,0,0,0,0,0,0,0,0,0,0,0,0,0,0,0,0,0,0,0,0,0,0,0,0,
0,0,0,0,0,0,0,0,0,0,0,0,0,0,0,0,0,0,0,0,0,0,0,0,0,0,0,0,0,0,0,0,0,0,0,0,0,0,0,0,0,0,0,0,0,0,0,0,0,0,
0,0,0,0,0,0,0,0,0,0,0,0,0,0,0,0,0,0,0,0,0,0,0,0,0,0,0,0,0,0,0,0,0,0,0,0,0,0,0,0,0,0,0,0,0,0,0,0,0,0,
0,0,0,0,0,0,0,0,0,0,0,0,0,0,0,0,0,0,0,0,0,0,0,0,0,0,0,0,0,0,0,0,0,0,0,0,0,0,0,0,0,0,0,0,0,0,0,0,0,0,
0,0,0,0,0,0,0,0,0,0,0,0,0,0,0,0,0,0,0,0,0,0,0,0,0,0,0,0,0,0,0,0,0,0,0,0,0,0,0,0,0,0,0,0,0,0,0,0,0,0,
0,0,0,0,0,0,0,0,0,0,0,0,0,0,0,0,0,0,0,0,0,0,0,0,0,0,0,0,0,0,0,0,0,0,0,0,0,0,0,0,0,0,0,0,0,0,0,0,0,0,
0,0,0,0,0,0,0,0,0,0,0,0,0,0,0,0,0,0,0,0,0,0,0,0,0,0,0,0,0,0,0,0,0,0,0,0,0,0,0,0,0,0,0,0,0,0,0,0,0,0,
0,0,0,0,0,0,0,0,0,0,0,0,0,0,0,0,0,0,0,0,0,0,0,0,0,0,0,0,0,0,0,0,0,0,0,0,0,0,0,0,0,0,0,0,0,0,0,0,0,0,
0,0,0,0,0,0,0,0,0,0,0,0,0,0,0,0,0,0,0,0,0,0,0,0,0,0,0,0,0,0,0,0,0,0,0,0,0,0,0,0,0,0,0,0,0,0,0,0,0,0,
0,0,0,0,0,0,0,0,0,0,0,0,0,0,0,0,0,0,0,0,0,0,0,0,0,0,0,0,0,0,0,0,0,0,0,0,0,0,0,0,0,0,0,0,0,0,0,0,0,0,
0,0,0,0,0,0,0,0,0,0,0,0,0,0,0,0,0,0,0,0,0,0,0,0,0,0,0,0,0,0,0,0,0,0,0,0,0,0,0,0,0,0,0,0,0,0,0,0,0,0,
0,0,0,0,0,0,0,0,0,0,0,0,0,0,0,0,0,0,0,0,0,0,0,0,0,0,0,0,0,0,0,0,0,0,0,0,0,0,0,0,0,0,0,0,0,0,0,0,0,0,
0,0,0,0,0,0,0,0,0,0,0,0,0,0,0,0,0,0,0,0,0,0,0,0,0,0,0,0,0,0,0,0,0,0,0,0,0,0,0,0,0,0,0,0,0,0,0,0,0,0,
0,0,0,0,0,0,0,0,0,0,0,0,0,0,0,0,0,0,0,0,0,0,0,0,0,0,0,0,0,0,0,0,0,0,0,0,0,0,0,0,0,0,0,0,0,0,0,0,0,0,
0,0,0,0,0,0,0,0,0,0,0,0,0,0,0,0,0,0,0,0,0,0,0,0,0,0,0,0,0,0,0,0,0,0,0,0,0,0,0,0,0,0,0,0,0,0,0,0,0,0,
0,0,0,0,0,0,0,0,0,0,0,0,0,0,0,0,0,0,0,0,0,0,0,0,0,0,0,0,0,0,0,0,0,0,0,0,0,0,0,0,0,0,0,0,0,0,0,0,0,0,
0,9551,0,0,0,0,0,0,0,0,0,0,0,0,0,0,0,0,0,0,0,0,0,0,0,0,0,0,0,0,0,0,0,0,0,0,0,0,0,0,0,0,0,0,0,0,0,0,0,0,
0,0,0,0,0,0,0,0,0,0,0,0,0,0,0,0,0,0,0,0,0,0,0,0,0,0,0,0,0,0,0,0,0,0,0,0,0,0,0,0,0,0,0,0,0,0,0,0,0,0,
0,0,0,0,0,0,0,0,0,0,0,0,0,0,0,0,0,0,0,0,0,0,0,0,0,0,0,0,0,0,0,0,0,0,0,0,0,0,0,0,0,0,0,0,0,0,0,0,0,0,
0,0,0,0,0,0,0,0,0,0,0,0,0,0,0,0,0,0,0,0,0,0,0,0,0,0,0,0,0,0,0,0,0,0,0,0,0,0,0,0,0,0,0,0,0,0,0,0,0,0,
0,0,0,0,0,0,0,0,0,0,0,0,0,0,0,0,0,0,0,0,0,0,0,0,0,0,0,0,0,0,0,0,0,0,0,0,0,0,0,0,0,0,0,0,0,0,0,0,0,0,
0,0,0,0,0,0,0,0,0,0,0,0,0,0,0,0,0,0,0,0,0,0,0,0,0,0,0,0,0,0,0,0,0,0,0,0,0,0,0,0,0,0,0,0,0,0,0,0,0,0,
0,0,0,0,0,0,0,0,0,0,0,0,0,0,0,0,0,0,0,0,0,0,0,0,0,0,0,0,0,0,0,0,0,0,0,0,0,0,0,0,0,0,0,0,0,0,0,0,0,0,
0,0,0,0,0,0,0,0,0,0,0,0,0,0,0,0,0,0,0,0,0,0,0,0,0,0,0,0,0,0,0,0,0,0,0,0,0,0,0,0,0,0,0,0,0,0,0,0,0,0,
0,0,0,0,0,0,0,0,0,0,0,0,0,0,0,0,0,0,0,0,0,0,0,0,0,0,0,0,0,0,0,0,0,0,0,0,0,0,0,0,0,0,0,0,0,0,0,0,0,0,
0,0,0,0,0,0,0,0,0,0,0,0,0,0,0,0,0,0,0,0,0,0,0,0,0,0,0,0,0,0,0,0,0,0,0,0,0,0,0,0,0,0,0,0,0,0,0,0,0,0,
0,0,0,0,0,0,0,0,0,0,0,0,0,0,0,0,0,0,0,0,0,0,0,0,0,0,0,0,0,0,0,0,0,0,0,0,0,0,0,0,0,0,0,0,0,0,0,0,0,0,
0,0,0,0,0,0,0,0,0,0,0,0,0,0,0,0,0,0,0,0,0,0,0,0,0,0,0,0,0,0,0,0,0,0,0,0,0,0,0,0,0,0,0,0,0,0,0,0,0,0,
0,0,0,0,0,0,0,0,0,0,0,0,0,0,0,0,0,0,0,0,0,0,0,0,0,0,0,0,0,0,0,0,0,0,0,0,0,0,0,0,0,0,0,0,0,0,0,0,0,0,
0,0,0,0,0,0,0,0,0,0,0,0,0,0,0,0,0,0,0,0,0,0,0,0,0,0,0,0,0,0,0,0,0,0,0,0,0,0,0,0,0,0,0,0,0,0,0,0,0,0,
0,0,0,0,0,0,0,0,0,0,0,0,0,0,0,0,0,0,0,0,0,0,0,0,0,0,0,0,0,0,0,0,0,0,0,0,0,0,0,0,0,0,0,0,0,0,0,0,0,0,
0,0,0,0,0,0,0,0,0,0,0,0,0,0,0,0,0,0,0,0,0,0,0,0,0,0,0,0,0,0,0,0,0,0,0,0,0,0,0,0,0,0,0,0,0,0,0,0,0,0
</data>
 </layer>
 <layer id="5" name="AlwaysFront" width="50" height="50">
  <data encoding="csv">
0,0,0,0,0,0,0,0,0,0,0,0,0,0,0,0,0,0,0,0,0,0,0,0,0,0,0,0,0,0,0,0,0,0,0,0,0,0,0,0,0,0,0,0,0,0,0,0,0,0,
0,0,0,0,0,0,0,0,0,0,0,0,0,0,0,0,0,0,0,0,0,0,0,0,0,0,0,0,0,0,0,0,0,0,0,0,0,0,0,0,0,0,0,0,0,0,0,0,0,0,
0,0,0,0,0,0,0,0,0,0,0,0,0,0,0,0,0,0,0,0,0,0,0,0,0,0,0,0,0,0,0,0,0,0,0,0,0,0,0,0,0,0,0,0,0,0,0,0,0,0,
0,0,0,0,0,0,0,0,0,0,0,0,0,0,0,0,0,0,0,0,0,0,0,0,0,0,0,0,0,0,0,0,0,0,0,0,0,0,0,0,0,0,0,0,0,0,0,0,0,0,
0,0,0,0,0,0,0,0,0,0,0,0,0,0,0,0,0,0,0,0,0,0,0,0,0,0,0,0,0,0,0,0,0,0,0,0,0,0,0,0,0,0,0,0,0,0,0,0,0,0,
0,0,0,0,0,0,0,0,0,0,0,0,0,0,0,0,0,0,0,0,0,0,0,0,0,0,0,0,0,0,0,0,0,0,0,0,0,0,0,0,0,0,0,0,0,0,0,0,0,0,
0,0,0,0,0,0,370,0,0,0,0,0,0,0,0,0,0,0,0,0,0,0,0,0,0,370,0,0,0,0,0,0,0,0,0,0,0,0,0,0,0,0,0,0,0,0,0,0,0,0,
0,0,0,0,0,0,0,0,0,0,0,0,0,0,0,0,0,0,0,0,0,0,0,0,0,0,0,0,0,0,0,0,0,0,0,0,0,0,0,0,0,0,0,0,0,0,0,0,0,0,
0,0,0,0,0,0,0,0,0,0,0,0,0,0,0,1516,1517,0,0,0,0,0,0,0,0,0,0,0,0,0,0,0,0,0,0,0,0,0,0,0,0,0,0,0,0,0,0,0,0,0,
0,0,0,0,0,0,0,0,336,337,338,0,0,0,0,0,0,0,0,0,0,336,337,338,0,0,0,0,0,0,0,0,0,0,0,0,0,0,0,0,0,0,0,0,0,0,0,0,0,0,
0,0,0,0,0,0,0,0,0,369,0,0,0,0,0,0,0,0,0,0,0,0,369,0,0,0,0,0,0,0,0,0,0,0,0,4692,4693,4694,4695,4692,4693,4694,4695,4692,4693,4694,4695,0,0,0,
0,0,0,0,0,0,0,0,0,0,0,0,0,0,0,0,0,0,0,0,0,0,0,0,0,0,0,0,0,0,0,0,0,0,0,4724,4725,4726,4727,4724,4725,4726,4727,4724,4725,4726,4727,0,0,0,
0,0,0,0,0,0,0,0,0,0,0,0,0,0,0,0,0,0,0,0,0,0,0,0,0,0,0,0,0,0,0,0,0,0,0,4756,4757,4758,4759,4756,4757,4758,4759,4756,4757,4758,4759,0,0,0,
0,0,0,0,0,0,0,0,0,0,0,0,0,0,0,0,0,0,0,0,0,0,0,0,0,0,0,0,0,0,0,0,0,0,0,0,0,0,0,0,0,0,0,0,0,0,0,0,0,0,
0,0,0,0,0,0,0,0,0,0,0,0,0,0,0,0,0,0,0,0,0,0,0,0,0,0,0,0,0,0,0,0,0,0,0,0,0,0,0,0,0,0,0,0,0,0,0,0,0,0,
0,0,0,0,0,0,0,0,0,0,0,0,0,0,0,0,0,0,0,0,0,0,0,0,0,0,0,0,0,0,0,0,0,0,0,0,0,0,0,0,0,0,0,0,0,0,0,0,0,0,
0,0,0,0,0,0,0,0,0,0,0,0,0,0,0,0,0,0,0,0,0,0,0,0,0,0,0,0,0,0,0,0,0,0,0,0,0,0,0,0,0,0,0,0,0,0,0,0,0,0,
0,0,0,0,0,0,0,0,0,0,0,0,0,0,0,0,0,0,0,0,0,0,0,0,0,0,0,0,0,0,0,0,0,0,0,0,0,0,0,0,0,0,0,0,0,0,0,0,0,0,
0,0,0,0,0,0,0,0,0,0,0,0,0,0,0,0,0,0,0,0,0,0,0,0,0,0,0,0,0,0,0,0,0,0,0,0,0,0,0,0,0,0,0,0,0,0,0,0,0,0,
0,0,0,0,0,0,0,0,0,0,0,0,0,0,0,0,0,0,0,0,0,0,0,0,0,0,0,0,0,0,0,0,0,0,0,0,0,0,0,0,0,0,0,0,0,0,0,0,0,0,
0,0,0,0,0,0,0,0,0,0,0,0,0,0,0,0,0,0,0,0,0,0,0,0,0,0,0,0,0,0,0,0,0,0,0,0,0,0,0,0,0,0,0,0,0,0,0,0,0,0,
0,0,0,0,0,0,0,0,0,0,0,0,0,0,0,0,0,0,0,0,0,0,0,0,0,0,0,0,0,0,0,0,0,0,0,0,0,0,0,0,0,0,0,0,0,0,0,0,0,0,
0,0,0,0,0,0,0,0,0,0,0,0,0,0,0,0,0,0,0,0,0,0,0,0,0,0,0,0,0,0,0,0,0,0,0,0,0,0,0,0,0,0,0,0,0,0,2575,2576,0,0,
0,0,0,0,0,0,0,0,0,6055,6056,6057,6058,6059,6060,0,0,0,0,0,0,0,0,0,0,0,0,0,0,0,0,0,0,0,0,0,0,0,0,0,0,0,0,0,0,0,2607,2608,0,0,
0,0,0,0,0,0,0,0,0,6080,6081,6082,6083,6084,6085,0,0,0,0,0,0,0,0,0,0,0,0,0,0,0,0,0,0,0,0,0,0,0,0,0,0,0,0,0,0,0,0,0,0,0,
0,0,0,0,0,0,0,0,0,6105,6106,6107,6108,6109,6110,0,0,0,0,0,0,0,0,0,0,0,0,0,0,0,0,0,0,0,0,0,0,0,0,0,0,0,0,0,0,0,0,0,0,0,
0,0,0,0,0,0,0,0,0,6130,6131,6132,6133,6134,6135,0,0,0,0,0,0,0,0,0,0,0,0,0,0,0,0,0,0,0,0,0,0,0,0,0,0,0,0,0,0,0,0,0,0,0,
0,0,0,0,0,0,0,0,0,0,0,6157,6158,0,0,0,0,0,0,0,0,0,0,0,0,0,0,0,0,0,503,504,0,0,0,0,0,0,0,0,0,0,0,0,0,0,0,0,0,0,
0,0,0,0,0,0,0,0,0,0,0,0,0,0,0,0,0,0,0,0,0,0,0,0,0,0,0,0,0,0,0,0,0,0,0,0,0,0,0,0,0,0,0,0,0,0,0,2575,2576,0,
0,0,0,0,0,0,0,0,0,0,0,0,0,0,0,0,0,0,0,0,0,0,0,0,0,0,0,0,0,0,0,0,0,0,0,0,0,0,0,0,0,0,0,0,0,0,0,2607,2608,0,
0,0,0,0,0,0,0,0,0,0,0,0,0,0,0,0,0,0,0,0,0,0,0,0,0,0,0,0,0,0,0,0,0,0,0,0,0,0,0,0,0,0,0,0,0,0,0,0,0,0,
0,0,0,0,0,0,0,0,0,0,0,0,0,0,0,0,0,0,0,0,0,0,0,0,0,0,0,0,0,0,0,0,0,0,0,0,0,0,0,0,0,0,0,0,0,0,0,0,0,0,
0,0,0,0,0,0,0,0,0,0,0,0,0,0,0,0,0,0,0,0,0,0,0,0,0,0,0,0,0,0,0,0,0,0,0,0,0,0,0,0,0,0,0,0,0,0,0,0,0,0,
0,0,0,0,0,0,0,0,0,0,0,0,0,0,0,0,0,0,0,0,0,0,0,0,0,0,0,0,0,0,0,0,0,0,0,0,0,0,0,0,1290,0,0,0,0,0,0,0,0,0,
0,0,0,0,0,0,0,0,0,0,0,0,0,0,0,0,0,0,0,0,0,0,0,0,0,0,0,0,0,0,0,0,0,0,0,0,0,0,0,0,1322,0,0,0,0,0,0,0,0,0,
0,0,0,0,0,0,0,0,0,0,0,0,0,0,0,0,0,0,0,0,0,0,0,0,0,0,0,0,0,0,0,0,0,0,0,0,0,0,0,0,1354,0,0,0,0,0,0,0,0,0,
0,0,0,0,0,0,0,0,0,0,0,0,0,0,0,0,0,0,0,0,0,0,0,0,0,0,0,0,0,0,0,0,0,0,0,0,0,0,0,0,0,0,0,0,0,0,0,0,0,0,
0,0,0,0,0,0,0,0,0,0,0,0,0,0,0,0,0,0,0,0,0,0,0,0,0,0,0,0,0,0,0,0,0,0,0,0,0,0,0,0,0,0,0,0,0,0,0,0,0,0,
0,2515,0,0,0,0,0,0,0,0,0,0,0,0,0,0,0,0,0,0,0,0,0,0,0,0,0,0,0,0,0,0,0,0,0,0,0,0,0,0,0,0,0,0,0,0,0,0,0,0,
0,2547,0,0,0,0,0,0,0,0,0,0,0,0,0,0,0,0,0,0,0,0,0,0,0,0,0,0,2513,0,0,0,0,0,0,0,0,0,0,0,0,0,0,0,0,0,0,0,0,0,
0,0,0,0,0,0,0,0,0,0,0,0,0,0,0,0,2513,0,0,0,0,0,0,0,0,0,0,0,2545,0,0,0,0,0,0,0,0,0,0,0,0,0,0,0,0,0,0,0,0,0,
0,0,0,0,0,0,0,0,0,0,0,0,0,0,0,0,2545,0,0,0,0,0,0,0,0,0,0,0,0,0,0,0,0,0,0,0,0,0,0,0,0,0,0,0,0,0,0,0,0,0,
0,0,0,0,0,0,0,0,0,0,0,0,0,0,0,0,0,0,0,0,0,0,0,0,0,0,0,0,0,0,0,0,0,0,0,0,0,0,0,0,0,0,0,0,0,0,0,0,0,0,
0,0,0,0,0,0,0,0,0,0,0,0,0,0,0,0,0,0,0,0,0,0,0,0,0,0,0,0,0,0,0,0,0,0,0,0,0,0,0,0,0,0,0,0,0,0,0,0,0,0,
0,0,0,0,0,0,0,0,0,0,0,0,0,0,0,0,2701,0,0,0,0,0,0,0,0,0,0,0,0,0,0,0,0,0,0,0,0,0,0,0,0,0,0,0,0,0,0,0,0,0,
0,0,0,0,0,0,0,0,0,0,0,0,0,0,0,0,2733,0,0,0,0,0,0,0,0,0,0,0,0,0,0,0,0,0,0,0,0,0,0,0,0,0,0,0,0,0,0,0,0,0,
0,0,0,0,0,0,0,0,0,0,0,0,0,0,0,0,0,0,0,0,0,0,0,0,0,0,0,0,0,0,0,0,0,0,0,0,0,0,0,0,0,0,0,0,0,0,0,0,0,0,
0,0,0,0,0,0,0,0,0,0,0,0,0,0,0,0,0,0,0,0,0,0,0,0,0,0,0,0,0,0,0,0,0,0,0,0,0,0,0,0,0,0,0,0,0,0,0,0,0,0,
0,0,0,0,0,0,0,0,0,0,0,0,0,0,0,0,0,0,0,0,0,0,0,0,0,0,0,0,0,0,0,0,0,0,0,0,0,0,0,0,0,0,0,0,0,0,0,0,0,0,
0,0,0,0,0,0,0,0,0,0,0,0,0,0,0,0,0,0,0,0,0,0,0,0,0,0,0,0,0,0,0,0,0,0,0,0,0,0,0,0,0,0,0,0,0,0,0,0,0,0
</data>
 </layer>
 <objectgroup id="6" name="Back"/>
 <objectgroup id="7" name="Buildings"/>
 <objectgroup id="8" name="Paths"/>
 <objectgroup id="9" name="Front"/>
 <objectgroup id="10" name="AlwaysFront"/>
</map>

