<?xml version="1.0" encoding="UTF-8"?>
<map version="1.10" tiledversion="1.12.1" orientation="orthogonal" renderorder="left-down" width="10" height="10" tilewidth="16" tileheight="16" infinite="0" nextlayerid="11" nextobjectid="1">
 <tileset firstgid="1" name="townInterior" tilewidth="16" tileheight="16" tilecount="2176" columns="32">
  <image source="Tilesheet/townInterior.png" width="512" height="1088"/>
 </tileset>
 <layer id="1" name="Back" width="10" height="10">
  <data encoding="csv">
0,0,0,0,0,0,0,0,0,0,
0,200,201,201,201,201,201,0,0,0,
200,201,201,233,233,233,233,201,201,201,
232,233,233,265,265,265,265,233,233,233,
264,265,265,232,232,264,265,265,265,265,
264,264,264,264,264,264,264,264,264,265,
264,265,265,233,233,233,233,233,233,233,
200,264,265,265,265,265,265,265,265,265,
232,232,232,232,232,232,232,232,264,265,
264,264,264,264,264,264,264,264,264,265
</data>
 </layer>
 <layer id="2" name="Buildings" width="10" height="10">
  <data encoding="csv">
1,2,3,3,3,3,3,3,4,1,
33,34,35,35,35,35,35,35,36,37,
65,66,67,67,67,67,67,67,68,69,
65,98,99,99,99,99,99,99,100,69,
65,130,0,0,0,0,0,0,132,69,
65,0,0,0,0,0,0,0,0,69,
65,0,0,0,0,0,0,0,0,69,
65,0,0,0,0,0,0,0,0,69,
65,0,0,0,0,0,0,0,0,69,
65,0,0,0,0,0,0,0,0,69
</data>
 </layer>
 <layer id="3" name="Paths" width="10" height="10">
  <data encoding="csv">
0,0,0,0,0,0,0,0,0,0,
0,0,0,0,0,0,0,0,0,0,
0,0,0,0,0,0,0,0,0,0,
0,0,0,0,0,0,0,0,0,0,
0,0,0,0,0,0,0,0,0,0,
0,0,0,0,0,0,0,0,0,0,
0,0,0,0,0,0,0,0,0,0,
0,0,0,0,0,0,0,0,0,0,
0,0,0,0,0,0,0,0,0,0,
0,0,0,0,0,0,0,0,0,0
</data>
 </layer>
 <layer id="4" name="Front" width="10" height="10">
  <data encoding="csv">
0,0,0,0,0,0,0,0,0,0,
0,0,0,0,0,0,0,0,0,0,
0,0,0,0,0,0,0,0,0,0,
0,0,0,0,0,0,0,0,0,0,
0,0,0,0,0,0,0,0,0,0,
0,0,0,0,0,0,0,0,0,0,
0,0,0,0,0,0,0,0,0,0,
0,0,0,0,0,0,0,0,0,0,
0,0,0,0,0,0,0,0,0,0,
0,0,0,0,0,0,0,0,0,0
</data>
 </layer>
 <objectgroup id="6" name="Back"/>
 <objectgroup id="7" name="Buildings"/>
 <objectgroup id="8" name="Paths"/>
 <objectgroup id="9" name="Front"/>
 <objectgroup id="10" name="AlwaysFront"/>
 <layer id="5" name="AlwaysFront" width="10" height="10">
  <data encoding="csv">
0,0,0,0,0,0,0,0,0,0,
0,0,0,0,0,0,0,0,0,0,
0,0,0,0,0,0,0,0,0,0,
0,0,0,0,0,0,0,0,0,0,
0,0,0,0,0,0,0,0,0,0,
0,0,0,0,0,0,0,0,0,0,
0,0,0,0,0,0,0,0,0,0,
0,0,0,0,0,0,0,0,0,0,
0,0,0,0,0,0,0,0,0,0,
0,0,0,0,0,0,0,0,0,0
</data>
 </layer>
</map>
