<?xml version="1.0" encoding="UTF-8"?>
<map version="1.10" tiledversion="1.12.1" orientation="orthogonal" renderorder="left-down" width="30" height="40" tilewidth="16" tileheight="16" infinite="0" nextlayerid="13" nextobjectid="5">
 <properties>
  <property name="AmbientLight" value="95 95 95"/>
  <property name="Door" value="25 15 7 120 "/>
  <property name="NPCwarp" value="15 38 Moonvillage 48 37 "/>
 </properties>
 <tileset firstgid="1" name="townInterior" tilewidth="16" tileheight="16" tilecount="2176" columns="32">
  <image source="Tilesheet/townInterior.png" width="512" height="1088"/>
  <tile id="1349">
   <properties>
    <property name="Door" value=""/>
   </properties>
  </tile>
 </tileset>
 <tileset firstgid="2177" name="townInterior_2" tilewidth="16" tileheight="16" tilecount="1312" columns="32">
  <image source="Tilesheet/townInterior_2.png" width="512" height="656"/>
 </tileset>
 <tileset firstgid="3489" name="summer_z_extras" tilewidth="16" tileheight="16" tilecount="6400" columns="25">
  <image source="Tilesheet/summer_z_extras.png" width="400" height="4096"/>
 </tileset>
 <layer id="1" name="Back" width="30" height="40">
  <data encoding="csv">
265,264,233,233,264,264,264,264,264,264,265,232,232,264,265,265,264,264,264,232,232,232,264,264,265,265,232,232,264,265,
265,233,265,265,264,264,264,264,264,264,265,264,265,265,265,265,264,264,264,264,264,264,232,265,265,265,232,232,264,265,
264,265,265,265,265,265,232,232,264,265,265,265,265,265,265,264,264,264,264,264,264,264,264,264,265,265,232,232,264,265,
265,265,264,233,233,264,264,264,264,264,264,265,265,265,264,233,233,264,264,264,264,264,264,265,265,232,232,264,265,265,
265,265,233,265,265,264,264,264,264,264,264,265,265,265,233,265,265,264,264,264,264,264,264,265,265,232,232,264,265,265,
232,264,265,265,265,265,265,232,232,264,265,265,232,264,265,265,265,265,265,232,232,264,265,265,265,232,264,265,265,265,
265,265,265,265,265,265,265,232,232,264,265,265,265,265,265,265,265,265,265,232,232,264,265,265,265,232,264,265,265,265,
265,265,264,264,265,265,232,232,264,265,265,265,265,265,264,264,265,265,232,232,264,265,265,265,264,265,265,265,265,264,
232,232,232,232,232,232,265,265,232,232,264,265,265,265,265,265,265,265,232,232,264,265,265,265,233,265,265,265,264,233,
265,232,232,264,265,265,265,265,232,232,264,265,265,265,264,264,265,265,232,232,264,265,265,265,265,264,264,264,233,265,
265,232,232,264,265,265,265,265,232,232,264,265,265,265,232,265,265,232,232,264,265,265,265,264,265,265,232,232,264,265,
265,232,232,264,265,265,265,265,232,232,264,265,265,265,264,265,265,232,232,264,265,265,265,233,265,265,232,232,264,265,
265,232,232,264,265,265,265,265,232,232,264,265,265,265,265,265,265,232,232,264,265,265,265,265,265,265,232,232,264,265,
232,232,264,265,265,265,265,265,232,232,264,265,265,265,264,265,265,232,232,264,265,265,265,264,265,265,232,232,264,265,
232,232,264,265,265,265,265,232,232,264,265,265,265,264,232,265,265,232,232,264,265,265,265,265,265,232,232,264,265,265,
232,232,264,265,265,265,265,232,232,264,265,265,265,233,265,265,232,232,264,265,265,265,264,265,265,232,232,264,265,265,
232,232,264,265,265,265,265,232,232,264,265,265,265,265,265,265,232,232,264,265,265,265,265,265,265,232,232,264,265,265,
232,232,264,265,265,265,265,232,232,264,265,265,265,264,265,265,232,232,264,265,265,264,265,265,232,232,264,265,265,265,
232,232,264,265,265,265,265,232,232,264,265,265,265,265,265,265,232,232,264,265,265,265,265,265,232,232,264,265,265,265,
232,232,264,265,265,265,265,232,232,264,265,265,265,264,265,265,232,232,264,265,264,264,265,265,232,232,264,265,265,265,
232,232,264,265,265,265,232,232,264,265,265,265,264,265,265,232,232,264,265,264,265,232,265,265,232,232,264,265,265,265,
232,232,264,265,265,265,232,232,264,265,265,265,233,265,265,232,232,264,265,265,264,264,265,265,232,232,264,265,265,265,
232,232,264,265,265,265,232,232,264,265,265,265,265,265,265,232,232,264,264,264,232,265,265,232,265,265,232,232,264,265,
232,232,264,265,265,265,232,232,264,265,265,265,265,265,232,232,264,265,265,232,264,265,265,232,264,264,264,264,264,264,
232,232,264,265,265,265,232,232,264,265,265,265,265,265,232,232,264,264,264,264,264,265,265,232,265,265,233,233,233,233,
232,232,264,265,265,265,232,232,264,265,265,265,265,265,232,232,265,265,232,264,264,265,265,232,264,265,265,265,265,265,
232,232,264,265,265,232,232,264,265,265,265,265,265,232,232,264,264,264,264,264,264,265,265,232,232,232,232,232,232,232,
232,232,264,265,265,232,232,264,265,265,265,265,265,232,232,264,265,232,264,264,265,265,232,232,264,264,264,264,264,264,
232,264,265,265,265,232,232,264,265,265,264,265,265,232,232,265,264,264,264,264,265,265,232,232,264,264,264,264,264,264,
232,264,265,265,265,232,232,264,265,265,265,265,265,232,232,264,232,264,264,264,265,265,232,232,265,264,264,264,264,264,
232,264,265,265,265,232,232,264,265,264,264,265,265,232,232,265,264,264,264,264,265,265,232,232,264,264,264,264,264,264,
232,264,264,265,265,232,232,264,265,265,232,265,265,232,265,264,264,264,264,264,265,265,232,265,22,22,22,22,22,22,
232,265,265,265,265,232,232,264,264,264,264,265,265,232,264,232,264,264,264,264,265,265,232,264,22,22,22,22,22,22,
265,264,264,265,265,232,232,264,265,232,264,265,265,232,265,264,264,264,264,264,265,265,265,265,22,22,22,22,22,22,
264,265,232,264,265,265,232,265,264,264,264,265,265,265,264,264,264,264,264,264,265,265,264,264,22,22,22,22,22,22,
265,264,264,265,265,265,232,264,232,264,264,265,265,264,232,264,264,264,264,264,265,265,265,232,22,22,22,22,22,22,
264,232,264,264,265,265,265,265,264,264,264,264,264,265,264,264,264,264,264,264,265,264,264,264,22,22,22,22,22,22,
232,264,264,232,265,265,264,264,264,264,264,265,265,264,264,264,264,264,264,264,265,265,232,264,22,22,22,22,22,22,
264,264,264,264,264,264,265,232,264,264,264,264,264,232,264,264,264,264,264,264,264,264,264,264,22,22,22,22,22,22,
264,264,264,264,265,265,264,264,264,264,264,232,232,264,264,264,264,264,264,264,265,232,264,264,264,264,264,264,264,264
</data>
 </layer>
 <layer id="12" name="Back2" width="30" height="40">
  <data encoding="csv">
0,0,0,0,0,0,0,0,0,0,0,0,0,0,0,0,0,0,0,0,0,0,0,0,0,0,0,0,0,0,
0,0,0,0,0,0,0,0,0,0,0,0,0,0,0,0,0,0,0,0,0,0,0,0,0,0,0,0,0,0,
0,0,0,0,0,0,0,0,0,0,0,0,0,0,0,0,0,0,0,0,0,0,0,67,67,67,67,67,0,0,
0,0,0,0,0,0,2625,2626,2627,0,0,0,0,0,0,0,0,0,0,0,0,0,0,99,99,99,99,99,0,0,
0,0,0,0,0,0,2657,2658,2659,0,0,0,0,0,0,0,0,0,0,0,0,0,0,0,0,0,0,0,0,0,
0,0,0,446,447,448,2689,2690,2691,0,0,0,0,0,0,0,0,0,0,0,0,0,0,0,0,0,0,0,0,0,
0,0,0,478,479,480,2721,2722,2723,0,0,0,0,0,0,0,0,0,0,0,0,0,0,0,0,0,0,0,0,0,
0,0,0,1531,1532,1533,1534,1535,1534,1535,1534,1535,1534,1535,1534,1535,1534,1535,1534,1535,1534,1534,1535,1534,1534,1535,1536,0,0,0,
0,0,0,1563,1564,1565,1566,1567,1566,1567,1566,1567,1566,1567,1566,1567,1566,1567,1566,1567,1566,1566,1567,1566,1566,1567,1568,0,0,0,
0,0,0,1595,1596,1597,1598,1599,1598,1599,1598,1599,1598,1599,1598,1599,1598,1599,1598,1599,1598,1598,1599,1598,1598,1599,1600,0,0,0,
0,0,0,1627,1628,1629,1630,1631,1630,1631,1630,1631,1630,1631,1630,1631,1630,1631,1630,1631,1630,1630,1631,1630,1630,1631,1632,0,0,0,
0,0,0,0,0,0,0,0,0,0,0,0,0,0,0,0,0,0,0,0,0,0,0,0,0,0,0,0,0,0,
0,0,0,0,0,0,0,0,0,0,0,0,0,0,0,0,0,0,0,0,0,0,0,0,0,0,0,0,0,0,
0,0,0,0,0,0,0,0,0,0,0,0,0,0,0,0,0,0,0,0,0,0,0,0,0,0,0,0,0,0,
0,0,0,0,0,0,0,0,0,0,0,0,0,0,0,0,0,0,0,0,0,0,0,0,0,0,0,0,0,0,
0,0,0,0,0,0,0,0,0,0,0,0,0,0,0,0,0,0,0,0,0,0,0,0,0,0,0,0,0,0,
0,0,0,0,0,0,0,0,0,0,0,0,0,0,0,0,0,0,0,0,0,0,0,0,0,0,0,0,0,0,
0,0,0,0,0,0,0,0,0,0,0,0,0,0,0,0,0,0,0,0,0,0,0,0,0,0,0,0,0,0,
0,0,0,0,0,0,0,0,0,0,0,0,0,0,0,0,0,0,0,0,0,0,0,0,0,0,0,0,0,0,
0,0,0,0,0,0,0,0,0,0,0,0,0,0,0,0,0,0,0,0,0,0,0,0,0,0,0,0,0,0,
0,0,0,0,0,0,0,0,0,0,0,0,0,0,0,0,0,0,0,0,0,0,0,0,0,0,0,0,0,0,
0,0,0,0,0,0,0,0,0,0,0,0,0,0,0,0,0,0,0,0,0,0,0,0,0,0,0,0,0,0,
0,0,0,0,0,0,0,0,0,0,0,0,0,0,0,0,0,0,0,0,0,0,0,0,0,0,0,0,0,0,
0,0,0,0,0,0,0,0,0,0,0,0,0,0,0,0,0,0,0,0,0,0,0,0,0,0,0,0,0,0,
0,0,0,0,0,0,0,0,0,0,0,0,0,0,0,0,0,0,0,0,0,0,0,0,0,0,0,0,0,0,
0,0,0,0,0,0,0,0,0,0,0,0,0,0,0,0,0,0,0,0,0,0,0,0,0,0,0,0,0,0,
0,0,0,0,0,0,0,0,0,0,0,0,0,0,0,0,0,0,0,0,0,0,0,0,0,0,0,0,0,0,
0,0,0,0,0,0,0,0,0,0,0,0,0,0,1661,1662,1664,0,0,0,0,0,0,0,0,0,0,0,0,0,
0,0,0,0,0,0,0,0,0,0,0,0,0,0,1693,1694,1696,0,0,0,0,0,0,0,0,0,0,0,0,0,
0,0,0,0,0,0,0,0,0,0,0,0,0,0,1693,1694,1696,0,0,0,0,0,0,0,0,0,0,0,0,0,
0,0,0,0,0,0,0,0,0,0,0,0,0,0,1693,1694,1696,0,0,0,0,0,0,0,0,0,0,0,0,0,
0,0,0,0,0,0,0,0,0,0,0,0,0,0,1693,1694,1696,0,0,0,0,0,0,0,0,0,0,0,0,0,
0,0,0,0,0,0,0,0,0,0,0,0,0,0,1693,1694,1696,0,0,0,0,0,0,0,0,0,0,0,0,0,
0,0,0,0,0,0,0,0,0,0,0,0,0,0,1693,1694,1696,0,0,0,0,0,0,0,0,0,0,0,0,0,
0,0,0,0,0,0,0,0,0,0,0,0,0,0,1693,1694,1696,0,0,0,0,0,0,0,0,0,0,0,0,0,
0,0,0,0,0,0,0,0,0,0,0,0,0,0,1693,1694,1696,0,0,0,0,0,0,0,0,0,0,0,0,0,
0,0,0,0,0,0,0,0,0,0,0,0,0,0,1693,1694,1696,0,0,0,0,0,0,0,0,0,0,0,0,0,
0,0,0,0,0,0,0,0,0,0,0,0,0,0,1693,1694,1696,0,0,0,0,0,0,0,0,0,0,0,0,0,
0,0,0,0,0,0,0,0,0,0,0,0,0,0,1693,1694,1696,0,0,0,0,0,0,0,0,0,0,0,0,0,
0,0,0,0,0,0,0,0,0,0,0,0,0,0,1693,1694,1696,0,0,0,0,0,0,0,0,0,0,0,0,0
</data>
 </layer>
 <layer id="2" name="Buildings" width="30" height="40">
  <data encoding="csv">
1,2,3,3,3,3,3,3,3,3,3,3,3,3,3,3,3,3,3,3,3,3,3,3,3,3,3,3,4,1,
33,34,35,35,35,35,35,35,35,35,35,35,35,35,35,35,35,35,35,35,35,35,35,35,35,35,35,35,36,37,
65,66,67,67,67,67,67,67,67,737,67,67,67,67,67,67,67,67,67,67,67,67,67,1505,1506,1507,1508,67,68,69,
65,98,99,99,99,99,99,99,99,769,99,99,99,99,99,99,99,99,99,99,99,99,99,1537,1538,1539,1540,99,100,69,
65,130,2157,646,647,0,0,0,0,801,0,0,499,2958,2959,0,0,683,394,395,396,747,0,1569,1570,1571,1572,2157,132,69,
65,0,0,0,0,0,0,0,0,833,0,0,0,0,0,0,0,715,426,427,428,779,0,1601,1602,1603,1604,0,0,69,
65,0,0,0,0,0,0,0,0,865,0,0,0,0,0,0,0,0,458,459,460,0,0,1633,1634,1635,1636,0,0,69,
65,0,0,0,0,0,0,0,0,0,0,0,0,0,0,0,0,0,0,0,0,0,0,0,0,0,0,0,0,69,
65,0,0,0,934,935,0,0,0,0,0,0,0,0,0,0,0,0,0,0,0,0,0,0,0,0,0,0,0,69,
65,0,0,0,966,967,0,0,0,0,0,0,0,0,0,0,0,0,0,0,0,0,0,0,0,0,0,0,0,69,
161,162,166,166,166,166,166,166,166,166,166,166,166,166,166,166,166,166,166,166,166,166,166,166,163,0,164,166,167,168,
1,1,1,1,1,1,1,1,1,1,1,1,1,1,1,1,1,1,1,1,1,1,1,1,65,0,69,1,1,1,
1,2,3,3,3,3,3,3,3,3,3,3,3,3,3,3,3,3,3,3,3,3,3,3,3,3,3,3,4,1,
33,34,35,35,35,35,35,35,35,35,35,35,35,35,35,35,35,35,35,35,35,35,35,35,35,35,35,35,36,37,
65,846,847,848,849,850,851,852,853,846,847,848,849,850,851,851,851,852,853,67,67,67,67,67,67,2216,67,67,68,69,
65,878,879,880,881,882,883,884,885,878,879,880,881,882,883,883,883,884,885,99,99,99,99,99,99,2248,99,99,100,69,
65,910,911,912,913,914,915,916,917,910,911,912,913,914,915,915,915,916,917,2157,0,0,0,0,0,0,0,2157,132,69,
65,942,943,944,945,946,947,948,949,942,943,944,945,946,947,947,947,948,949,0,0,0,0,0,0,856,857,0,0,69,
65,0,0,0,0,0,0,0,0,0,0,0,0,0,0,0,0,0,0,0,0,0,0,0,393,888,889,457,0,69,
65,0,0,0,0,886,0,0,0,0,0,0,0,886,0,0,0,0,856,857,0,0,0,0,0,0,0,0,0,69,
65,0,0,0,0,918,919,920,919,919,919,919,919,894,0,0,0,393,888,889,457,0,0,0,0,0,0,0,0,69,
65,0,0,0,0,950,951,952,951,951,951,951,951,926,0,0,0,0,0,0,0,0,0,0,0,0,0,0,0,69,
65,0,0,0,0,0,0,0,0,0,0,0,0,0,0,0,0,0,0,0,2063,2064,0,0,0,856,857,0,0,69,
65,0,0,0,0,0,0,0,0,0,0,0,0,0,0,0,0,0,0,0,2095,2096,0,0,393,888,889,457,0,69,
65,0,1871,1872,1873,1874,1875,0,0,1871,1872,1873,1874,1875,0,0,0,0,4639,4640,4641,0,0,0,0,0,0,0,0,69,
65,0,7289,7290,7291,7292,7293,7294,0,1903,1904,1905,1906,1907,0,0,0,2312,4664,4665,4666,0,0,0,0,0,856,857,0,69,
65,0,7314,7315,7316,7317,7318,7319,0,1935,1936,1937,1938,1939,0,0,0,2344,2344,0,0,0,2061,2062,0,393,888,889,457,69,
65,0,0,0,0,0,0,0,0,859,860,0,859,860,0,0,0,0,0,0,0,0,2093,2094,0,0,0,0,0,69,
65,0,0,1328,1329,0,1328,1329,0,891,892,0,891,892,0,0,0,0,0,0,0,0,0,0,0,0,856,857,0,69,
65,0,0,1360,1361,0,1360,1361,0,923,924,0,923,924,0,0,0,0,0,0,0,0,0,0,0,393,888,889,457,69,
65,0,0,0,0,0,0,0,0,0,0,0,0,0,0,0,0,0,0,0,0,0,0,0,0,0,0,0,0,69,
65,0,0,0,0,0,0,0,0,0,858,0,0,858,0,0,0,0,0,0,0,0,0,101,0,0,0,0,0,69,
65,3480,3481,3482,3483,3484,3485,0,0,0,890,0,0,890,0,0,0,1927,9155,9156,9157,9158,0,133,0,0,0,0,0,69,
65,0,0,0,0,0,0,0,0,0,922,0,0,922,0,0,0,1959,1960,0,1959,1960,0,133,0,2116,2116,2116,0,69,
65,0,0,0,0,0,0,0,0,0,954,0,0,954,0,0,0,1991,1992,0,1994,1995,0,133,0,2148,2148,2148,0,69,
65,0,4539,4540,4541,4542,4543,4544,4545,0,986,0,0,986,0,0,0,2023,2024,0,2026,2027,0,133,0,0,0,0,0,69,
65,3480,4564,4565,4566,4567,4568,4569,4570,0,1018,0,0,1018,0,0,0,0,9155,9156,9157,9158,0,133,0,2116,2116,2116,0,69,
65,0,0,0,0,0,0,0,0,0,0,0,0,0,0,0,0,0,0,0,0,0,0,133,0,2148,2148,2148,0,69,
161,162,166,166,166,166,166,166,166,166,166,166,166,163,0,0,0,164,166,166,166,166,166,165,166,166,166,166,167,168,
1,1,1,1,1,1,1,1,1,1,1,1,1,65,0,0,0,69,1,1,1,1,1,1,1,1,1,1,1,1
</data>
 </layer>
 <layer id="11" name="Buildings2" width="30" height="40">
  <data encoding="csv">
0,0,2127,0,0,0,0,0,0,0,0,0,0,0,0,0,0,0,0,0,0,0,0,0,0,0,0,2127,0,0,
0,0,2159,994,994,994,533,534,994,994,994,994,994,994,994,994,994,994,595,596,994,994,994,994,994,994,994,2159,0,0,
0,0,2158,0,0,0,565,566,0,0,0,0,0,0,2895,0,0,0,627,628,0,0,0,0,0,0,0,2158,0,0,
0,0,2158,614,615,0,0,0,0,0,0,0,467,2926,2927,0,0,0,0,0,0,0,0,0,0,0,0,2158,0,0,
0,0,0,0,0,0,0,0,0,0,0,0,499,2958,2959,0,0,683,394,395,396,747,0,0,0,0,0,0,0,0,
0,0,0,0,0,0,0,0,0,0,0,0,0,0,0,0,0,715,426,427,428,779,0,0,0,0,0,663,664,0,
0,0,0,0,0,0,0,0,0,0,0,0,0,0,0,0,0,0,458,459,460,0,0,0,0,0,0,695,696,0,
0,0,0,0,0,0,0,0,0,0,0,0,0,0,0,0,0,0,0,0,0,0,0,0,0,0,0,727,728,0,
0,0,0,0,0,0,0,0,0,0,0,0,0,0,0,0,0,0,0,0,0,0,0,0,0,0,0,0,0,0,
0,0,0,0,0,0,0,0,0,0,0,0,0,0,0,0,0,0,0,0,0,0,0,0,0,0,0,0,0,0,
0,0,0,0,0,0,0,0,0,0,0,0,0,0,0,0,0,0,0,0,0,0,0,0,0,0,0,0,0,0,
0,0,0,0,0,0,0,0,0,0,0,0,0,0,0,0,0,0,0,0,0,0,0,0,0,0,0,0,0,0,
0,0,0,0,0,0,0,0,0,0,0,0,0,0,0,0,0,0,0,2127,0,0,0,0,0,0,0,2127,0,0,
0,0,0,0,0,0,0,0,0,0,0,0,0,0,0,0,0,0,0,2159,2869,2870,2871,2872,0,0,0,2159,0,0,
0,0,0,0,0,0,0,0,0,0,0,0,0,0,0,0,0,0,0,2158,2901,2902,2903,2904,0,0,0,2158,0,0,
0,0,0,0,0,0,0,0,0,0,0,0,0,0,0,0,0,0,0,2158,0,0,0,0,0,0,0,2158,0,0,
0,0,0,0,0,0,0,0,0,0,0,0,0,0,0,0,0,0,0,0,0,0,0,0,0,0,0,0,0,0,
0,2220,2221,0,0,0,0,0,0,0,0,0,0,0,0,0,0,0,0,0,0,0,0,0,0,0,0,0,0,0,
0,2252,2253,0,0,0,0,0,0,0,0,0,0,0,0,0,0,0,0,0,0,0,0,0,0,0,0,0,0,0,
0,0,0,0,0,0,0,0,0,0,0,0,0,0,0,0,0,0,0,0,0,0,0,0,0,0,0,0,0,0,
0,0,0,0,0,433,709,0,677,0,0,577,0,433,0,0,0,0,0,0,0,0,0,0,0,0,0,0,0,0,
0,0,0,0,0,0,0,0,0,0,0,0,0,0,0,0,0,0,0,0,0,0,0,0,0,0,0,0,0,0,
0,0,0,0,0,1661,1662,1663,1663,1663,1663,1663,1663,1664,0,0,0,0,0,0,0,0,0,0,0,0,0,0,0,0,
0,0,0,0,0,1789,1790,1790,1790,1790,1790,1790,1791,1792,0,0,0,0,0,0,0,0,0,0,0,0,0,0,0,0,
0,0,0,0,0,0,0,0,0,0,0,0,0,0,0,0,0,0,0,0,0,0,0,0,0,0,0,0,0,0,
0,0,0,0,0,0,0,0,0,0,0,0,0,0,0,0,0,0,0,0,0,0,0,0,0,0,0,0,0,0,
0,0,0,0,0,0,0,0,0,0,0,0,0,0,0,0,0,0,0,0,0,0,0,0,0,0,0,0,0,0,
0,0,0,0,0,0,0,0,0,0,0,0,0,0,0,0,0,0,0,0,0,0,0,0,0,0,0,0,0,0,
0,0,0,0,0,0,0,0,0,0,0,0,0,0,0,0,0,0,0,0,0,0,0,0,0,0,0,0,0,0,
0,0,0,0,0,0,0,0,0,0,0,0,0,0,0,0,0,0,0,0,0,0,0,0,0,0,0,0,0,0,
0,0,0,0,0,0,0,0,0,0,0,0,0,0,0,0,0,0,0,0,0,0,0,0,0,0,0,0,0,0,
0,0,0,0,0,0,0,0,0,0,0,0,0,0,0,0,0,0,0,0,0,0,0,0,0,0,0,0,0,0,
0,0,0,0,0,0,0,0,0,0,0,0,0,0,0,0,0,0,0,0,0,0,0,0,0,0,0,0,0,0,
0,0,0,0,0,0,0,0,0,0,0,0,0,0,0,0,0,0,0,0,0,0,0,0,0,0,1964,1897,0,0,
0,0,0,0,0,0,0,0,0,0,0,0,0,0,0,0,0,0,0,0,0,0,0,0,0,0,0,0,0,0,
0,0,0,0,0,0,0,0,0,0,0,0,0,0,0,0,0,0,0,0,0,0,0,0,0,0,0,0,0,0,
0,0,0,0,0,0,0,0,0,0,0,0,0,0,0,0,0,0,0,0,0,0,0,0,0,1897,0,1964,0,0,
0,0,0,0,0,0,0,0,0,0,0,0,0,0,0,0,0,0,0,0,0,0,0,0,0,0,0,0,0,0,
0,0,0,0,0,0,0,0,0,0,0,0,0,0,0,0,0,0,0,0,0,0,0,0,0,0,0,0,0,0,
0,0,0,0,0,0,0,0,0,0,0,0,0,0,0,0,0,0,0,0,0,0,0,0,0,0,0,0,0,0
</data>
 </layer>
 <layer id="3" name="Paths" width="30" height="40">
  <data encoding="csv">
0,0,0,0,0,0,0,0,0,0,0,0,0,0,0,0,0,0,0,0,0,0,0,0,0,0,0,0,0,0,
0,0,0,0,0,0,0,0,0,0,0,0,0,0,0,0,0,0,0,0,0,0,0,0,0,0,0,0,0,0,
0,0,0,0,0,0,0,0,0,0,0,0,0,0,0,0,0,0,0,0,0,0,0,0,0,0,0,0,0,0,
0,0,0,0,0,0,0,0,0,0,0,0,0,0,0,0,0,0,0,0,0,0,0,0,0,0,0,0,0,0,
0,0,0,0,0,0,0,0,0,0,0,0,0,0,0,0,0,0,0,0,0,0,0,0,0,0,0,0,0,0,
0,0,0,0,0,0,0,0,0,0,0,0,0,0,0,0,0,0,0,0,0,0,0,0,0,0,0,0,0,0,
0,0,0,0,0,0,0,0,0,0,0,0,0,0,0,0,0,0,0,0,0,0,0,0,0,0,0,0,0,0,
0,0,0,0,0,0,0,0,0,0,0,0,0,0,0,0,0,0,0,0,0,0,0,0,0,0,0,0,0,0,
0,0,0,0,0,0,0,0,0,0,0,0,0,0,0,0,0,0,0,0,0,0,0,0,0,0,0,0,0,0,
0,0,0,0,0,0,0,0,0,0,0,0,0,0,0,0,0,0,0,0,0,0,0,0,0,0,0,0,0,0,
0,0,0,0,0,0,0,0,0,0,0,0,0,0,0,0,0,0,0,0,0,0,0,0,0,0,0,0,0,0,
0,0,0,0,0,0,0,0,0,0,0,0,0,0,0,0,0,0,0,0,0,0,0,0,0,0,0,0,0,0,
0,0,0,0,0,0,0,0,0,0,0,0,0,0,0,0,0,0,0,0,0,0,0,0,0,0,0,0,0,0,
0,0,0,0,0,0,0,0,0,0,0,0,0,0,0,0,0,0,0,0,0,0,0,0,0,0,0,0,0,0,
0,0,0,0,0,0,0,0,0,0,0,0,0,0,0,0,0,0,0,0,0,0,0,0,0,0,0,0,0,0,
0,0,0,0,0,0,0,0,0,0,0,0,0,0,0,0,0,0,0,0,0,0,0,0,0,0,0,0,0,0,
0,0,0,0,0,0,0,0,0,0,0,0,0,0,0,0,0,0,0,0,0,0,0,0,0,0,0,0,0,0,
0,0,0,0,0,0,0,0,0,0,0,0,0,0,0,0,0,0,0,0,0,0,0,0,0,0,0,0,0,0,
0,0,0,0,0,0,0,0,0,0,0,0,0,0,0,0,0,0,0,0,0,0,0,0,0,0,0,0,0,0,
0,0,0,0,0,0,0,0,0,0,0,0,0,0,0,0,0,0,0,0,0,0,0,0,0,0,0,0,0,0,
0,0,0,0,0,0,0,0,0,0,0,0,0,0,0,0,0,0,0,0,0,0,0,0,0,0,0,0,0,0,
0,0,0,0,0,0,0,0,0,0,0,0,0,0,0,0,0,0,0,0,0,0,0,0,0,0,0,0,0,0,
0,0,0,0,0,0,0,0,0,0,0,0,0,0,0,0,0,0,0,0,0,0,0,0,0,0,0,0,0,0,
0,0,0,0,0,0,0,0,0,0,0,0,0,0,0,0,0,0,0,0,0,0,0,0,0,0,0,0,0,0,
0,0,0,0,0,0,0,0,0,0,0,0,0,0,0,0,0,0,0,0,0,0,0,0,0,0,0,0,0,0,
0,0,0,0,0,0,0,0,0,0,0,0,0,0,0,0,0,0,0,0,0,0,0,0,0,0,0,0,0,0,
0,0,0,0,0,0,0,0,0,0,0,0,0,0,0,0,0,0,0,0,0,0,0,0,0,0,0,0,0,0,
0,0,0,0,0,0,0,0,0,0,0,0,0,0,0,0,0,0,0,0,0,0,0,0,0,0,0,0,0,0,
0,0,0,0,0,0,0,0,0,0,0,0,0,0,0,0,0,0,0,0,0,0,0,0,0,0,0,0,0,0,
0,0,0,0,0,0,0,0,0,0,0,0,0,0,0,0,0,0,0,0,0,0,0,0,0,0,0,0,0,0,
0,0,0,0,0,0,0,0,0,0,0,0,0,0,0,0,0,0,0,0,0,0,0,0,0,0,0,0,0,0,
0,0,0,0,0,0,0,0,0,0,0,0,0,0,0,0,0,0,0,0,0,0,0,0,0,0,0,0,0,0,
0,0,0,0,0,0,0,0,0,0,0,0,0,0,0,0,0,0,0,0,0,0,0,0,0,0,0,0,0,0,
0,0,0,0,0,0,0,0,0,0,0,0,0,0,0,0,0,0,0,0,0,0,0,0,0,0,0,0,0,0,
0,0,0,0,0,0,0,0,0,0,0,0,0,0,0,0,0,0,0,0,0,0,0,0,0,0,0,0,0,0,
0,0,0,0,0,0,0,0,0,0,0,0,0,0,0,0,0,0,0,0,0,0,0,0,0,0,0,0,0,0,
0,0,0,0,0,0,0,0,0,0,0,0,0,0,0,0,0,0,0,0,0,0,0,0,0,0,0,0,0,0,
0,0,0,0,0,0,0,0,0,0,0,0,0,0,0,0,0,0,0,0,0,0,0,0,0,0,0,0,0,0,
0,0,0,0,0,0,0,0,0,0,0,0,0,0,0,0,0,0,0,0,0,0,0,0,0,0,0,0,0,0,
0,0,0,0,0,0,0,0,0,0,0,0,0,0,0,0,0,0,0,0,0,0,0,0,0,0,0,0,0,0
</data>
 </layer>
 <layer id="4" name="Front" width="30" height="40">
  <data encoding="csv">
0,0,0,0,0,0,0,0,0,0,0,0,0,0,0,0,0,0,0,0,0,0,0,0,0,0,0,0,0,0,
0,0,0,0,0,0,0,0,0,0,0,0,0,0,0,0,0,0,0,0,0,0,0,0,0,0,0,0,0,0,
0,0,0,0,0,0,0,0,0,0,0,0,0,0,0,0,0,0,0,0,0,0,0,0,0,0,0,0,0,0,
0,0,0,0,0,0,0,0,0,0,0,0,0,0,0,0,0,0,0,0,0,0,0,0,0,0,0,0,0,0,
0,0,0,0,0,0,2660,2661,2662,0,0,0,0,0,0,0,0,0,0,0,0,0,0,0,0,0,0,0,0,0,
0,0,0,0,0,0,2692,2693,2694,0,0,0,0,0,0,0,0,0,0,0,0,0,0,0,0,0,0,0,0,0,
0,0,0,0,0,0,2724,2725,2726,0,0,0,0,0,0,0,0,0,0,0,0,0,0,0,0,0,0,0,0,0,
0,0,0,0,0,0,0,0,0,0,0,0,0,0,0,0,0,0,0,0,0,0,0,0,0,0,0,0,0,0,
0,0,0,0,0,0,0,0,0,0,0,0,0,0,0,0,0,0,0,0,0,0,0,0,0,0,0,0,0,0,
0,0,0,0,0,0,0,0,0,0,0,0,0,0,0,0,0,0,0,0,0,0,0,0,0,0,0,0,0,0,
0,0,0,0,0,0,0,0,0,0,0,0,0,0,0,0,0,0,0,0,0,0,0,0,0,0,0,0,0,0,
0,0,0,0,0,0,0,0,0,0,0,0,0,0,0,0,0,0,0,0,0,0,0,0,0,0,0,0,0,0,
0,0,0,0,0,0,0,0,0,0,0,0,0,0,0,0,0,0,0,0,0,0,0,0,0,0,0,0,0,0,
0,0,0,0,0,0,0,0,0,0,0,0,0,0,0,0,0,0,0,0,0,0,0,0,0,0,0,0,0,0,
0,0,0,0,0,0,0,0,0,0,0,0,0,0,0,0,0,0,0,0,0,0,0,0,0,2216,0,0,0,0,
0,0,0,0,0,0,0,0,0,0,0,0,0,0,0,0,0,0,0,0,0,0,0,0,0,2248,0,0,0,0,
0,0,0,0,0,0,0,0,0,0,0,0,0,0,0,0,0,0,0,0,0,0,0,0,0,0,0,0,0,0,
0,0,0,0,0,0,0,0,0,0,0,0,0,0,0,0,0,0,0,0,0,0,0,0,0,0,0,0,0,0,
0,0,0,0,0,0,0,0,0,0,0,0,0,0,0,0,0,0,0,0,0,0,0,0,0,0,0,0,0,0,
0,0,0,0,0,0,0,0,0,0,0,0,0,0,0,0,0,0,0,0,0,0,0,0,0,0,0,0,0,0,
0,0,0,0,0,0,0,0,0,0,0,0,0,0,0,0,0,0,0,0,0,0,0,0,0,0,0,0,0,0,
0,0,0,0,0,0,0,0,0,0,0,0,0,0,0,0,0,0,0,0,0,0,0,0,0,0,0,0,0,0,
0,0,0,0,0,0,0,0,0,0,0,0,0,0,0,0,0,0,0,0,0,0,0,0,0,0,0,0,0,0,
0,0,0,0,0,0,0,0,0,0,0,0,0,0,0,0,0,0,0,0,0,0,0,0,0,0,0,0,0,0,
0,0,0,0,0,0,0,0,0,0,0,0,0,0,0,0,0,0,0,0,0,0,0,0,0,0,0,0,0,0,
0,0,0,0,0,0,0,0,0,0,0,0,0,0,0,0,0,0,0,0,0,0,0,0,0,0,0,0,0,0,
0,0,0,0,0,0,0,0,0,0,0,0,0,0,0,0,0,0,0,0,0,0,0,0,0,0,0,0,0,0,
0,0,0,0,0,0,0,0,0,0,0,0,0,0,0,0,0,0,0,0,0,0,0,0,0,0,0,0,0,0,
0,0,0,0,0,0,0,0,0,0,0,0,0,0,0,0,0,0,0,0,0,0,0,0,0,0,0,0,0,0,
0,0,0,0,0,0,0,0,0,0,0,0,0,0,0,0,0,0,0,0,0,0,0,0,0,0,0,0,0,0,
0,0,0,0,0,0,0,0,0,0,0,0,0,0,0,0,0,0,0,0,0,0,0,0,0,0,0,0,0,0,
0,0,0,0,0,0,0,0,0,0,0,0,0,0,0,0,0,0,0,0,0,0,0,0,0,0,0,0,0,0,
0,0,0,0,0,0,0,0,0,0,0,0,0,0,0,0,0,0,0,0,0,0,0,0,0,0,0,0,0,0,
0,0,0,0,0,0,0,0,0,0,0,0,0,0,0,0,0,0,0,0,0,0,0,0,0,0,0,0,0,0,
0,0,0,0,0,0,0,0,0,0,0,0,0,0,0,0,0,0,0,0,0,0,0,0,0,0,0,0,0,0,
0,0,0,0,0,0,0,0,0,0,0,0,0,0,0,0,0,0,0,0,0,0,0,0,0,0,0,0,0,0,
0,0,0,0,0,0,0,0,0,0,0,0,0,0,0,0,0,0,0,0,0,0,0,0,0,0,0,0,0,0,
0,0,0,0,0,0,0,0,0,0,0,0,0,0,0,0,0,0,0,0,0,0,0,0,0,0,0,0,0,0,
0,0,0,0,0,0,0,0,0,0,0,0,0,0,0,0,0,0,0,0,0,0,0,0,0,0,0,0,0,0,
0,0,0,0,0,0,0,0,0,0,0,0,0,0,0,0,0,0,0,0,0,0,0,0,0,0,0,0,0,0
</data>
 </layer>
 <layer id="5" name="AlwaysFront" width="30" height="40">
  <data encoding="csv">
0,0,0,0,0,0,0,0,0,0,0,0,0,0,0,0,0,0,0,0,0,0,0,0,0,0,0,0,0,0,
0,0,0,0,0,0,0,0,0,0,0,0,0,0,0,0,0,0,0,0,0,0,0,0,0,0,0,0,0,0,
0,0,0,0,0,0,0,0,0,0,0,0,0,0,0,0,0,0,0,0,0,0,0,0,0,0,0,0,0,0,
0,0,0,0,0,0,0,0,0,0,0,0,0,0,0,0,0,0,0,0,0,0,0,0,0,0,0,0,0,0,
0,0,0,0,0,0,0,0,0,0,0,0,0,0,0,0,0,0,0,0,0,0,0,0,0,0,0,0,0,0,
0,0,0,0,0,0,0,0,0,0,0,0,0,0,0,0,0,0,0,0,0,0,0,0,0,0,0,0,0,0,
0,0,0,0,0,0,0,0,0,0,0,0,0,0,0,0,0,0,0,0,0,0,0,0,0,0,0,0,0,0,
0,0,0,0,0,0,0,0,0,0,0,0,0,0,0,0,0,0,0,0,0,0,0,0,0,0,0,0,0,0,
0,0,0,0,0,0,0,0,0,0,0,0,0,0,0,0,0,0,0,0,0,0,0,0,0,0,0,0,0,0,
0,0,0,0,0,0,0,0,0,0,0,0,0,0,0,0,0,0,0,0,0,0,0,0,0,0,0,0,0,0,
0,0,0,0,0,0,0,0,0,0,0,0,0,0,0,0,0,0,0,0,0,0,0,0,0,0,0,0,0,0,
0,0,0,0,0,0,0,0,0,0,0,0,0,0,0,0,0,0,0,0,0,0,0,0,0,0,0,0,0,0,
0,0,0,0,0,0,0,0,0,0,0,0,0,0,0,0,0,0,0,0,0,0,0,0,0,0,0,0,0,0,
0,0,0,0,0,0,0,0,0,0,0,0,0,0,0,0,0,0,0,0,0,0,0,0,0,0,0,0,0,0,
0,0,0,0,0,0,0,0,0,0,0,0,0,0,0,0,0,0,0,0,0,0,0,0,0,0,0,0,0,0,
0,0,0,0,0,0,0,0,0,0,0,0,0,0,0,0,0,0,0,0,0,0,0,0,0,0,0,0,0,0,
0,0,0,0,0,0,0,0,0,0,0,0,0,0,0,0,0,0,0,0,0,0,0,0,0,0,0,0,0,0,
0,0,0,0,0,0,0,0,0,0,0,0,0,0,0,0,0,0,0,0,0,0,0,0,361,0,0,425,0,0,
0,0,0,0,0,0,0,0,0,0,0,0,0,0,0,0,0,0,0,0,0,0,0,0,0,0,0,0,0,0,
0,0,0,0,0,0,0,0,0,0,0,0,0,0,0,0,0,361,0,0,425,0,0,0,0,0,0,0,0,0,
0,0,0,0,0,0,0,920,0,0,0,0,0,0,0,0,0,0,0,0,0,0,0,0,0,0,0,0,0,0,
0,0,0,0,0,0,0,0,0,0,0,0,0,0,0,0,0,0,0,0,0,0,0,0,0,0,0,0,0,0,
0,0,0,0,0,0,0,0,0,0,0,0,0,0,0,0,0,0,4589,4590,4591,0,0,0,361,0,0,425,0,0,
0,0,0,0,0,0,0,0,0,0,0,0,0,0,0,0,0,0,4614,4615,4616,0,0,0,0,0,0,0,0,0,
0,0,7264,7265,7266,7267,7268,7269,0,0,0,0,0,0,0,0,0,0,0,0,0,0,0,0,0,0,0,0,0,0,
0,0,0,0,0,0,0,0,0,0,0,0,0,0,0,0,0,0,0,0,0,0,0,0,0,361,0,0,425,0,
0,0,0,0,0,0,0,0,0,0,0,0,0,0,0,0,0,0,0,0,0,0,0,0,0,0,0,0,0,0,
0,0,0,0,0,0,0,0,0,0,0,0,0,0,0,0,0,0,0,0,0,0,0,0,0,0,0,0,0,0,
0,0,0,0,0,0,0,0,0,0,0,0,0,0,0,0,0,0,0,0,0,0,0,0,0,361,0,0,425,0,
0,0,0,0,0,0,0,0,0,0,0,0,0,0,0,0,0,0,9080,9081,9082,9083,0,0,0,0,0,0,0,0,
0,3416,3417,3418,3419,3420,3421,0,0,0,0,0,0,0,0,0,0,1863,9105,9106,9107,9108,0,0,0,0,0,0,0,0,
0,3448,3449,3450,3451,3452,3453,0,0,0,0,0,0,0,0,0,0,1895,9130,9131,9132,9133,0,0,0,0,0,0,0,0,
0,0,0,0,0,0,0,0,0,0,0,0,0,0,0,0,0,0,0,0,0,0,0,0,0,0,0,0,0,0,
0,0,4489,4490,4491,4492,4493,4494,0,0,0,0,0,0,0,0,0,0,9080,9081,9082,9083,0,0,0,0,0,0,0,0,
0,3416,4514,4515,4516,4517,4518,4519,0,0,0,0,0,0,0,0,0,0,9105,9106,9107,9108,0,0,0,0,0,0,0,0,
0,3448,3449,3450,3451,3452,3453,0,0,0,0,0,0,0,0,0,0,0,9130,9131,9132,9133,0,0,0,0,0,0,0,0,
0,0,0,0,0,0,0,0,0,0,0,0,0,0,0,0,0,0,0,0,0,0,0,0,0,0,0,0,0,0,
0,0,0,0,0,0,0,0,0,0,0,0,0,0,0,0,0,0,0,0,0,0,0,0,0,0,0,0,0,0,
0,0,0,0,0,0,0,0,0,0,0,0,0,0,0,0,0,0,0,0,0,0,0,0,0,0,0,0,0,0,
0,0,0,0,0,0,0,0,0,0,0,0,0,0,0,0,0,0,0,0,0,0,0,0,0,0,0,0,0,0
</data>
 </layer>
 <objectgroup id="6" name="Back"/>
 <objectgroup id="7" name="Buildings"/>
 <objectgroup id="8" name="Paths"/>
 <objectgroup id="9" name="Front"/>
 <objectgroup id="10" name="AlwaysFront"/>
</map>
