<?xml version="1.0" encoding="UTF-8"?>
<map version="1.10" tiledversion="1.12.1" orientation="orthogonal" renderorder="right-down" compressionlevel="0" width="100" height="75" tilewidth="16" tileheight="16" infinite="0" nextlayerid="31" nextobjectid="3287">
 <properties>
  <property name="AllowGrassGrowInWinter" value="T"/>
  <property name="AllowGrassSurviveInWinter" value="T"/>
  <property name="BackwoodsEntry" value="72 2"/>
  <property name="BusStopEntry" value="98 34"/>
  <property name="FarmCaveEntry" value="50 58"/>
  <property name="FarmHouseEntry" value="81 34"/>
  <property name="ForestEntry" value="86 62"/>
  <property name="GrandpaShrineLocation" value="9 2"/>
  <property name="GreenhouseLocation" value="25 2"/>
  <property name="MailboxLocation" value="85 35"/>
  <property name="Outdoors" value="T"/>
  <property name="PetBowlLocation" value="91 53"/>
  <property name="ShippingBinLocation" value="87 31"/>
  <property name="SpawnBeachFarmForage" value="T"/>
  <property name="SpouseAreaLocation" value="88 0"/>
  <property name="Warp" value="99 33 BusStop 11 23 99 34 BusStop 11 23 99 35 BusStop 11 23 86 63 Forest 68 0 87 63 Forest 68 0 71 1 Backwoods 14 39 72 1 Backwoods 14 39 73 1 Backwoods 14 39 49 57 FarmCave 8 11 50 57 FarmCave 8 11"/>
  <property name="WarpTotemEntry" value="65 21"/>
  <property name="mushymato.MMAP_LightRays" value="T"/>
  <property name="mushymato.MMAP_WoodsBaubles" value="T"/>
 </properties>
 <tileset firstgid="1" name="Paths" tilewidth="16" tileheight="16" tilecount="64" columns="4">
  <image source="Tilesheet/paths.png" width="64" height="256"/>
  <tile id="34">
   <properties>
    <property name="SpawnTree" value="T"/>
   </properties>
  </tile>
 </tileset>
 <tileset firstgid="65" name="untitled tile sheet" tilewidth="16" tileheight="16" tilecount="1975" columns="25">
  <image source="Tilesheet/spring_outdoorsTileSheet.png" width="400" height="1264"/>
  <tile id="150">
   <properties>
    <property name="Buildable" value="T"/>
    <property name="Diggable" value="T"/>
    <property name="Type" value="Grass"/>
   </properties>
   <animation>
    <frame tileid="150" duration="900"/>
    <frame tileid="420" duration="900"/>
    <frame tileid="421" duration="900"/>
    <frame tileid="422" duration="900"/>
    <frame tileid="423" duration="900"/>
   </animation>
  </tile>
  <tile id="151">
   <properties>
    <property name="Buildable" value="T"/>
    <property name="Diggable" value="T"/>
    <property name="Type" value="Grass"/>
   </properties>
   <animation>
    <frame tileid="151" duration="1000"/>
    <frame tileid="152" duration="1000"/>
   </animation>
  </tile>
  <tile id="152">
   <properties>
    <property name="Buildable" value="T"/>
    <property name="Diggable" value="T"/>
    <property name="Type" value="Grass"/>
   </properties>
  </tile>
  <tile id="153">
   <properties>
    <property name="Buildable" value="T"/>
    <property name="Diggable" value="T"/>
    <property name="Type" value="Dirt"/>
   </properties>
  </tile>
  <tile id="154">
   <properties>
    <property name="Diggable" value="T"/>
   </properties>
  </tile>
  <tile id="155">
   <properties>
    <property name="Diggable" value="T"/>
   </properties>
  </tile>
  <tile id="156">
   <properties>
    <property name="Buildable" value="T"/>
    <property name="Diggable" value="T"/>
    <property name="Type" value="Grass"/>
   </properties>
  </tile>
  <tile id="175">
   <properties>
    <property name="Buildable" value="T"/>
    <property name="Diggable" value="T"/>
    <property name="Type" value="Grass"/>
   </properties>
  </tile>
  <tile id="176">
   <properties>
    <property name="Buildable" value="T"/>
    <property name="Diggable" value="T"/>
    <property name="Type" value="Grass"/>
   </properties>
  </tile>
  <tile id="177">
   <properties>
    <property name="Buildable" value="T"/>
    <property name="CanPlantTrees" value="T"/>
    <property name="Diggable" value="T"/>
    <property name="Type" value="Grass"/>
   </properties>
  </tile>
  <tile id="178">
   <properties>
    <property name="Buildable" value="T"/>
    <property name="Diggable" value="T"/>
    <property name="Type" value="Grass"/>
   </properties>
  </tile>
  <tile id="179">
   <properties>
    <property name="Buildable" value="T"/>
    <property name="CanPlantTrees" value="T"/>
    <property name="Diggable" value="T"/>
    <property name="Type" value="Grass"/>
   </properties>
  </tile>
  <tile id="180">
   <properties>
    <property name="Buildable" value="T"/>
    <property name="CanPlantTrees" value="T"/>
    <property name="Diggable" value="T"/>
    <property name="Type" value="Grass"/>
   </properties>
  </tile>
  <tile id="181">
   <properties>
    <property name="Buildable" value="T"/>
    <property name="Diggable" value="T"/>
    <property name="Type" value="Grass"/>
   </properties>
  </tile>
  <tile id="182">
   <properties>
    <property name="Buildable" value="T"/>
    <property name="Diggable" value="T"/>
   </properties>
  </tile>
  <tile id="183">
   <animation>
    <frame tileid="183" duration="1000"/>
    <frame tileid="1182" duration="1000"/>
   </animation>
  </tile>
  <tile id="184">
   <animation>
    <frame tileid="184" duration="1000"/>
    <frame tileid="1183" duration="1000"/>
   </animation>
  </tile>
  <tile id="185">
   <animation>
    <frame tileid="185" duration="1000"/>
    <frame tileid="1184" duration="1000"/>
   </animation>
  </tile>
  <tile id="200">
   <properties>
    <property name="Buildable" value="T"/>
    <property name="CanPlantTrees" value="T"/>
    <property name="Diggable" value="T"/>
    <property name="Type" value="Grass"/>
   </properties>
  </tile>
  <tile id="201">
   <properties>
    <property name="Buildable" value="T"/>
    <property name="CanPlantTrees" value="T"/>
    <property name="Diggable" value="T"/>
    <property name="Type" value="Grass"/>
   </properties>
  </tile>
  <tile id="202">
   <properties>
    <property name="Buildable" value="T"/>
    <property name="CanPlantTrees" value="T"/>
    <property name="Diggable" value="T"/>
    <property name="Type" value="Grass"/>
   </properties>
  </tile>
  <tile id="203">
   <properties>
    <property name="Buildable" value="T"/>
    <property name="CanPlantTrees" value="T"/>
    <property name="Diggable" value="T"/>
    <property name="Type" value="Grass"/>
   </properties>
  </tile>
  <tile id="204">
   <properties>
    <property name="Buildable" value="T"/>
    <property name="Diggable" value="T"/>
    <property name="Type" value="Grass"/>
   </properties>
  </tile>
  <tile id="205">
   <properties>
    <property name="Buildable" value="T"/>
    <property name="CanPlantTrees" value="T"/>
    <property name="Diggable" value="T"/>
    <property name="Type" value="Grass"/>
   </properties>
  </tile>
  <tile id="206">
   <properties>
    <property name="Buildable" value="T"/>
    <property name="Diggable" value="T"/>
    <property name="Type" value="Grass"/>
   </properties>
  </tile>
  <tile id="207">
   <properties>
    <property name="Buildable" value="T"/>
    <property name="Diggable" value="T"/>
    <property name="Type" value="Dirt"/>
   </properties>
  </tile>
  <tile id="208">
   <animation>
    <frame tileid="208" duration="1000"/>
    <frame tileid="1207" duration="1000"/>
   </animation>
  </tile>
  <tile id="210">
   <animation>
    <frame tileid="210" duration="1000"/>
    <frame tileid="1209" duration="1000"/>
   </animation>
  </tile>
  <tile id="225">
   <properties>
    <property name="Buildable" value="T"/>
    <property name="CanPlantTrees" value="T"/>
    <property name="Diggable" value="T"/>
    <property name="Type" value="Grass"/>
   </properties>
  </tile>
  <tile id="226">
   <properties>
    <property name="Buildable" value="T"/>
    <property name="Diggable" value="T"/>
    <property name="Type" value="Grass"/>
   </properties>
  </tile>
  <tile id="227">
   <properties>
    <property name="Buildable" value="T"/>
    <property name="Diggable" value="T"/>
    <property name="Type" value="Grass"/>
   </properties>
  </tile>
  <tile id="228">
   <properties>
    <property name="Buildable" value="T"/>
    <property name="CanPlantTrees" value="T"/>
    <property name="Diggable" value="T"/>
    <property name="Type" value="Grass"/>
   </properties>
  </tile>
  <tile id="229">
   <properties>
    <property name="Buildable" value="T"/>
    <property name="Diggable" value="T"/>
    <property name="Type" value="Grass"/>
   </properties>
  </tile>
  <tile id="230">
   <properties>
    <property name="Buildable" value="T"/>
    <property name="Diggable" value="T"/>
    <property name="Type" value="Grass"/>
   </properties>
  </tile>
  <tile id="231">
   <properties>
    <property name="Buildable" value="T"/>
    <property name="Diggable" value="T"/>
    <property name="Type" value="Grass"/>
   </properties>
  </tile>
  <tile id="250">
   <properties>
    <property name="Buildable" value="T"/>
    <property name="Diggable" value="T"/>
    <property name="Type" value="Grass"/>
   </properties>
  </tile>
  <tile id="251">
   <properties>
    <property name="Buildable" value="T"/>
    <property name="Diggable" value="T"/>
    <property name="Type" value="Grass"/>
   </properties>
  </tile>
  <tile id="252">
   <properties>
    <property name="Buildable" value="T"/>
    <property name="Diggable" value="T"/>
    <property name="Type" value="Grass"/>
   </properties>
  </tile>
  <tile id="253">
   <properties>
    <property name="Buildable" value="T"/>
    <property name="Diggable" value="T"/>
    <property name="Type" value="Grass"/>
   </properties>
  </tile>
  <tile id="254">
   <properties>
    <property name="Buildable" value="T"/>
    <property name="Diggable" value="T"/>
    <property name="Type" value="Grass"/>
   </properties>
  </tile>
  <tile id="255">
   <properties>
    <property name="Buildable" value="T"/>
    <property name="Diggable" value="T"/>
    <property name="Type" value="Grass"/>
   </properties>
  </tile>
  <tile id="256">
   <properties>
    <property name="Buildable" value="T"/>
    <property name="Diggable" value="T"/>
    <property name="Type" value="Grass"/>
   </properties>
  </tile>
  <tile id="258">
   <animation>
    <frame tileid="258" duration="1000"/>
    <frame tileid="1257" duration="1000"/>
   </animation>
  </tile>
  <tile id="260">
   <animation>
    <frame tileid="260" duration="1000"/>
    <frame tileid="1315" duration="1000"/>
   </animation>
  </tile>
  <tile id="261">
   <properties>
    <property name="Buildable" value="T"/>
    <property name="Diggable" value="T"/>
    <property name="Type" value="Grass"/>
   </properties>
  </tile>
  <tile id="275">
   <properties>
    <property name="Buildable" value="T"/>
    <property name="Diggable" value="T"/>
    <property name="Type" value="Grass"/>
   </properties>
  </tile>
  <tile id="276">
   <properties>
    <property name="Buildable" value="T"/>
    <property name="Diggable" value="T"/>
    <property name="Type" value="Grass"/>
   </properties>
  </tile>
  <tile id="277">
   <properties>
    <property name="Buildable" value="T"/>
    <property name="Diggable" value="T"/>
    <property name="Type" value="Grass"/>
   </properties>
  </tile>
  <tile id="278">
   <properties>
    <property name="Buildable" value="T"/>
    <property name="Diggable" value="T"/>
    <property name="Type" value="Grass"/>
   </properties>
  </tile>
  <tile id="279">
   <properties>
    <property name="Buildable" value="T"/>
    <property name="Diggable" value="T"/>
    <property name="Type" value="Grass"/>
   </properties>
  </tile>
  <tile id="280">
   <properties>
    <property name="Type" value="Grass"/>
   </properties>
  </tile>
  <tile id="281">
   <properties>
    <property name="Buildable" value="T"/>
    <property name="Diggable" value="T"/>
    <property name="Type" value="Grass"/>
   </properties>
  </tile>
  <tile id="283">
   <animation>
    <frame tileid="283" duration="1000"/>
    <frame tileid="1312" duration="1000"/>
   </animation>
  </tile>
  <tile id="284">
   <animation>
    <frame tileid="284" duration="1000"/>
    <frame tileid="1313" duration="1000"/>
   </animation>
  </tile>
  <tile id="286">
   <properties>
    <property name="Buildable" value="T"/>
    <property name="Diggable" value="T"/>
    <property name="Type" value="Grass"/>
   </properties>
  </tile>
  <tile id="300">
   <properties>
    <property name="Buildable" value="T"/>
    <property name="Diggable" value="T"/>
    <property name="Type" value="Grass"/>
   </properties>
  </tile>
  <tile id="301">
   <properties>
    <property name="Buildable" value="T"/>
    <property name="Diggable" value="T"/>
    <property name="Type" value="Grass"/>
   </properties>
  </tile>
  <tile id="302">
   <properties>
    <property name="Buildable" value="T"/>
    <property name="Diggable" value="T"/>
    <property name="Type" value="Grass"/>
   </properties>
  </tile>
  <tile id="303">
   <properties>
    <property name="Buildable" value="T"/>
    <property name="Diggable" value="T"/>
    <property name="Type" value="Grass"/>
   </properties>
  </tile>
  <tile id="304">
   <properties>
    <property name="Buildable" value="T"/>
    <property name="Diggable" value="T"/>
    <property name="Type" value="Grass"/>
   </properties>
  </tile>
  <tile id="305">
   <properties>
    <property name="Buildable" value="T"/>
    <property name="Diggable" value="T"/>
    <property name="Type" value="Grass"/>
   </properties>
  </tile>
  <tile id="306">
   <properties>
    <property name="Buildable" value="T"/>
    <property name="Diggable" value="T"/>
    <property name="Type" value="Grass"/>
   </properties>
  </tile>
  <tile id="308">
   <animation>
    <frame tileid="308" duration="1000"/>
    <frame tileid="1316" duration="1000"/>
   </animation>
  </tile>
  <tile id="309">
   <animation>
    <frame tileid="309" duration="1000"/>
    <frame tileid="1317" duration="1000"/>
   </animation>
  </tile>
  <tile id="311">
   <properties>
    <property name="Buildable" value="T"/>
    <property name="Diggable" value="T"/>
    <property name="Type" value="Grass"/>
   </properties>
  </tile>
  <tile id="312">
   <properties>
    <property name="Type" value="Wood"/>
   </properties>
  </tile>
  <tile id="313">
   <properties>
    <property name="Type" value="Wood"/>
   </properties>
  </tile>
  <tile id="314">
   <properties>
    <property name="Type" value="Wood"/>
   </properties>
  </tile>
  <tile id="325">
   <properties>
    <property name="Buildable" value="T"/>
    <property name="Diggable" value="T"/>
    <property name="Type" value="Grass"/>
   </properties>
  </tile>
  <tile id="326">
   <properties>
    <property name="Buildable" value="T"/>
    <property name="Diggable" value="T"/>
    <property name="Type" value="Grass"/>
   </properties>
  </tile>
  <tile id="327">
   <properties>
    <property name="Buildable" value="T"/>
    <property name="Diggable" value="T"/>
    <property name="Type" value="Grass"/>
   </properties>
  </tile>
  <tile id="328">
   <properties>
    <property name="Buildable" value="T"/>
    <property name="Diggable" value="T"/>
    <property name="Type" value="Grass"/>
   </properties>
  </tile>
  <tile id="329">
   <properties>
    <property name="Buildable" value="T"/>
    <property name="Diggable" value="T"/>
    <property name="Type" value="Grass"/>
   </properties>
  </tile>
  <tile id="330">
   <properties>
    <property name="Diggable" value="T"/>
    <property name="Type" value="Grass"/>
   </properties>
  </tile>
  <tile id="331">
   <properties>
    <property name="Buildable" value="T"/>
    <property name="Diggable" value="T"/>
    <property name="Type" value="Grass"/>
   </properties>
  </tile>
  <tile id="332">
   <properties>
    <property name="Buildable" value="T"/>
    <property name="Diggable" value="T"/>
    <property name="Type" value="Grass"/>
   </properties>
  </tile>
  <tile id="337">
   <properties>
    <property name="Type" value="Wood"/>
   </properties>
  </tile>
  <tile id="338">
   <properties>
    <property name="Type" value="Wood"/>
   </properties>
  </tile>
  <tile id="339">
   <properties>
    <property name="Type" value="Wood"/>
   </properties>
  </tile>
  <tile id="350">
   <properties>
    <property name="Buildable" value="T"/>
    <property name="Diggable" value="T"/>
    <property name="Type" value="Grass"/>
   </properties>
  </tile>
  <tile id="351">
   <properties>
    <property name="Buildable" value="T"/>
    <property name="Diggable" value="T"/>
    <property name="Type" value="Grass"/>
   </properties>
  </tile>
  <tile id="352">
   <properties>
    <property name="Buildable" value="T"/>
    <property name="Diggable" value="T"/>
    <property name="Type" value="Grass"/>
   </properties>
  </tile>
  <tile id="353">
   <properties>
    <property name="Buildable" value="T"/>
    <property name="Diggable" value="T"/>
    <property name="Type" value="Grass"/>
   </properties>
  </tile>
  <tile id="354">
   <properties>
    <property name="Buildable" value="T"/>
    <property name="Diggable" value="T"/>
    <property name="Type" value="Grass"/>
   </properties>
  </tile>
  <tile id="355">
   <properties>
    <property name="Buildable" value="T"/>
    <property name="Diggable" value="T"/>
    <property name="Type" value="Grass"/>
   </properties>
  </tile>
  <tile id="356">
   <properties>
    <property name="Buildable" value="T"/>
    <property name="Diggable" value="T"/>
    <property name="Type" value="Grass"/>
   </properties>
  </tile>
  <tile id="357">
   <properties>
    <property name="Buildable" value="T"/>
    <property name="Diggable" value="T"/>
    <property name="Type" value="Grass"/>
   </properties>
  </tile>
  <tile id="375">
   <properties>
    <property name="Buildable" value="T"/>
    <property name="Diggable" value="T"/>
    <property name="Type" value="Grass"/>
   </properties>
  </tile>
  <tile id="376">
   <properties>
    <property name="Buildable" value="T"/>
    <property name="Diggable" value="T"/>
    <property name="Type" value="Grass"/>
   </properties>
  </tile>
  <tile id="377">
   <properties>
    <property name="Buildable" value="T"/>
    <property name="Diggable" value="T"/>
    <property name="Type" value="Grass"/>
   </properties>
  </tile>
  <tile id="378">
   <properties>
    <property name="Buildable" value="T"/>
    <property name="Diggable" value="T"/>
    <property name="Type" value="Grass"/>
   </properties>
  </tile>
  <tile id="379">
   <properties>
    <property name="Buildable" value="T"/>
    <property name="Diggable" value="T"/>
    <property name="Type" value="Grass"/>
   </properties>
  </tile>
  <tile id="380">
   <properties>
    <property name="Buildable" value="T"/>
    <property name="Diggable" value="T"/>
    <property name="Type" value="Grass"/>
   </properties>
  </tile>
  <tile id="381">
   <properties>
    <property name="Buildable" value="T"/>
    <property name="Diggable" value="T"/>
    <property name="Type" value="Grass"/>
   </properties>
  </tile>
  <tile id="382">
   <properties>
    <property name="Buildable" value="T"/>
    <property name="Diggable" value="T"/>
    <property name="Type" value="Grass"/>
   </properties>
  </tile>
  <tile id="400">
   <properties>
    <property name="Buildable" value="T"/>
    <property name="Diggable" value="T"/>
    <property name="Type" value="Grass"/>
   </properties>
  </tile>
  <tile id="401">
   <properties>
    <property name="Buildable" value="T"/>
    <property name="Diggable" value="T"/>
    <property name="Type" value="Grass"/>
   </properties>
  </tile>
  <tile id="402">
   <properties>
    <property name="Buildable" value="T"/>
    <property name="Diggable" value="T"/>
    <property name="Type" value="Grass"/>
   </properties>
  </tile>
  <tile id="403">
   <properties>
    <property name="Buildable" value="T"/>
    <property name="Diggable" value="T"/>
    <property name="Type" value="Grass"/>
   </properties>
  </tile>
  <tile id="404">
   <properties>
    <property name="Buildable" value="T"/>
    <property name="Diggable" value="T"/>
    <property name="Type" value="Grass"/>
   </properties>
  </tile>
  <tile id="405">
   <properties>
    <property name="Buildable" value="T"/>
    <property name="Diggable" value="T"/>
    <property name="Type" value="Grass"/>
   </properties>
  </tile>
  <tile id="406">
   <properties>
    <property name="Buildable" value="T"/>
    <property name="Diggable" value="T"/>
    <property name="Type" value="Grass"/>
   </properties>
  </tile>
  <tile id="407">
   <properties>
    <property name="Buildable" value="T"/>
    <property name="Diggable" value="T"/>
    <property name="Type" value="Grass"/>
   </properties>
  </tile>
  <tile id="420">
   <properties>
    <property name="Buildable" value="T"/>
    <property name="Diggable" value="T"/>
    <property name="Type" value="Grass"/>
   </properties>
  </tile>
  <tile id="421">
   <properties>
    <property name="Buildable" value="T"/>
    <property name="Diggable" value="T"/>
    <property name="Type" value="Grass"/>
   </properties>
  </tile>
  <tile id="422">
   <properties>
    <property name="Buildable" value="T"/>
    <property name="Diggable" value="T"/>
    <property name="Type" value="Grass"/>
   </properties>
  </tile>
  <tile id="423">
   <properties>
    <property name="Buildable" value="T"/>
    <property name="Diggable" value="T"/>
    <property name="Type" value="Grass"/>
   </properties>
  </tile>
  <tile id="449">
   <properties>
    <property name="Buildable" value="T"/>
    <property name="Diggable" value="T"/>
   </properties>
  </tile>
  <tile id="463">
   <properties>
    <property name="Buildable" value="T"/>
    <property name="Diggable" value="T"/>
    <property name="Type" value="Dirt"/>
   </properties>
  </tile>
  <tile id="488">
   <properties>
    <property name="Buildable" value="T"/>
    <property name="Diggable" value="T"/>
    <property name="Type" value="Dirt"/>
   </properties>
  </tile>
  <tile id="490">
   <properties>
    <property name="Diggable" value="T"/>
    <property name="Type" value="Dirt"/>
   </properties>
  </tile>
  <tile id="513">
   <properties>
    <property name="Buildable" value="T"/>
    <property name="Diggable" value="T"/>
    <property name="Type" value="Dirt"/>
   </properties>
  </tile>
  <tile id="524">
   <properties>
    <property name="Type" value="Dirt"/>
   </properties>
  </tile>
  <tile id="534">
   <properties>
    <property name="Type" value="Dirt"/>
   </properties>
  </tile>
  <tile id="538">
   <properties>
    <property name="Buildable" value="T"/>
   </properties>
  </tile>
  <tile id="558">
   <properties>
    <property name="AllSpawn" value="T"/>
    <property name="Type" value="Dirt"/>
   </properties>
  </tile>
  <tile id="560">
   <properties>
    <property name="Buildable" value="T"/>
    <property name="Diggable" value="T"/>
    <property name="Type" value="Dirt"/>
   </properties>
  </tile>
  <tile id="561">
   <properties>
    <property name="Buildable" value="T"/>
   </properties>
  </tile>
  <tile id="562">
   <properties>
    <property name="Buildable" value="T"/>
   </properties>
  </tile>
  <tile id="563">
   <properties>
    <property name="Buildable" value="T"/>
   </properties>
  </tile>
  <tile id="564">
   <properties>
    <property name="Buildable" value="T"/>
    <property name="Diggable" value="T"/>
    <property name="Type" value="Dirt"/>
   </properties>
  </tile>
  <tile id="567">
   <properties>
    <property name="Buildable" value="T"/>
    <property name="Diggable" value="T"/>
    <property name="Type" value="Grass"/>
   </properties>
  </tile>
  <tile id="568">
   <properties>
    <property name="Buildable" value="T"/>
    <property name="Diggable" value="T"/>
    <property name="Type" value="Grass"/>
   </properties>
  </tile>
  <tile id="569">
   <properties>
    <property name="Buildable" value="T"/>
    <property name="Diggable" value="T"/>
    <property name="Type" value="Grass"/>
   </properties>
  </tile>
  <tile id="570">
   <properties>
    <property name="Buildable" value="T"/>
    <property name="Diggable" value="T"/>
   </properties>
  </tile>
  <tile id="571">
   <properties>
    <property name="NoSpawn" value="T"/>
    <property name="Spawnable" value="F"/>
    <property name="Type" value="Dirt"/>
   </properties>
  </tile>
  <tile id="572">
   <properties>
    <property name="NoSpawn" value="T"/>
    <property name="Spawnable" value="F"/>
    <property name="Type" value="Dirt"/>
   </properties>
  </tile>
  <tile id="573">
   <properties>
    <property name="NoSpawn" value="T"/>
    <property name="Spawnable" value="F"/>
    <property name="Type" value="Dirt"/>
   </properties>
  </tile>
  <tile id="574">
   <properties>
    <property name="NoSpawn" value="T"/>
    <property name="Spawnable" value="F"/>
    <property name="Type" value="Dirt"/>
   </properties>
  </tile>
  <tile id="585">
   <properties>
    <property name="Buildable" value="T"/>
    <property name="Diggable" value="T"/>
    <property name="Type" value="Dirt"/>
   </properties>
  </tile>
  <tile id="586">
   <properties>
    <property name="Buildable" value="T"/>
   </properties>
  </tile>
  <tile id="587">
   <properties>
    <property name="Buildable" value="T"/>
   </properties>
  </tile>
  <tile id="588">
   <properties>
    <property name="Buildable" value="T"/>
   </properties>
  </tile>
  <tile id="589">
   <properties>
    <property name="Buildable" value="T"/>
    <property name="Diggable" value="T"/>
    <property name="Type" value="Dirt"/>
   </properties>
  </tile>
  <tile id="594">
   <properties>
    <property name="Buildable" value="T"/>
    <property name="Diggable" value="T"/>
    <property name="Type" value="Grass"/>
   </properties>
  </tile>
  <tile id="595">
   <properties>
    <property name="Buildable" value="T"/>
    <property name="Diggable" value="T"/>
   </properties>
  </tile>
  <tile id="596">
   <properties>
    <property name="NoSpawn" value="T"/>
    <property name="Spawnable" value="F"/>
    <property name="Type" value="Dirt"/>
   </properties>
  </tile>
  <tile id="597">
   <properties>
    <property name="NoSpawn" value="T"/>
    <property name="Spawnable" value="F"/>
    <property name="Type" value="Dirt"/>
   </properties>
  </tile>
  <tile id="598">
   <properties>
    <property name="NoSpawn" value="T"/>
    <property name="Spawnable" value="F"/>
    <property name="Type" value="Dirt"/>
   </properties>
  </tile>
  <tile id="599">
   <properties>
    <property name="NoSpawn" value="T"/>
    <property name="Spawnable" value="F"/>
    <property name="Type" value="Dirt"/>
   </properties>
  </tile>
  <tile id="603">
   <animation>
    <frame tileid="603" duration="1000"/>
    <frame tileid="1287" duration="1000"/>
   </animation>
  </tile>
  <tile id="604">
   <animation>
    <frame tileid="604" duration="1000"/>
    <frame tileid="1288" duration="1000"/>
   </animation>
  </tile>
  <tile id="610">
   <properties>
    <property name="Buildable" value="T"/>
    <property name="Diggable" value="T"/>
    <property name="Type" value="Dirt"/>
   </properties>
  </tile>
  <tile id="611">
   <properties>
    <property name="Buildable" value="T"/>
   </properties>
  </tile>
  <tile id="612">
   <properties>
    <property name="Buildable" value="T"/>
   </properties>
  </tile>
  <tile id="613">
   <properties>
    <property name="Buildable" value="T"/>
   </properties>
  </tile>
  <tile id="614">
   <properties>
    <property name="Buildable" value="T"/>
    <property name="Diggable" value="T"/>
    <property name="Type" value="Dirt"/>
   </properties>
  </tile>
  <tile id="619">
   <properties>
    <property name="Buildable" value="T"/>
    <property name="Diggable" value="T"/>
    <property name="Type" value="Grass"/>
   </properties>
  </tile>
  <tile id="621">
   <properties>
    <property name="NoSpawn" value="T"/>
    <property name="Spawnable" value="F"/>
    <property name="Type" value="Dirt"/>
   </properties>
  </tile>
  <tile id="622">
   <properties>
    <property name="NoSpawn" value="T"/>
    <property name="Spawnable" value="F"/>
    <property name="Type" value="Dirt"/>
   </properties>
  </tile>
  <tile id="623">
   <properties>
    <property name="NoSpawn" value="T"/>
    <property name="Spawnable" value="F"/>
    <property name="Type" value="Dirt"/>
   </properties>
  </tile>
  <tile id="624">
   <properties>
    <property name="NoSpawn" value="T"/>
    <property name="Spawnable" value="F"/>
    <property name="Type" value="Dirt"/>
   </properties>
  </tile>
  <tile id="708">
   <animation>
    <frame tileid="708" duration="1000"/>
    <frame tileid="1234" duration="1000"/>
   </animation>
  </tile>
  <tile id="709">
   <animation>
    <frame tileid="709" duration="1000"/>
    <frame tileid="1235" duration="1000"/>
   </animation>
  </tile>
  <tile id="710">
   <animation>
    <frame tileid="710" duration="1000"/>
    <frame tileid="1236" duration="1000"/>
   </animation>
  </tile>
  <tile id="735">
   <animation>
    <frame tileid="735" duration="1000"/>
    <frame tileid="1261" duration="1000"/>
   </animation>
  </tile>
  <tile id="758">
   <animation>
    <frame tileid="758" duration="1000"/>
    <frame tileid="1284" duration="1000"/>
   </animation>
  </tile>
  <tile id="779">
   <properties>
    <property name="Passable" value="T"/>
    <property name="Type" value="Wood"/>
   </properties>
  </tile>
  <tile id="780">
   <properties>
    <property name="Passable" value="T"/>
    <property name="Type" value="Wood"/>
   </properties>
  </tile>
  <tile id="781">
   <properties>
    <property name="Passable" value="T"/>
    <property name="Type" value="Wood"/>
   </properties>
  </tile>
  <tile id="782">
   <properties>
    <property name="Passable" value="T"/>
    <property name="Type" value="Wood"/>
   </properties>
  </tile>
  <tile id="809">
   <properties>
    <property name="NPCBarrier" value="T"/>
    <property name="NoSpawn" value="All"/>
    <property name="Type" value="Wood"/>
   </properties>
  </tile>
  <tile id="812">
   <properties>
    <property name="Type" value="Stone"/>
   </properties>
  </tile>
  <tile id="838">
   <properties>
    <property name="NoSpawn" value="T"/>
    <property name="Spawnable" value="F"/>
    <property name="Type" value="Stone"/>
   </properties>
  </tile>
  <tile id="974">
   <properties>
    <property name="NoSpawn" value="All"/>
    <property name="Type" value="Grass"/>
   </properties>
  </tile>
  <tile id="1092">
   <properties>
    <property name="Type" value="Grass"/>
   </properties>
  </tile>
  <tile id="1093">
   <properties>
    <property name="Type" value="Grass"/>
   </properties>
  </tile>
  <tile id="1094">
   <properties>
    <property name="Type" value="Grass"/>
   </properties>
  </tile>
  <tile id="1095">
   <properties>
    <property name="Type" value="Grass"/>
   </properties>
  </tile>
  <tile id="1096">
   <properties>
    <property name="Type" value="Grass"/>
   </properties>
  </tile>
  <tile id="1119">
   <properties>
    <property name="Type" value="Grass"/>
   </properties>
  </tile>
  <tile id="1120">
   <properties>
    <property name="Type" value="Grass"/>
   </properties>
  </tile>
  <tile id="1121">
   <properties>
    <property name="Type" value="Grass"/>
   </properties>
  </tile>
  <tile id="1227">
   <properties>
    <property name="Water" value="T"/>
   </properties>
  </tile>
  <tile id="1228">
   <properties>
    <property name="Water" value="T"/>
   </properties>
  </tile>
  <tile id="1229">
   <properties>
    <property name="Water" value="T"/>
   </properties>
  </tile>
  <tile id="1230">
   <properties>
    <property name="Water" value="T"/>
   </properties>
  </tile>
  <tile id="1231">
   <properties>
    <property name="Water" value="T"/>
   </properties>
  </tile>
  <tile id="1240">
   <properties>
    <property name="Water" value="T"/>
   </properties>
  </tile>
  <tile id="1241">
   <properties>
    <property name="Water" value="T"/>
   </properties>
  </tile>
  <tile id="1242">
   <properties>
    <property name="Water" value="T"/>
   </properties>
  </tile>
  <tile id="1243">
   <properties>
    <property name="Water" value="T"/>
   </properties>
  </tile>
  <tile id="1244">
   <properties>
    <property name="Water" value="T"/>
   </properties>
  </tile>
  <tile id="1245">
   <properties>
    <property name="Water" value="T"/>
   </properties>
  </tile>
  <tile id="1246">
   <properties>
    <property name="Water" value="T"/>
   </properties>
  </tile>
  <tile id="1247">
   <properties>
    <property name="Water" value="T"/>
   </properties>
  </tile>
  <tile id="1248">
   <properties>
    <property name="Water" value="T"/>
   </properties>
  </tile>
  <tile id="1249">
   <properties>
    <property name="Water" value="T"/>
   </properties>
  </tile>
  <tile id="1252">
   <properties>
    <property name="Water" value="T"/>
   </properties>
  </tile>
  <tile id="1253">
   <properties>
    <property name="Water" value="T"/>
   </properties>
  </tile>
  <tile id="1254">
   <properties>
    <property name="Water" value="T"/>
   </properties>
  </tile>
  <tile id="1255">
   <properties>
    <property name="Water" value="T"/>
   </properties>
  </tile>
  <tile id="1256">
   <properties>
    <property name="Water" value="T"/>
   </properties>
  </tile>
  <tile id="1265">
   <properties>
    <property name="Water" value="T"/>
   </properties>
  </tile>
  <tile id="1266">
   <properties>
    <property name="Water" value="T"/>
   </properties>
  </tile>
  <tile id="1267">
   <properties>
    <property name="Water" value="T"/>
   </properties>
  </tile>
  <tile id="1268">
   <properties>
    <property name="Water" value="T"/>
   </properties>
  </tile>
  <tile id="1269">
   <properties>
    <property name="Water" value="T"/>
   </properties>
  </tile>
  <tile id="1270">
   <properties>
    <property name="Water" value="T"/>
   </properties>
  </tile>
  <tile id="1271">
   <properties>
    <property name="Water" value="T"/>
   </properties>
  </tile>
  <tile id="1272">
   <properties>
    <property name="Water" value="T"/>
   </properties>
  </tile>
  <tile id="1273">
   <properties>
    <property name="Water" value="T"/>
   </properties>
  </tile>
  <tile id="1274">
   <properties>
    <property name="Water" value="T"/>
   </properties>
  </tile>
  <tile id="1277">
   <properties>
    <property name="Water" value="T"/>
   </properties>
  </tile>
  <tile id="1278">
   <properties>
    <property name="Water" value="T"/>
   </properties>
  </tile>
  <tile id="1279">
   <properties>
    <property name="Water" value="T"/>
   </properties>
  </tile>
  <tile id="1280">
   <properties>
    <property name="Water" value="T"/>
   </properties>
  </tile>
  <tile id="1281">
   <properties>
    <property name="Water" value="T"/>
   </properties>
  </tile>
  <tile id="1293">
   <animation>
    <frame tileid="1293" duration="500"/>
    <frame tileid="1294" duration="500"/>
    <frame tileid="1295" duration="500"/>
    <frame tileid="1296" duration="500"/>
   </animation>
  </tile>
  <tile id="1297">
   <properties>
    <property name="Water" value="T"/>
   </properties>
  </tile>
  <tile id="1298">
   <properties>
    <property name="Water" value="T"/>
   </properties>
  </tile>
  <tile id="1299">
   <properties>
    <property name="Water" value="T"/>
   </properties>
  </tile>
  <tile id="1302">
   <properties>
    <property name="Water" value="T"/>
   </properties>
  </tile>
  <tile id="1303">
   <properties>
    <property name="Water" value="T"/>
   </properties>
  </tile>
  <tile id="1304">
   <properties>
    <property name="Water" value="T"/>
   </properties>
  </tile>
  <tile id="1305">
   <properties>
    <property name="Water" value="T"/>
   </properties>
  </tile>
  <tile id="1306">
   <properties>
    <property name="Water" value="T"/>
   </properties>
  </tile>
  <tile id="1318">
   <animation>
    <frame tileid="1318" duration="500"/>
    <frame tileid="1319" duration="500"/>
    <frame tileid="1320" duration="500"/>
    <frame tileid="1321" duration="500"/>
   </animation>
  </tile>
  <tile id="1322">
   <properties>
    <property name="Water" value="T"/>
   </properties>
  </tile>
  <tile id="1323">
   <properties>
    <property name="Water" value="T"/>
   </properties>
  </tile>
  <tile id="1324">
   <properties>
    <property name="Water" value="T"/>
   </properties>
  </tile>
  <tile id="1937">
   <properties>
    <property name="NoFurniture" value="T"/>
    <property name="NoSpawn" value="All"/>
    <property name="Type" value="Wood"/>
   </properties>
  </tile>
  <tile id="1938">
   <properties>
    <property name="Type" value="Wood"/>
   </properties>
  </tile>
  <tile id="1962">
   <properties>
    <property name="NoFurniture" value="T"/>
    <property name="NoSpawn" value="All"/>
    <property name="Type" value="Wood"/>
   </properties>
  </tile>
  <tile id="1963">
   <properties>
    <property name="NoFurniture" value="T"/>
    <property name="NoSpawn" value="All"/>
    <property name="Type" value="Wood"/>
   </properties>
  </tile>
  <tile id="1964">
   <properties>
    <property name="Diggable" value="T"/>
    <property name="NoFurniture" value="T"/>
    <property name="NoSpawn" value="All"/>
    <property name="Type" value="Stone"/>
    <property name="placeable" value="F"/>
   </properties>
  </tile>
  <tile id="1965">
   <properties>
    <property name="Diggable" value="T"/>
    <property name="NoFurniture" value="T"/>
    <property name="NoSpawn" value="All"/>
    <property name="Type" value="Stone"/>
    <property name="placeable" value="F"/>
   </properties>
  </tile>
  <tile id="1966">
   <properties>
    <property name="Diggable" value="T"/>
    <property name="NoFurniture" value="T"/>
    <property name="NoSpawn" value="All"/>
    <property name="Type" value="Stone"/>
    <property name="placeable" value="F"/>
   </properties>
  </tile>
 </tileset>
 <tileset firstgid="2040" name="z_spring_island_tilesheet_1" tilewidth="16" tileheight="16" tilecount="1280" columns="32">
  <image source="Tilesheet/spring_island_tilesheet_1.png" width="512" height="640"/>
  <tile id="7">
   <properties>
    <property name="Water" value="T"/>
   </properties>
  </tile>
  <tile id="8">
   <properties>
    <property name="Water" value="T"/>
   </properties>
  </tile>
  <tile id="33">
   <properties>
    <property name="Buildable" value="T"/>
    <property name="Diggable" value="T"/>
    <property name="Type" value="Dirt"/>
   </properties>
  </tile>
  <tile id="34">
   <properties>
    <property name="Buildable" value="T"/>
    <property name="Diggable" value="T"/>
    <property name="Type" value="Dirt"/>
   </properties>
  </tile>
  <tile id="35">
   <properties>
    <property name="Buildable" value="T"/>
    <property name="Diggable" value="T"/>
    <property name="Type" value="Dirt"/>
   </properties>
  </tile>
  <tile id="36">
   <properties>
    <property name="Buildable" value="T"/>
    <property name="Diggable" value="T"/>
    <property name="Type" value="Dirt"/>
   </properties>
  </tile>
  <tile id="37">
   <properties>
    <property name="Buildable" value="T"/>
    <property name="Diggable" value="T"/>
    <property name="Type" value="Dirt"/>
   </properties>
  </tile>
  <tile id="38">
   <properties>
    <property name="Buildable" value="T"/>
    <property name="Diggable" value="T"/>
    <property name="Type" value="Dirt"/>
   </properties>
  </tile>
  <tile id="39">
   <properties>
    <property name="BeachSpawn" value="T"/>
    <property name="Buildable" value="T"/>
    <property name="Diggable" value="T"/>
    <property name="Spawnable" value="T"/>
    <property name="Type" value="Dirt"/>
   </properties>
  </tile>
  <tile id="40">
   <properties>
    <property name="Buildable" value="T"/>
    <property name="Diggable" value="T"/>
    <property name="Type" value="Dirt"/>
   </properties>
  </tile>
  <tile id="41">
   <properties>
    <property name="Buildable" value="T"/>
    <property name="Diggable" value="T"/>
    <property name="Type" value="Dirt"/>
   </properties>
  </tile>
  <tile id="64">
   <properties>
    <property name="BeachSpawn" value="T"/>
    <property name="Buildable" value="T"/>
    <property name="Diggable" value="T"/>
    <property name="Type" value="Dirt"/>
   </properties>
  </tile>
  <tile id="65">
   <properties>
    <property name="BeachSpawn" value="T"/>
    <property name="Buildable" value="T"/>
    <property name="Diggable" value="T"/>
    <property name="Type" value="Dirt"/>
   </properties>
  </tile>
  <tile id="66">
   <properties>
    <property name="BeachSpawn" value="T"/>
    <property name="Buildable" value="T"/>
    <property name="Diggable" value="T"/>
    <property name="Type" value="Dirt"/>
   </properties>
  </tile>
  <tile id="67">
   <properties>
    <property name="BeachSpawn" value="T"/>
    <property name="Buildable" value="T"/>
    <property name="Diggable" value="T"/>
    <property name="Type" value="Dirt"/>
   </properties>
  </tile>
  <tile id="71">
   <properties>
    <property name="Buildable" value="T"/>
    <property name="Diggable" value="T"/>
    <property name="Type" value="Dirt"/>
   </properties>
  </tile>
  <tile id="72">
   <properties>
    <property name="Buildable" value="T"/>
    <property name="Diggable" value="T"/>
    <property name="Type" value="Dirt"/>
   </properties>
  </tile>
  <tile id="73">
   <properties>
    <property name="Buildable" value="T"/>
    <property name="Diggable" value="T"/>
    <property name="Type" value="Dirt"/>
   </properties>
  </tile>
  <tile id="96">
   <properties>
    <property name="BeachSpawn" value="T"/>
    <property name="Buildable" value="T"/>
    <property name="Diggable" value="T"/>
    <property name="Type" value="Dirt"/>
   </properties>
  </tile>
  <tile id="97">
   <properties>
    <property name="BeachSpawn" value="T"/>
    <property name="Buildable" value="T"/>
    <property name="Diggable" value="T"/>
    <property name="Type" value="Dirt"/>
   </properties>
  </tile>
  <tile id="98">
   <properties>
    <property name="BeachSpawn" value="T"/>
    <property name="Buildable" value="T"/>
    <property name="Diggable" value="T"/>
    <property name="Type" value="Dirt"/>
   </properties>
  </tile>
  <tile id="99">
   <properties>
    <property name="BeachSpawn" value="T"/>
    <property name="Buildable" value="T"/>
    <property name="Diggable" value="T"/>
    <property name="Type" value="Dirt"/>
   </properties>
  </tile>
  <tile id="101">
   <properties>
    <property name="Type" value="Stone"/>
   </properties>
  </tile>
  <tile id="103">
   <properties>
    <property name="Buildable" value="T"/>
    <property name="Type" value="Dirt"/>
   </properties>
  </tile>
  <tile id="104">
   <properties>
    <property name="Buildable" value="T"/>
    <property name="Diggable" value="T"/>
    <property name="Type" value="Dirt"/>
   </properties>
  </tile>
  <tile id="128">
   <properties>
    <property name="BeachSpawn" value="T"/>
    <property name="Buildable" value="T"/>
    <property name="Diggable" value="T"/>
    <property name="Type" value="Dirt"/>
   </properties>
  </tile>
  <tile id="129">
   <properties>
    <property name="BeachSpawn" value="T"/>
    <property name="Buildable" value="T"/>
    <property name="Diggable" value="T"/>
    <property name="Type" value="Dirt"/>
   </properties>
  </tile>
  <tile id="130">
   <properties>
    <property name="BeachSpawn" value="T"/>
    <property name="Buildable" value="T"/>
    <property name="Diggable" value="T"/>
    <property name="Type" value="Dirt"/>
   </properties>
  </tile>
  <tile id="131">
   <properties>
    <property name="BeachSpawn" value="T"/>
    <property name="Buildable" value="T"/>
    <property name="Diggable" value="T"/>
    <property name="Type" value="Dirt"/>
   </properties>
  </tile>
  <tile id="135">
   <properties>
    <property name="Water" value="T"/>
   </properties>
  </tile>
  <tile id="160">
   <properties>
    <property name="Water" value="T"/>
   </properties>
  </tile>
  <tile id="161">
   <properties>
    <property name="Water" value="T"/>
   </properties>
  </tile>
  <tile id="162">
   <properties>
    <property name="Water" value="T"/>
   </properties>
  </tile>
  <tile id="163">
   <properties>
    <property name="Water" value="T"/>
   </properties>
  </tile>
  <tile id="164">
   <properties>
    <property name="Water" value="T"/>
   </properties>
  </tile>
  <tile id="165">
   <properties>
    <property name="Water" value="T"/>
   </properties>
  </tile>
  <tile id="166">
   <properties>
    <property name="Water" value="T"/>
   </properties>
  </tile>
  <tile id="167">
   <properties>
    <property name="Water" value="T"/>
   </properties>
  </tile>
  <tile id="168">
   <properties>
    <property name="Water" value="T"/>
   </properties>
  </tile>
  <tile id="173">
   <properties>
    <property name="Buildable" value="T"/>
    <property name="Diggable" value="T"/>
    <property name="Type" value="Dirt"/>
   </properties>
  </tile>
  <tile id="174">
   <properties>
    <property name="Buildable" value="T"/>
    <property name="Diggable" value="T"/>
    <property name="Type" value="Dirt"/>
   </properties>
  </tile>
  <tile id="175">
   <properties>
    <property name="Buildable" value="T"/>
    <property name="Diggable" value="T"/>
    <property name="Type" value="Dirt"/>
   </properties>
  </tile>
  <tile id="176">
   <properties>
    <property name="Buildable" value="T"/>
    <property name="Diggable" value="T"/>
    <property name="Type" value="Dirt"/>
   </properties>
  </tile>
  <tile id="192">
   <properties>
    <property name="Water" value="T"/>
   </properties>
  </tile>
  <tile id="193">
   <properties>
    <property name="Water" value="T"/>
   </properties>
  </tile>
  <tile id="197">
   <properties>
    <property name="Type" value="Dirt"/>
    <property name="Water" value="T"/>
   </properties>
  </tile>
  <tile id="198">
   <properties>
    <property name="Water" value="T"/>
   </properties>
  </tile>
  <tile id="199">
   <properties>
    <property name="Water" value="T"/>
   </properties>
  </tile>
  <tile id="200">
   <properties>
    <property name="Water" value="T"/>
   </properties>
  </tile>
  <tile id="201">
   <properties>
    <property name="Type" value="Stone"/>
   </properties>
  </tile>
  <tile id="202">
   <properties>
    <property name="Type" value="Stone"/>
   </properties>
  </tile>
  <tile id="203">
   <properties>
    <property name="Type" value="Stone"/>
   </properties>
  </tile>
  <tile id="205">
   <properties>
    <property name="Buildable" value="T"/>
    <property name="Diggable" value="T"/>
    <property name="Type" value="Dirt"/>
   </properties>
  </tile>
  <tile id="206">
   <properties>
    <property name="Buildable" value="T"/>
    <property name="Diggable" value="T"/>
    <property name="Type" value="Dirt"/>
   </properties>
  </tile>
  <tile id="207">
   <properties>
    <property name="Buildable" value="T"/>
    <property name="Diggable" value="T"/>
    <property name="Type" value="Dirt"/>
   </properties>
  </tile>
  <tile id="208">
   <properties>
    <property name="Buildable" value="T"/>
    <property name="Diggable" value="T"/>
    <property name="Type" value="Dirt"/>
   </properties>
  </tile>
  <tile id="225">
   <properties>
    <property name="Water" value="T"/>
   </properties>
  </tile>
  <tile id="229">
   <properties>
    <property name="Water" value="T"/>
   </properties>
  </tile>
  <tile id="230">
   <properties>
    <property name="Water" value="T"/>
   </properties>
  </tile>
  <tile id="231">
   <properties>
    <property name="Water" value="T"/>
   </properties>
  </tile>
  <tile id="232">
   <properties>
    <property name="Water" value="T"/>
   </properties>
  </tile>
  <tile id="234">
   <properties>
    <property name="Water" value="T"/>
   </properties>
  </tile>
  <tile id="235">
   <properties>
    <property name="Water" value="T"/>
   </properties>
  </tile>
  <tile id="236">
   <properties>
    <property name="Water" value="T"/>
   </properties>
  </tile>
  <tile id="237">
   <properties>
    <property name="Buildable" value="T"/>
    <property name="Diggable" value="T"/>
    <property name="Type" value="Dirt"/>
   </properties>
  </tile>
  <tile id="238">
   <properties>
    <property name="Buildable" value="T"/>
    <property name="Diggable" value="T"/>
    <property name="Type" value="Dirt"/>
   </properties>
  </tile>
  <tile id="239">
   <properties>
    <property name="Buildable" value="T"/>
    <property name="Type" value="Dirt"/>
   </properties>
  </tile>
  <tile id="240">
   <properties>
    <property name="Buildable" value="T"/>
    <property name="Type" value="Dirt"/>
   </properties>
  </tile>
  <tile id="256">
   <properties>
    <property name="Water" value="T"/>
   </properties>
  </tile>
  <tile id="257">
   <properties>
    <property name="Water" value="T"/>
   </properties>
  </tile>
  <tile id="261">
   <properties>
    <property name="Passable" value="T"/>
    <property name="Type" value="Dirt"/>
   </properties>
   <animation>
    <frame tileid="261" duration="250"/>
    <frame tileid="261" duration="250"/>
    <frame tileid="261" duration="250"/>
    <frame tileid="261" duration="250"/>
    <frame tileid="262" duration="250"/>
    <frame tileid="263" duration="250"/>
    <frame tileid="264" duration="250"/>
    <frame tileid="264" duration="250"/>
    <frame tileid="265" duration="250"/>
    <frame tileid="266" duration="250"/>
    <frame tileid="267" duration="250"/>
    <frame tileid="261" duration="250"/>
    <frame tileid="261" duration="250"/>
   </animation>
  </tile>
  <tile id="262">
   <properties>
    <property name="Passable" value="T"/>
    <property name="Type" value="Dirt"/>
   </properties>
  </tile>
  <tile id="263">
   <properties>
    <property name="Passable" value="T"/>
    <property name="Type" value="Dirt"/>
   </properties>
  </tile>
  <tile id="264">
   <properties>
    <property name="Passable" value="T"/>
    <property name="Type" value="Dirt"/>
   </properties>
  </tile>
  <tile id="265">
   <properties>
    <property name="Passable" value="T"/>
    <property name="Type" value="Dirt"/>
   </properties>
  </tile>
  <tile id="266">
   <properties>
    <property name="Passable" value="T"/>
    <property name="Type" value="Dirt"/>
   </properties>
  </tile>
  <tile id="267">
   <properties>
    <property name="Passable" value="T"/>
    <property name="Type" value="Dirt"/>
   </properties>
  </tile>
  <tile id="268">
   <properties>
    <property name="Water" value="T"/>
   </properties>
  </tile>
  <tile id="273">
   <properties>
    <property name="BeachSpawn" value="T"/>
    <property name="Buildable" value="T"/>
    <property name="Type" value="Dirt"/>
   </properties>
  </tile>
  <tile id="288">
   <properties>
    <property name="Water" value="T"/>
   </properties>
  </tile>
  <tile id="289">
   <properties>
    <property name="Water" value="T"/>
   </properties>
  </tile>
  <tile id="293">
   <properties>
    <property name="Passable" value="T"/>
    <property name="Type" value="Dirt"/>
   </properties>
   <animation>
    <frame tileid="293" duration="250"/>
    <frame tileid="293" duration="250"/>
    <frame tileid="293" duration="250"/>
    <frame tileid="293" duration="250"/>
    <frame tileid="294" duration="250"/>
    <frame tileid="295" duration="250"/>
    <frame tileid="296" duration="250"/>
    <frame tileid="296" duration="250"/>
    <frame tileid="297" duration="250"/>
    <frame tileid="298" duration="250"/>
    <frame tileid="299" duration="250"/>
    <frame tileid="293" duration="250"/>
    <frame tileid="293" duration="250"/>
   </animation>
  </tile>
  <tile id="294">
   <properties>
    <property name="Passable" value="T"/>
    <property name="Type" value="Dirt"/>
   </properties>
  </tile>
  <tile id="295">
   <properties>
    <property name="Passable" value="T"/>
    <property name="Type" value="Dirt"/>
   </properties>
  </tile>
  <tile id="296">
   <properties>
    <property name="Passable" value="T"/>
    <property name="Type" value="Dirt"/>
   </properties>
  </tile>
  <tile id="297">
   <properties>
    <property name="Passable" value="T"/>
    <property name="Type" value="Dirt"/>
   </properties>
  </tile>
  <tile id="298">
   <properties>
    <property name="Passable" value="T"/>
    <property name="Type" value="Dirt"/>
   </properties>
  </tile>
  <tile id="299">
   <properties>
    <property name="Passable" value="T"/>
    <property name="Type" value="Dirt"/>
   </properties>
  </tile>
  <tile id="300">
   <properties>
    <property name="Water" value="T"/>
   </properties>
  </tile>
  <tile id="303">
   <properties>
    <property name="Buildable" value="T"/>
    <property name="Diggable" value="T"/>
    <property name="Type" value="Dirt"/>
   </properties>
  </tile>
  <tile id="304">
   <properties>
    <property name="Type" value="Stone"/>
   </properties>
  </tile>
  <tile id="305">
   <properties>
    <property name="Buildable" value="T"/>
    <property name="Diggable" value="T"/>
    <property name="Type" value="Grass"/>
   </properties>
  </tile>
  <tile id="306">
   <properties>
    <property name="Buildable" value="T"/>
    <property name="Diggable" value="T"/>
   </properties>
  </tile>
  <tile id="320">
   <properties>
    <property name="Water" value="T"/>
   </properties>
  </tile>
  <tile id="321">
   <properties>
    <property name="Water" value="T"/>
   </properties>
  </tile>
  <tile id="325">
   <properties>
    <property name="Passable" value="T"/>
    <property name="Type" value="Dirt"/>
   </properties>
   <animation>
    <frame tileid="325" duration="250"/>
    <frame tileid="325" duration="250"/>
    <frame tileid="325" duration="250"/>
    <frame tileid="325" duration="250"/>
    <frame tileid="326" duration="250"/>
    <frame tileid="327" duration="250"/>
    <frame tileid="328" duration="250"/>
    <frame tileid="328" duration="250"/>
    <frame tileid="329" duration="250"/>
    <frame tileid="330" duration="250"/>
    <frame tileid="331" duration="250"/>
    <frame tileid="325" duration="250"/>
    <frame tileid="325" duration="250"/>
   </animation>
  </tile>
  <tile id="326">
   <properties>
    <property name="Passable" value="T"/>
    <property name="Type" value="Dirt"/>
   </properties>
  </tile>
  <tile id="327">
   <properties>
    <property name="Passable" value="T"/>
    <property name="Type" value="Dirt"/>
   </properties>
  </tile>
  <tile id="328">
   <properties>
    <property name="Passable" value="T"/>
    <property name="Type" value="Dirt"/>
   </properties>
  </tile>
  <tile id="329">
   <properties>
    <property name="Passable" value="T"/>
    <property name="Type" value="Dirt"/>
   </properties>
  </tile>
  <tile id="330">
   <properties>
    <property name="Passable" value="T"/>
    <property name="Type" value="Dirt"/>
   </properties>
  </tile>
  <tile id="331">
   <properties>
    <property name="Passable" value="T"/>
    <property name="Type" value="Dirt"/>
   </properties>
  </tile>
  <tile id="335">
   <properties>
    <property name="Water" value="T"/>
   </properties>
  </tile>
  <tile id="357">
   <properties>
    <property name="Passable" value="T"/>
    <property name="Type" value="Dirt"/>
   </properties>
   <animation>
    <frame tileid="357" duration="250"/>
    <frame tileid="357" duration="250"/>
    <frame tileid="357" duration="250"/>
    <frame tileid="357" duration="250"/>
    <frame tileid="358" duration="250"/>
    <frame tileid="359" duration="250"/>
    <frame tileid="360" duration="250"/>
    <frame tileid="360" duration="250"/>
    <frame tileid="361" duration="250"/>
    <frame tileid="362" duration="250"/>
    <frame tileid="363" duration="250"/>
    <frame tileid="357" duration="250"/>
    <frame tileid="357" duration="250"/>
   </animation>
  </tile>
  <tile id="358">
   <properties>
    <property name="Passable" value="T"/>
    <property name="Type" value="Dirt"/>
   </properties>
  </tile>
  <tile id="359">
   <properties>
    <property name="Passable" value="T"/>
    <property name="Type" value="Dirt"/>
   </properties>
  </tile>
  <tile id="360">
   <properties>
    <property name="Passable" value="T"/>
    <property name="Type" value="Dirt"/>
   </properties>
  </tile>
  <tile id="361">
   <properties>
    <property name="Passable" value="T"/>
    <property name="Type" value="Dirt"/>
   </properties>
  </tile>
  <tile id="362">
   <properties>
    <property name="Passable" value="T"/>
    <property name="Type" value="Dirt"/>
   </properties>
  </tile>
  <tile id="363">
   <properties>
    <property name="Passable" value="T"/>
    <property name="Type" value="Dirt"/>
   </properties>
  </tile>
  <tile id="367">
   <properties>
    <property name="Buildable" value="T"/>
    <property name="Diggable" value="T"/>
    <property name="Type" value="Dirt"/>
   </properties>
  </tile>
  <tile id="368">
   <properties>
    <property name="Water" value="T"/>
   </properties>
  </tile>
  <tile id="389">
   <properties>
    <property name="Passable" value="T"/>
    <property name="Type" value="Dirt"/>
   </properties>
   <animation>
    <frame tileid="389" duration="250"/>
    <frame tileid="389" duration="250"/>
    <frame tileid="389" duration="250"/>
    <frame tileid="389" duration="250"/>
    <frame tileid="390" duration="250"/>
    <frame tileid="391" duration="250"/>
    <frame tileid="392" duration="250"/>
    <frame tileid="392" duration="250"/>
    <frame tileid="393" duration="250"/>
    <frame tileid="394" duration="250"/>
    <frame tileid="395" duration="250"/>
    <frame tileid="389" duration="250"/>
    <frame tileid="389" duration="250"/>
   </animation>
  </tile>
  <tile id="390">
   <properties>
    <property name="Passable" value="T"/>
    <property name="Type" value="Dirt"/>
   </properties>
  </tile>
  <tile id="391">
   <properties>
    <property name="Passable" value="T"/>
    <property name="Type" value="Dirt"/>
   </properties>
  </tile>
  <tile id="392">
   <properties>
    <property name="Passable" value="T"/>
    <property name="Type" value="Dirt"/>
   </properties>
  </tile>
  <tile id="393">
   <properties>
    <property name="Passable" value="T"/>
    <property name="Type" value="Dirt"/>
   </properties>
  </tile>
  <tile id="394">
   <properties>
    <property name="Passable" value="T"/>
    <property name="Type" value="Dirt"/>
   </properties>
  </tile>
  <tile id="395">
   <properties>
    <property name="Passable" value="T"/>
    <property name="Type" value="Dirt"/>
   </properties>
  </tile>
  <tile id="421">
   <properties>
    <property name="Passable" value="T"/>
    <property name="Type" value="Dirt"/>
   </properties>
   <animation>
    <frame tileid="421" duration="250"/>
    <frame tileid="421" duration="250"/>
    <frame tileid="421" duration="250"/>
    <frame tileid="421" duration="250"/>
    <frame tileid="422" duration="250"/>
    <frame tileid="423" duration="250"/>
    <frame tileid="424" duration="250"/>
    <frame tileid="424" duration="250"/>
    <frame tileid="425" duration="250"/>
    <frame tileid="426" duration="250"/>
    <frame tileid="427" duration="250"/>
    <frame tileid="421" duration="250"/>
    <frame tileid="421" duration="250"/>
   </animation>
  </tile>
  <tile id="422">
   <properties>
    <property name="Passable" value="T"/>
    <property name="Type" value="Dirt"/>
   </properties>
  </tile>
  <tile id="423">
   <properties>
    <property name="Passable" value="T"/>
    <property name="Type" value="Dirt"/>
   </properties>
  </tile>
  <tile id="424">
   <properties>
    <property name="Passable" value="T"/>
    <property name="Type" value="Dirt"/>
   </properties>
  </tile>
  <tile id="425">
   <properties>
    <property name="Passable" value="T"/>
    <property name="Type" value="Dirt"/>
   </properties>
  </tile>
  <tile id="426">
   <properties>
    <property name="Passable" value="T"/>
    <property name="Type" value="Dirt"/>
   </properties>
  </tile>
  <tile id="427">
   <properties>
    <property name="Passable" value="T"/>
    <property name="Type" value="Dirt"/>
   </properties>
  </tile>
  <tile id="453">
   <properties>
    <property name="Passable" value="T"/>
    <property name="Type" value="Dirt"/>
   </properties>
   <animation>
    <frame tileid="453" duration="250"/>
    <frame tileid="453" duration="250"/>
    <frame tileid="453" duration="250"/>
    <frame tileid="453" duration="250"/>
    <frame tileid="454" duration="250"/>
    <frame tileid="455" duration="250"/>
    <frame tileid="456" duration="250"/>
    <frame tileid="456" duration="250"/>
    <frame tileid="457" duration="250"/>
    <frame tileid="458" duration="250"/>
    <frame tileid="459" duration="250"/>
    <frame tileid="453" duration="250"/>
    <frame tileid="453" duration="250"/>
   </animation>
  </tile>
  <tile id="454">
   <properties>
    <property name="Passable" value="T"/>
    <property name="Type" value="Dirt"/>
   </properties>
  </tile>
  <tile id="455">
   <properties>
    <property name="Passable" value="T"/>
    <property name="Type" value="Dirt"/>
   </properties>
  </tile>
  <tile id="456">
   <properties>
    <property name="Passable" value="T"/>
    <property name="Type" value="Dirt"/>
   </properties>
  </tile>
  <tile id="457">
   <properties>
    <property name="Passable" value="T"/>
    <property name="Type" value="Dirt"/>
   </properties>
  </tile>
  <tile id="458">
   <properties>
    <property name="Passable" value="T"/>
    <property name="Type" value="Dirt"/>
   </properties>
  </tile>
  <tile id="459">
   <properties>
    <property name="Passable" value="T"/>
    <property name="Type" value="Dirt"/>
   </properties>
  </tile>
  <tile id="485">
   <properties>
    <property name="Passable" value="T"/>
    <property name="Type" value="Dirt"/>
   </properties>
   <animation>
    <frame tileid="485" duration="250"/>
    <frame tileid="485" duration="250"/>
    <frame tileid="485" duration="250"/>
    <frame tileid="485" duration="250"/>
    <frame tileid="486" duration="250"/>
    <frame tileid="487" duration="250"/>
    <frame tileid="488" duration="250"/>
    <frame tileid="488" duration="250"/>
    <frame tileid="489" duration="250"/>
    <frame tileid="490" duration="250"/>
    <frame tileid="491" duration="250"/>
    <frame tileid="485" duration="250"/>
    <frame tileid="485" duration="250"/>
   </animation>
  </tile>
  <tile id="486">
   <properties>
    <property name="Passable" value="T"/>
    <property name="Type" value="Dirt"/>
   </properties>
  </tile>
  <tile id="487">
   <properties>
    <property name="Passable" value="T"/>
    <property name="Type" value="Dirt"/>
   </properties>
  </tile>
  <tile id="488">
   <properties>
    <property name="Passable" value="T"/>
    <property name="Type" value="Dirt"/>
   </properties>
  </tile>
  <tile id="489">
   <properties>
    <property name="Passable" value="T"/>
    <property name="Type" value="Dirt"/>
   </properties>
  </tile>
  <tile id="490">
   <properties>
    <property name="Passable" value="T"/>
    <property name="Type" value="Dirt"/>
   </properties>
  </tile>
  <tile id="491">
   <properties>
    <property name="Passable" value="T"/>
    <property name="Type" value="Dirt"/>
   </properties>
  </tile>
  <tile id="517">
   <properties>
    <property name="Type" value="Wood"/>
   </properties>
  </tile>
  <tile id="518">
   <properties>
    <property name="Type" value="Wood"/>
   </properties>
  </tile>
  <tile id="519">
   <properties>
    <property name="Type" value="Wood"/>
   </properties>
  </tile>
  <tile id="520">
   <properties>
    <property name="Type" value="Wood"/>
   </properties>
  </tile>
  <tile id="521">
   <properties>
    <property name="Type" value="Wood"/>
   </properties>
  </tile>
  <tile id="522">
   <properties>
    <property name="Type" value="Wood"/>
   </properties>
  </tile>
  <tile id="549">
   <properties>
    <property name="Type" value="Wood"/>
   </properties>
  </tile>
  <tile id="550">
   <properties>
    <property name="Type" value="Wood"/>
   </properties>
  </tile>
  <tile id="551">
   <properties>
    <property name="Type" value="Wood"/>
   </properties>
  </tile>
  <tile id="552">
   <properties>
    <property name="Type" value="Wood"/>
   </properties>
  </tile>
  <tile id="553">
   <properties>
    <property name="Type" value="Wood"/>
   </properties>
  </tile>
  <tile id="554">
   <properties>
    <property name="Type" value="Wood"/>
   </properties>
  </tile>
  <tile id="576">
   <properties>
    <property name="Buildable" value="T"/>
    <property name="Diggable" value="T"/>
   </properties>
  </tile>
  <tile id="577">
   <properties>
    <property name="Buildable" value="T"/>
    <property name="Diggable" value="T"/>
   </properties>
  </tile>
  <tile id="580">
   <properties>
    <property name="Buildable" value="T"/>
    <property name="Diggable" value="T"/>
   </properties>
  </tile>
  <tile id="581">
   <properties>
    <property name="Type" value="Wood"/>
   </properties>
  </tile>
  <tile id="582">
   <properties>
    <property name="Type" value="Wood"/>
   </properties>
  </tile>
  <tile id="583">
   <properties>
    <property name="Type" value="Wood"/>
   </properties>
  </tile>
  <tile id="584">
   <properties>
    <property name="Type" value="Wood"/>
   </properties>
  </tile>
  <tile id="585">
   <properties>
    <property name="Type" value="Wood"/>
   </properties>
  </tile>
  <tile id="586">
   <properties>
    <property name="Type" value="Wood"/>
   </properties>
  </tile>
  <tile id="588">
   <properties>
    <property name="Water" value="T"/>
   </properties>
  </tile>
  <tile id="589">
   <properties>
    <property name="Water" value="T"/>
   </properties>
  </tile>
  <tile id="590">
   <properties>
    <property name="Water" value="T"/>
   </properties>
  </tile>
  <tile id="591">
   <properties>
    <property name="Water" value="T"/>
   </properties>
  </tile>
  <tile id="592">
   <properties>
    <property name="Water" value="T"/>
   </properties>
  </tile>
  <tile id="593">
   <properties>
    <property name="Water" value="T"/>
   </properties>
  </tile>
  <tile id="608">
   <properties>
    <property name="Buildable" value="T"/>
    <property name="Diggable" value="T"/>
    <property name="Type" value="Grass"/>
   </properties>
  </tile>
  <tile id="609">
   <properties>
    <property name="Buildable" value="T"/>
    <property name="Diggable" value="T"/>
   </properties>
  </tile>
  <tile id="610">
   <properties>
    <property name="Buildable" value="T"/>
    <property name="Diggable" value="T"/>
    <property name="Type" value="Dirt"/>
   </properties>
  </tile>
  <tile id="611">
   <properties>
    <property name="Buildable" value="T"/>
    <property name="Diggable" value="T"/>
    <property name="Type" value="Dirt"/>
   </properties>
  </tile>
  <tile id="612">
   <properties>
    <property name="Buildable" value="T"/>
    <property name="Diggable" value="T"/>
   </properties>
  </tile>
  <tile id="613">
   <properties>
    <property name="Buildable" value="T"/>
    <property name="Diggable" value="T"/>
    <property name="Type" value="Grass"/>
   </properties>
  </tile>
  <tile id="614">
   <properties>
    <property name="Buildable" value="T"/>
    <property name="Diggable" value="T"/>
   </properties>
  </tile>
  <tile id="615">
   <properties>
    <property name="Buildable" value="T"/>
    <property name="Diggable" value="T"/>
   </properties>
  </tile>
  <tile id="619">
   <properties>
    <property name="Water" value="T"/>
   </properties>
  </tile>
  <tile id="620">
   <properties>
    <property name="Water" value="T"/>
   </properties>
  </tile>
  <tile id="621">
   <properties>
    <property name="Water" value="T"/>
   </properties>
  </tile>
  <tile id="622">
   <properties>
    <property name="Water" value="T"/>
   </properties>
  </tile>
  <tile id="623">
   <properties>
    <property name="Water" value="T"/>
   </properties>
  </tile>
  <tile id="624">
   <properties>
    <property name="Water" value="T"/>
   </properties>
  </tile>
  <tile id="625">
   <properties>
    <property name="Water" value="T"/>
   </properties>
  </tile>
  <tile id="626">
   <properties>
    <property name="Water" value="T"/>
   </properties>
  </tile>
  <tile id="640">
   <properties>
    <property name="Buildable" value="T"/>
    <property name="Diggable" value="T"/>
    <property name="Type" value="Grass"/>
   </properties>
  </tile>
  <tile id="641">
   <properties>
    <property name="Buildable" value="T"/>
    <property name="Diggable" value="T"/>
   </properties>
  </tile>
  <tile id="642">
   <properties>
    <property name="Buildable" value="T"/>
    <property name="Diggable" value="T"/>
    <property name="Type" value="Dirt"/>
   </properties>
  </tile>
  <tile id="643">
   <properties>
    <property name="Buildable" value="T"/>
    <property name="Diggable" value="T"/>
    <property name="Type" value="Grass"/>
   </properties>
  </tile>
  <tile id="644">
   <properties>
    <property name="Buildable" value="T"/>
    <property name="Diggable" value="T"/>
   </properties>
  </tile>
  <tile id="645">
   <properties>
    <property name="Buildable" value="T"/>
    <property name="Diggable" value="T"/>
   </properties>
  </tile>
  <tile id="646">
   <properties>
    <property name="Buildable" value="T"/>
    <property name="Diggable" value="T"/>
   </properties>
  </tile>
  <tile id="647">
   <properties>
    <property name="Buildable" value="T"/>
    <property name="Diggable" value="T"/>
   </properties>
  </tile>
  <tile id="648">
   <properties>
    <property name="Diggable" value="T"/>
   </properties>
  </tile>
  <tile id="649">
   <properties>
    <property name="Diggable" value="T"/>
   </properties>
  </tile>
  <tile id="651">
   <properties>
    <property name="Passable" value="T"/>
   </properties>
   <animation>
    <frame tileid="651" duration="250"/>
    <frame tileid="651" duration="250"/>
    <frame tileid="651" duration="250"/>
    <frame tileid="651" duration="250"/>
    <frame tileid="652" duration="250"/>
    <frame tileid="653" duration="250"/>
    <frame tileid="654" duration="250"/>
    <frame tileid="654" duration="250"/>
    <frame tileid="655" duration="250"/>
    <frame tileid="656" duration="250"/>
    <frame tileid="657" duration="250"/>
    <frame tileid="651" duration="250"/>
    <frame tileid="651" duration="250"/>
   </animation>
  </tile>
  <tile id="652">
   <properties>
    <property name="Passable" value="T"/>
   </properties>
  </tile>
  <tile id="653">
   <properties>
    <property name="Passable" value="T"/>
   </properties>
  </tile>
  <tile id="654">
   <properties>
    <property name="Passable" value="T"/>
   </properties>
  </tile>
  <tile id="655">
   <properties>
    <property name="Passable" value="T"/>
   </properties>
  </tile>
  <tile id="656">
   <properties>
    <property name="Passable" value="T"/>
   </properties>
  </tile>
  <tile id="657">
   <properties>
    <property name="Passable" value="T"/>
   </properties>
  </tile>
  <tile id="658">
   <properties>
    <property name="Water" value="T"/>
   </properties>
  </tile>
  <tile id="659">
   <properties>
    <property name="Water" value="T"/>
   </properties>
  </tile>
  <tile id="660">
   <properties>
    <property name="Diggable" value="T"/>
   </properties>
  </tile>
  <tile id="672">
   <properties>
    <property name="Buildable" value="T"/>
    <property name="Diggable" value="T"/>
   </properties>
  </tile>
  <tile id="673">
   <properties>
    <property name="Buildable" value="T"/>
    <property name="Diggable" value="T"/>
    <property name="Type" value="Dirt"/>
   </properties>
  </tile>
  <tile id="674">
   <properties>
    <property name="Buildable" value="T"/>
    <property name="Diggable" value="T"/>
    <property name="Type" value="Dirt"/>
   </properties>
  </tile>
  <tile id="675">
   <properties>
    <property name="Buildable" value="T"/>
    <property name="Diggable" value="T"/>
   </properties>
  </tile>
  <tile id="676">
   <properties>
    <property name="Buildable" value="T"/>
    <property name="Diggable" value="T"/>
   </properties>
  </tile>
  <tile id="677">
   <properties>
    <property name="Buildable" value="T"/>
    <property name="Diggable" value="T"/>
   </properties>
  </tile>
  <tile id="678">
   <properties>
    <property name="Buildable" value="T"/>
    <property name="Diggable" value="T"/>
   </properties>
  </tile>
  <tile id="679">
   <properties>
    <property name="Buildable" value="T"/>
    <property name="Diggable" value="T"/>
   </properties>
  </tile>
  <tile id="680">
   <properties>
    <property name="Diggable" value="T"/>
   </properties>
  </tile>
  <tile id="683">
   <properties>
    <property name="Passable" value="T"/>
   </properties>
   <animation>
    <frame tileid="683" duration="250"/>
    <frame tileid="683" duration="250"/>
    <frame tileid="683" duration="250"/>
    <frame tileid="683" duration="250"/>
    <frame tileid="684" duration="250"/>
    <frame tileid="685" duration="250"/>
    <frame tileid="686" duration="250"/>
    <frame tileid="686" duration="250"/>
    <frame tileid="687" duration="250"/>
    <frame tileid="688" duration="250"/>
    <frame tileid="689" duration="250"/>
    <frame tileid="683" duration="250"/>
    <frame tileid="683" duration="250"/>
   </animation>
  </tile>
  <tile id="684">
   <properties>
    <property name="Passable" value="T"/>
   </properties>
  </tile>
  <tile id="685">
   <properties>
    <property name="Passable" value="T"/>
   </properties>
  </tile>
  <tile id="686">
   <properties>
    <property name="Passable" value="T"/>
   </properties>
  </tile>
  <tile id="687">
   <properties>
    <property name="Passable" value="T"/>
   </properties>
  </tile>
  <tile id="688">
   <properties>
    <property name="Passable" value="T"/>
   </properties>
  </tile>
  <tile id="689">
   <properties>
    <property name="Passable" value="T"/>
   </properties>
  </tile>
  <tile id="690">
   <properties>
    <property name="Water" value="T"/>
   </properties>
  </tile>
  <tile id="692">
   <properties>
    <property name="Diggable" value="T"/>
   </properties>
  </tile>
  <tile id="693">
   <properties>
    <property name="Diggable" value="T"/>
   </properties>
  </tile>
  <tile id="704">
   <properties>
    <property name="Buildable" value="T"/>
    <property name="Diggable" value="T"/>
    <property name="Type" value="Grass"/>
   </properties>
  </tile>
  <tile id="705">
   <properties>
    <property name="Buildable" value="T"/>
    <property name="Diggable" value="T"/>
   </properties>
  </tile>
  <tile id="706">
   <properties>
    <property name="Buildable" value="T"/>
    <property name="Diggable" value="T"/>
    <property name="Type" value="Dirt"/>
   </properties>
  </tile>
  <tile id="707">
   <properties>
    <property name="Buildable" value="T"/>
    <property name="Diggable" value="T"/>
    <property name="Type" value="Grass"/>
   </properties>
  </tile>
  <tile id="712">
   <properties>
    <property name="Diggable" value="T"/>
   </properties>
  </tile>
  <tile id="715">
   <properties>
    <property name="Passable" value="T"/>
   </properties>
   <animation>
    <frame tileid="715" duration="250"/>
    <frame tileid="715" duration="250"/>
    <frame tileid="715" duration="250"/>
    <frame tileid="715" duration="250"/>
    <frame tileid="716" duration="250"/>
    <frame tileid="717" duration="250"/>
    <frame tileid="718" duration="250"/>
    <frame tileid="718" duration="250"/>
    <frame tileid="719" duration="250"/>
    <frame tileid="720" duration="250"/>
    <frame tileid="721" duration="250"/>
    <frame tileid="715" duration="250"/>
    <frame tileid="715" duration="250"/>
   </animation>
  </tile>
  <tile id="716">
   <properties>
    <property name="Passable" value="T"/>
   </properties>
  </tile>
  <tile id="717">
   <properties>
    <property name="Passable" value="T"/>
   </properties>
  </tile>
  <tile id="718">
   <properties>
    <property name="Passable" value="T"/>
   </properties>
  </tile>
  <tile id="719">
   <properties>
    <property name="Passable" value="T"/>
   </properties>
  </tile>
  <tile id="720">
   <properties>
    <property name="Passable" value="T"/>
   </properties>
  </tile>
  <tile id="721">
   <properties>
    <property name="Passable" value="T"/>
   </properties>
  </tile>
  <tile id="736">
   <properties>
    <property name="Buildable" value="T"/>
    <property name="Diggable" value="T"/>
   </properties>
  </tile>
  <tile id="744">
   <properties>
    <property name="Passable" value="T"/>
   </properties>
   <animation>
    <frame tileid="744" duration="250"/>
    <frame tileid="744" duration="250"/>
    <frame tileid="744" duration="250"/>
    <frame tileid="744" duration="250"/>
    <frame tileid="745" duration="250"/>
    <frame tileid="746" duration="250"/>
    <frame tileid="746" duration="250"/>
    <frame tileid="746" duration="250"/>
    <frame tileid="746" duration="250"/>
    <frame tileid="745" duration="250"/>
    <frame tileid="744" duration="250"/>
    <frame tileid="744" duration="250"/>
    <frame tileid="744" duration="250"/>
   </animation>
  </tile>
  <tile id="745">
   <properties>
    <property name="Passable" value="T"/>
   </properties>
  </tile>
  <tile id="746">
   <properties>
    <property name="Passable" value="T"/>
   </properties>
  </tile>
  <tile id="747">
   <properties>
    <property name="Passable" value="T"/>
   </properties>
   <animation>
    <frame tileid="747" duration="250"/>
    <frame tileid="747" duration="250"/>
    <frame tileid="747" duration="250"/>
    <frame tileid="747" duration="250"/>
    <frame tileid="748" duration="250"/>
    <frame tileid="749" duration="250"/>
    <frame tileid="750" duration="250"/>
    <frame tileid="750" duration="250"/>
    <frame tileid="751" duration="250"/>
    <frame tileid="752" duration="250"/>
    <frame tileid="753" duration="250"/>
    <frame tileid="747" duration="250"/>
    <frame tileid="747" duration="250"/>
   </animation>
  </tile>
  <tile id="748">
   <properties>
    <property name="Passable" value="T"/>
   </properties>
  </tile>
  <tile id="749">
   <properties>
    <property name="Passable" value="T"/>
   </properties>
  </tile>
  <tile id="750">
   <properties>
    <property name="Passable" value="T"/>
   </properties>
  </tile>
  <tile id="751">
   <properties>
    <property name="Passable" value="T"/>
   </properties>
  </tile>
  <tile id="752">
   <properties>
    <property name="Passable" value="T"/>
   </properties>
  </tile>
  <tile id="753">
   <properties>
    <property name="Passable" value="T"/>
   </properties>
  </tile>
  <tile id="768">
   <properties>
    <property name="Buildable" value="T"/>
    <property name="Diggable" value="T"/>
    <property name="Type" value="Grass"/>
   </properties>
  </tile>
  <tile id="776">
   <properties>
    <property name="Passable" value="T"/>
   </properties>
   <animation>
    <frame tileid="776" duration="250"/>
    <frame tileid="776" duration="250"/>
    <frame tileid="776" duration="250"/>
    <frame tileid="776" duration="250"/>
    <frame tileid="777" duration="250"/>
    <frame tileid="778" duration="250"/>
    <frame tileid="778" duration="250"/>
    <frame tileid="778" duration="250"/>
    <frame tileid="778" duration="250"/>
    <frame tileid="777" duration="250"/>
    <frame tileid="776" duration="250"/>
    <frame tileid="776" duration="250"/>
    <frame tileid="776" duration="250"/>
   </animation>
  </tile>
  <tile id="777">
   <properties>
    <property name="Passable" value="T"/>
   </properties>
  </tile>
  <tile id="778">
   <properties>
    <property name="Passable" value="T"/>
   </properties>
  </tile>
  <tile id="779">
   <properties>
    <property name="Type" value="Wood"/>
   </properties>
  </tile>
  <tile id="800">
   <properties>
    <property name="Buildable" value="T"/>
    <property name="Diggable" value="T"/>
   </properties>
  </tile>
  <tile id="811">
   <properties>
    <property name="Type" value="Wood"/>
   </properties>
  </tile>
  <tile id="843">
   <properties>
    <property name="Type" value="Wood"/>
   </properties>
  </tile>
  <tile id="948">
   <properties>
    <property name="Water" value="T"/>
   </properties>
  </tile>
  <tile id="949">
   <properties>
    <property name="Water" value="T"/>
   </properties>
  </tile>
  <tile id="980">
   <properties>
    <property name="Water" value="T"/>
   </properties>
  </tile>
  <tile id="981">
   <properties>
    <property name="Water" value="T"/>
   </properties>
  </tile>
  <tile id="992">
   <properties>
    <property name="Passable" value="T"/>
    <property name="Type" value="Wood"/>
   </properties>
  </tile>
  <tile id="993">
   <properties>
    <property name="Passable" value="T"/>
    <property name="Type" value="Wood"/>
   </properties>
  </tile>
  <tile id="994">
   <properties>
    <property name="Passable" value="T"/>
   </properties>
  </tile>
  <tile id="995">
   <properties>
    <property name="Passable" value="T"/>
   </properties>
  </tile>
  <tile id="996">
   <properties>
    <property name="Passable" value="T"/>
    <property name="Type" value="Wood"/>
   </properties>
  </tile>
  <tile id="997">
   <properties>
    <property name="Passable" value="T"/>
    <property name="Type" value="Wood"/>
   </properties>
  </tile>
  <tile id="1012">
   <animation>
    <frame tileid="1012" duration="1000"/>
    <frame tileid="756" duration="1000"/>
   </animation>
  </tile>
  <tile id="1013">
   <animation>
    <frame tileid="1013" duration="1000"/>
    <frame tileid="757" duration="1000"/>
   </animation>
  </tile>
  <tile id="1024">
   <properties>
    <property name="Type" value="Dirt"/>
   </properties>
  </tile>
  <tile id="1025">
   <properties>
    <property name="Type" value="Dirt"/>
   </properties>
  </tile>
  <tile id="1026">
   <properties>
    <property name="Type" value="Dirt"/>
   </properties>
  </tile>
  <tile id="1027">
   <properties>
    <property name="Type" value="Dirt"/>
   </properties>
  </tile>
  <tile id="1028">
   <properties>
    <property name="Type" value="Dirt"/>
   </properties>
  </tile>
  <tile id="1056">
   <properties>
    <property name="Type" value="Dirt"/>
   </properties>
  </tile>
  <tile id="1057">
   <properties>
    <property name="Type" value="Dirt"/>
   </properties>
  </tile>
  <tile id="1058">
   <properties>
    <property name="Type" value="Dirt"/>
   </properties>
  </tile>
  <tile id="1059">
   <properties>
    <property name="Type" value="Dirt"/>
   </properties>
  </tile>
  <tile id="1216">
   <properties>
    <property name="Type" value="Wood"/>
   </properties>
  </tile>
  <tile id="1217">
   <properties>
    <property name="Type" value="Wood"/>
   </properties>
  </tile>
  <tile id="1218">
   <properties>
    <property name="Type" value="Wood"/>
   </properties>
  </tile>
  <tile id="1219">
   <properties>
    <property name="Type" value="Wood"/>
   </properties>
  </tile>
  <tile id="1220">
   <properties>
    <property name="Type" value="Wood"/>
   </properties>
  </tile>
  <tile id="1221">
   <properties>
    <property name="Type" value="Wood"/>
   </properties>
  </tile>
  <tile id="1222">
   <properties>
    <property name="Type" value="Wood"/>
   </properties>
  </tile>
  <tile id="1238">
   <properties>
    <property name="Passable" value="T"/>
   </properties>
   <animation>
    <frame tileid="1238" duration="250"/>
    <frame tileid="1238" duration="250"/>
    <frame tileid="1238" duration="250"/>
    <frame tileid="1238" duration="250"/>
    <frame tileid="1239" duration="250"/>
    <frame tileid="1240" duration="250"/>
    <frame tileid="1241" duration="250"/>
    <frame tileid="1241" duration="250"/>
    <frame tileid="1242" duration="250"/>
    <frame tileid="1243" duration="250"/>
    <frame tileid="1244" duration="250"/>
    <frame tileid="1238" duration="250"/>
    <frame tileid="1238" duration="250"/>
   </animation>
  </tile>
  <tile id="1239">
   <properties>
    <property name="Passable" value="T"/>
   </properties>
  </tile>
  <tile id="1240">
   <properties>
    <property name="Passable" value="T"/>
   </properties>
  </tile>
  <tile id="1241">
   <properties>
    <property name="Passable" value="T"/>
   </properties>
  </tile>
  <tile id="1242">
   <properties>
    <property name="Passable" value="T"/>
   </properties>
  </tile>
  <tile id="1243">
   <properties>
    <property name="Passable" value="T"/>
   </properties>
  </tile>
  <tile id="1244">
   <properties>
    <property name="Passable" value="T"/>
   </properties>
  </tile>
  <tile id="1250">
   <properties>
    <property name="Type" value="Wood"/>
   </properties>
  </tile>
  <tile id="1251">
   <properties>
    <property name="Type" value="Wood"/>
   </properties>
  </tile>
  <tile id="1252">
   <properties>
    <property name="Type" value="Wood"/>
   </properties>
  </tile>
  <tile id="1270">
   <properties>
    <property name="Passable" value="T"/>
   </properties>
   <animation>
    <frame tileid="1270" duration="250"/>
    <frame tileid="1270" duration="250"/>
    <frame tileid="1270" duration="250"/>
    <frame tileid="1270" duration="250"/>
    <frame tileid="1271" duration="250"/>
    <frame tileid="1272" duration="250"/>
    <frame tileid="1273" duration="250"/>
    <frame tileid="1273" duration="250"/>
    <frame tileid="1274" duration="250"/>
    <frame tileid="1275" duration="250"/>
    <frame tileid="1276" duration="250"/>
    <frame tileid="1270" duration="250"/>
    <frame tileid="1270" duration="250"/>
   </animation>
  </tile>
  <tile id="1271">
   <properties>
    <property name="Passable" value="T"/>
   </properties>
  </tile>
  <tile id="1272">
   <properties>
    <property name="Passable" value="T"/>
   </properties>
  </tile>
  <tile id="1273">
   <properties>
    <property name="Passable" value="T"/>
   </properties>
  </tile>
  <tile id="1274">
   <properties>
    <property name="Passable" value="T"/>
   </properties>
  </tile>
  <tile id="1275">
   <properties>
    <property name="Passable" value="T"/>
   </properties>
  </tile>
  <tile id="1276">
   <properties>
    <property name="Passable" value="T"/>
   </properties>
  </tile>
 </tileset>
 <tileset firstgid="3320" name="zz_spring_Waterfalls" tilewidth="16" tileheight="16" tilecount="900" columns="36">
  <image source="Tilesheet/spring_Waterfalls.png" width="576" height="400"/>
  <tile id="1">
   <animation>
    <frame tileid="1" duration="250"/>
    <frame tileid="5" duration="250"/>
    <frame tileid="9" duration="250"/>
    <frame tileid="13" duration="250"/>
    <frame tileid="17" duration="250"/>
    <frame tileid="21" duration="250"/>
    <frame tileid="25" duration="250"/>
    <frame tileid="29" duration="250"/>
   </animation>
  </tile>
  <tile id="2">
   <animation>
    <frame tileid="2" duration="250"/>
    <frame tileid="6" duration="250"/>
    <frame tileid="10" duration="250"/>
    <frame tileid="14" duration="250"/>
    <frame tileid="18" duration="250"/>
    <frame tileid="22" duration="250"/>
    <frame tileid="26" duration="250"/>
    <frame tileid="30" duration="250"/>
   </animation>
  </tile>
  <tile id="37">
   <animation>
    <frame tileid="37" duration="250"/>
    <frame tileid="41" duration="250"/>
    <frame tileid="45" duration="250"/>
    <frame tileid="49" duration="250"/>
    <frame tileid="53" duration="250"/>
    <frame tileid="57" duration="250"/>
    <frame tileid="61" duration="250"/>
    <frame tileid="65" duration="250"/>
   </animation>
  </tile>
  <tile id="38">
   <animation>
    <frame tileid="38" duration="250"/>
    <frame tileid="42" duration="250"/>
    <frame tileid="46" duration="250"/>
    <frame tileid="50" duration="250"/>
    <frame tileid="54" duration="250"/>
    <frame tileid="58" duration="250"/>
    <frame tileid="62" duration="250"/>
    <frame tileid="66" duration="250"/>
   </animation>
  </tile>
  <tile id="72">
   <animation>
    <frame tileid="72" duration="250"/>
    <frame tileid="76" duration="250"/>
    <frame tileid="80" duration="250"/>
    <frame tileid="84" duration="250"/>
    <frame tileid="88" duration="250"/>
    <frame tileid="92" duration="250"/>
    <frame tileid="96" duration="250"/>
    <frame tileid="100" duration="250"/>
   </animation>
  </tile>
  <tile id="73">
   <animation>
    <frame tileid="73" duration="250"/>
    <frame tileid="77" duration="250"/>
    <frame tileid="81" duration="250"/>
    <frame tileid="85" duration="250"/>
    <frame tileid="89" duration="250"/>
    <frame tileid="93" duration="250"/>
    <frame tileid="97" duration="250"/>
    <frame tileid="101" duration="250"/>
   </animation>
  </tile>
  <tile id="74">
   <animation>
    <frame tileid="74" duration="250"/>
    <frame tileid="78" duration="250"/>
    <frame tileid="82" duration="250"/>
    <frame tileid="86" duration="250"/>
    <frame tileid="90" duration="250"/>
    <frame tileid="94" duration="250"/>
    <frame tileid="98" duration="250"/>
    <frame tileid="102" duration="250"/>
   </animation>
  </tile>
  <tile id="75">
   <animation>
    <frame tileid="75" duration="250"/>
    <frame tileid="79" duration="250"/>
    <frame tileid="83" duration="250"/>
    <frame tileid="87" duration="250"/>
    <frame tileid="91" duration="250"/>
    <frame tileid="95" duration="250"/>
    <frame tileid="99" duration="250"/>
    <frame tileid="103" duration="250"/>
   </animation>
  </tile>
  <tile id="108">
   <animation>
    <frame tileid="108" duration="250"/>
    <frame tileid="112" duration="250"/>
    <frame tileid="116" duration="250"/>
    <frame tileid="120" duration="250"/>
    <frame tileid="124" duration="250"/>
    <frame tileid="128" duration="250"/>
    <frame tileid="132" duration="250"/>
    <frame tileid="136" duration="250"/>
   </animation>
  </tile>
  <tile id="109">
   <animation>
    <frame tileid="109" duration="250"/>
    <frame tileid="113" duration="250"/>
    <frame tileid="117" duration="250"/>
    <frame tileid="121" duration="250"/>
    <frame tileid="125" duration="250"/>
    <frame tileid="129" duration="250"/>
    <frame tileid="133" duration="250"/>
    <frame tileid="137" duration="250"/>
   </animation>
  </tile>
  <tile id="110">
   <animation>
    <frame tileid="110" duration="250"/>
    <frame tileid="114" duration="250"/>
    <frame tileid="118" duration="250"/>
    <frame tileid="122" duration="250"/>
    <frame tileid="126" duration="250"/>
    <frame tileid="130" duration="250"/>
    <frame tileid="134" duration="250"/>
    <frame tileid="138" duration="250"/>
   </animation>
  </tile>
  <tile id="111">
   <animation>
    <frame tileid="111" duration="250"/>
    <frame tileid="115" duration="250"/>
    <frame tileid="119" duration="250"/>
    <frame tileid="123" duration="250"/>
    <frame tileid="127" duration="250"/>
    <frame tileid="131" duration="250"/>
    <frame tileid="135" duration="250"/>
    <frame tileid="139" duration="250"/>
   </animation>
  </tile>
  <tile id="145">
   <animation>
    <frame tileid="145" duration="250"/>
    <frame tileid="151" duration="250"/>
    <frame tileid="157" duration="250"/>
    <frame tileid="163" duration="250"/>
    <frame tileid="169" duration="250"/>
    <frame tileid="175" duration="250"/>
    <frame tileid="397" duration="250"/>
    <frame tileid="403" duration="250"/>
    <frame tileid="409" duration="250"/>
    <frame tileid="415" duration="250"/>
    <frame tileid="421" duration="250"/>
    <frame tileid="427" duration="250"/>
    <frame tileid="649" duration="250"/>
    <frame tileid="655" duration="250"/>
    <frame tileid="661" duration="250"/>
    <frame tileid="667" duration="250"/>
    <frame tileid="673" duration="250"/>
   </animation>
  </tile>
  <tile id="146">
   <animation>
    <frame tileid="146" duration="250"/>
    <frame tileid="152" duration="250"/>
    <frame tileid="158" duration="250"/>
    <frame tileid="164" duration="250"/>
    <frame tileid="170" duration="250"/>
    <frame tileid="176" duration="250"/>
    <frame tileid="398" duration="250"/>
    <frame tileid="404" duration="250"/>
    <frame tileid="410" duration="250"/>
    <frame tileid="416" duration="250"/>
    <frame tileid="422" duration="250"/>
    <frame tileid="428" duration="250"/>
    <frame tileid="650" duration="250"/>
    <frame tileid="656" duration="250"/>
    <frame tileid="662" duration="250"/>
    <frame tileid="668" duration="250"/>
    <frame tileid="674" duration="250"/>
   </animation>
  </tile>
  <tile id="147">
   <animation>
    <frame tileid="147" duration="250"/>
    <frame tileid="153" duration="250"/>
    <frame tileid="159" duration="250"/>
    <frame tileid="165" duration="250"/>
    <frame tileid="171" duration="250"/>
    <frame tileid="177" duration="250"/>
    <frame tileid="399" duration="250"/>
    <frame tileid="405" duration="250"/>
    <frame tileid="411" duration="250"/>
    <frame tileid="417" duration="250"/>
    <frame tileid="423" duration="250"/>
    <frame tileid="429" duration="250"/>
    <frame tileid="651" duration="250"/>
    <frame tileid="657" duration="250"/>
    <frame tileid="663" duration="250"/>
    <frame tileid="669" duration="250"/>
    <frame tileid="675" duration="250"/>
   </animation>
  </tile>
  <tile id="148">
   <animation>
    <frame tileid="148" duration="250"/>
    <frame tileid="154" duration="250"/>
    <frame tileid="160" duration="250"/>
    <frame tileid="166" duration="250"/>
    <frame tileid="172" duration="250"/>
    <frame tileid="178" duration="250"/>
    <frame tileid="400" duration="250"/>
    <frame tileid="406" duration="250"/>
    <frame tileid="412" duration="250"/>
    <frame tileid="418" duration="250"/>
    <frame tileid="424" duration="250"/>
    <frame tileid="430" duration="250"/>
    <frame tileid="652" duration="250"/>
    <frame tileid="658" duration="250"/>
    <frame tileid="664" duration="250"/>
    <frame tileid="670" duration="250"/>
    <frame tileid="676" duration="250"/>
   </animation>
  </tile>
  <tile id="181">
   <animation>
    <frame tileid="181" duration="250"/>
    <frame tileid="187" duration="250"/>
    <frame tileid="193" duration="250"/>
    <frame tileid="199" duration="250"/>
    <frame tileid="205" duration="250"/>
    <frame tileid="211" duration="250"/>
    <frame tileid="433" duration="250"/>
    <frame tileid="439" duration="250"/>
    <frame tileid="445" duration="250"/>
    <frame tileid="451" duration="250"/>
    <frame tileid="457" duration="250"/>
    <frame tileid="463" duration="250"/>
    <frame tileid="685" duration="250"/>
    <frame tileid="691" duration="250"/>
    <frame tileid="697" duration="250"/>
    <frame tileid="703" duration="250"/>
    <frame tileid="709" duration="250"/>
   </animation>
  </tile>
  <tile id="182">
   <animation>
    <frame tileid="182" duration="250"/>
    <frame tileid="188" duration="250"/>
    <frame tileid="194" duration="250"/>
    <frame tileid="200" duration="250"/>
    <frame tileid="206" duration="250"/>
    <frame tileid="212" duration="250"/>
    <frame tileid="434" duration="250"/>
    <frame tileid="440" duration="250"/>
    <frame tileid="446" duration="250"/>
    <frame tileid="452" duration="250"/>
    <frame tileid="458" duration="250"/>
    <frame tileid="464" duration="250"/>
    <frame tileid="686" duration="250"/>
    <frame tileid="692" duration="250"/>
    <frame tileid="698" duration="250"/>
    <frame tileid="704" duration="250"/>
    <frame tileid="710" duration="250"/>
   </animation>
  </tile>
  <tile id="183">
   <animation>
    <frame tileid="183" duration="250"/>
    <frame tileid="189" duration="250"/>
    <frame tileid="195" duration="250"/>
    <frame tileid="201" duration="250"/>
    <frame tileid="207" duration="250"/>
    <frame tileid="213" duration="250"/>
    <frame tileid="435" duration="250"/>
    <frame tileid="441" duration="250"/>
    <frame tileid="447" duration="250"/>
    <frame tileid="453" duration="250"/>
    <frame tileid="459" duration="250"/>
    <frame tileid="465" duration="250"/>
    <frame tileid="687" duration="250"/>
    <frame tileid="693" duration="250"/>
    <frame tileid="699" duration="250"/>
    <frame tileid="705" duration="250"/>
    <frame tileid="711" duration="250"/>
   </animation>
  </tile>
  <tile id="184">
   <animation>
    <frame tileid="184" duration="250"/>
    <frame tileid="190" duration="250"/>
    <frame tileid="196" duration="250"/>
    <frame tileid="202" duration="250"/>
    <frame tileid="208" duration="250"/>
    <frame tileid="214" duration="250"/>
    <frame tileid="436" duration="250"/>
    <frame tileid="442" duration="250"/>
    <frame tileid="448" duration="250"/>
    <frame tileid="454" duration="250"/>
    <frame tileid="460" duration="250"/>
    <frame tileid="466" duration="250"/>
    <frame tileid="688" duration="250"/>
    <frame tileid="694" duration="250"/>
    <frame tileid="700" duration="250"/>
    <frame tileid="706" duration="250"/>
    <frame tileid="712" duration="250"/>
   </animation>
  </tile>
  <tile id="217">
   <animation>
    <frame tileid="217" duration="250"/>
    <frame tileid="223" duration="250"/>
    <frame tileid="229" duration="250"/>
    <frame tileid="235" duration="250"/>
    <frame tileid="241" duration="250"/>
    <frame tileid="247" duration="250"/>
    <frame tileid="469" duration="250"/>
    <frame tileid="475" duration="250"/>
    <frame tileid="481" duration="250"/>
    <frame tileid="487" duration="250"/>
    <frame tileid="493" duration="250"/>
    <frame tileid="499" duration="250"/>
    <frame tileid="721" duration="250"/>
    <frame tileid="727" duration="250"/>
    <frame tileid="733" duration="250"/>
    <frame tileid="739" duration="250"/>
    <frame tileid="745" duration="250"/>
   </animation>
  </tile>
  <tile id="218">
   <animation>
    <frame tileid="218" duration="250"/>
    <frame tileid="224" duration="250"/>
    <frame tileid="230" duration="250"/>
    <frame tileid="236" duration="250"/>
    <frame tileid="242" duration="250"/>
    <frame tileid="248" duration="250"/>
    <frame tileid="470" duration="250"/>
    <frame tileid="476" duration="250"/>
    <frame tileid="482" duration="250"/>
    <frame tileid="488" duration="250"/>
    <frame tileid="494" duration="250"/>
    <frame tileid="500" duration="250"/>
    <frame tileid="722" duration="250"/>
    <frame tileid="728" duration="250"/>
    <frame tileid="734" duration="250"/>
    <frame tileid="740" duration="250"/>
    <frame tileid="746" duration="250"/>
   </animation>
  </tile>
  <tile id="219">
   <animation>
    <frame tileid="219" duration="250"/>
    <frame tileid="225" duration="250"/>
    <frame tileid="231" duration="250"/>
    <frame tileid="237" duration="250"/>
    <frame tileid="243" duration="250"/>
    <frame tileid="249" duration="250"/>
    <frame tileid="471" duration="250"/>
    <frame tileid="477" duration="250"/>
    <frame tileid="483" duration="250"/>
    <frame tileid="489" duration="250"/>
    <frame tileid="495" duration="250"/>
    <frame tileid="501" duration="250"/>
    <frame tileid="723" duration="250"/>
    <frame tileid="729" duration="250"/>
    <frame tileid="735" duration="250"/>
    <frame tileid="741" duration="250"/>
    <frame tileid="747" duration="250"/>
   </animation>
  </tile>
  <tile id="220">
   <animation>
    <frame tileid="220" duration="250"/>
    <frame tileid="226" duration="250"/>
    <frame tileid="232" duration="250"/>
    <frame tileid="238" duration="250"/>
    <frame tileid="244" duration="250"/>
    <frame tileid="250" duration="250"/>
    <frame tileid="472" duration="250"/>
    <frame tileid="478" duration="250"/>
    <frame tileid="484" duration="250"/>
    <frame tileid="490" duration="250"/>
    <frame tileid="496" duration="250"/>
    <frame tileid="502" duration="250"/>
    <frame tileid="724" duration="250"/>
    <frame tileid="730" duration="250"/>
    <frame tileid="736" duration="250"/>
    <frame tileid="742" duration="250"/>
    <frame tileid="748" duration="250"/>
   </animation>
  </tile>
  <tile id="253">
   <animation>
    <frame tileid="253" duration="250"/>
    <frame tileid="259" duration="250"/>
    <frame tileid="265" duration="250"/>
    <frame tileid="271" duration="250"/>
    <frame tileid="277" duration="250"/>
    <frame tileid="283" duration="250"/>
    <frame tileid="505" duration="250"/>
    <frame tileid="511" duration="250"/>
    <frame tileid="517" duration="250"/>
    <frame tileid="523" duration="250"/>
    <frame tileid="529" duration="250"/>
    <frame tileid="535" duration="250"/>
    <frame tileid="757" duration="250"/>
    <frame tileid="763" duration="250"/>
    <frame tileid="769" duration="250"/>
    <frame tileid="775" duration="250"/>
    <frame tileid="781" duration="250"/>
   </animation>
  </tile>
  <tile id="254">
   <animation>
    <frame tileid="254" duration="250"/>
    <frame tileid="260" duration="250"/>
    <frame tileid="266" duration="250"/>
    <frame tileid="272" duration="250"/>
    <frame tileid="278" duration="250"/>
    <frame tileid="284" duration="250"/>
    <frame tileid="506" duration="250"/>
    <frame tileid="512" duration="250"/>
    <frame tileid="518" duration="250"/>
    <frame tileid="524" duration="250"/>
    <frame tileid="530" duration="250"/>
    <frame tileid="536" duration="250"/>
    <frame tileid="758" duration="250"/>
    <frame tileid="764" duration="250"/>
    <frame tileid="770" duration="250"/>
    <frame tileid="776" duration="250"/>
    <frame tileid="782" duration="250"/>
   </animation>
  </tile>
  <tile id="255">
   <animation>
    <frame tileid="255" duration="250"/>
    <frame tileid="261" duration="250"/>
    <frame tileid="267" duration="250"/>
    <frame tileid="273" duration="250"/>
    <frame tileid="279" duration="250"/>
    <frame tileid="285" duration="250"/>
    <frame tileid="507" duration="250"/>
    <frame tileid="513" duration="250"/>
    <frame tileid="519" duration="250"/>
    <frame tileid="525" duration="250"/>
    <frame tileid="531" duration="250"/>
    <frame tileid="537" duration="250"/>
    <frame tileid="759" duration="250"/>
    <frame tileid="765" duration="250"/>
    <frame tileid="771" duration="250"/>
    <frame tileid="777" duration="250"/>
    <frame tileid="783" duration="250"/>
   </animation>
  </tile>
  <tile id="256">
   <animation>
    <frame tileid="256" duration="250"/>
    <frame tileid="262" duration="250"/>
    <frame tileid="268" duration="250"/>
    <frame tileid="274" duration="250"/>
    <frame tileid="280" duration="250"/>
    <frame tileid="286" duration="250"/>
    <frame tileid="508" duration="250"/>
    <frame tileid="514" duration="250"/>
    <frame tileid="520" duration="250"/>
    <frame tileid="526" duration="250"/>
    <frame tileid="532" duration="250"/>
    <frame tileid="538" duration="250"/>
    <frame tileid="760" duration="250"/>
    <frame tileid="766" duration="250"/>
    <frame tileid="772" duration="250"/>
    <frame tileid="778" duration="250"/>
    <frame tileid="784" duration="250"/>
   </animation>
  </tile>
  <tile id="288">
   <animation>
    <frame tileid="288" duration="250"/>
    <frame tileid="294" duration="250"/>
    <frame tileid="300" duration="250"/>
    <frame tileid="306" duration="250"/>
    <frame tileid="312" duration="250"/>
    <frame tileid="318" duration="250"/>
    <frame tileid="540" duration="250"/>
    <frame tileid="546" duration="250"/>
    <frame tileid="552" duration="250"/>
    <frame tileid="558" duration="250"/>
    <frame tileid="564" duration="250"/>
    <frame tileid="570" duration="250"/>
    <frame tileid="792" duration="250"/>
    <frame tileid="798" duration="250"/>
    <frame tileid="804" duration="250"/>
    <frame tileid="810" duration="250"/>
    <frame tileid="816" duration="250"/>
   </animation>
  </tile>
  <tile id="289">
   <animation>
    <frame tileid="289" duration="250"/>
    <frame tileid="295" duration="250"/>
    <frame tileid="301" duration="250"/>
    <frame tileid="307" duration="250"/>
    <frame tileid="313" duration="250"/>
    <frame tileid="319" duration="250"/>
    <frame tileid="541" duration="250"/>
    <frame tileid="547" duration="250"/>
    <frame tileid="553" duration="250"/>
    <frame tileid="559" duration="250"/>
    <frame tileid="565" duration="250"/>
    <frame tileid="571" duration="250"/>
    <frame tileid="793" duration="250"/>
    <frame tileid="799" duration="250"/>
    <frame tileid="805" duration="250"/>
    <frame tileid="811" duration="250"/>
    <frame tileid="817" duration="250"/>
   </animation>
  </tile>
  <tile id="290">
   <animation>
    <frame tileid="290" duration="250"/>
    <frame tileid="296" duration="250"/>
    <frame tileid="302" duration="250"/>
    <frame tileid="308" duration="250"/>
    <frame tileid="314" duration="250"/>
    <frame tileid="320" duration="250"/>
    <frame tileid="542" duration="250"/>
    <frame tileid="548" duration="250"/>
    <frame tileid="554" duration="250"/>
    <frame tileid="560" duration="250"/>
    <frame tileid="566" duration="250"/>
    <frame tileid="572" duration="250"/>
    <frame tileid="794" duration="250"/>
    <frame tileid="800" duration="250"/>
    <frame tileid="806" duration="250"/>
    <frame tileid="812" duration="250"/>
    <frame tileid="818" duration="250"/>
   </animation>
  </tile>
  <tile id="291">
   <animation>
    <frame tileid="291" duration="250"/>
    <frame tileid="297" duration="250"/>
    <frame tileid="303" duration="250"/>
    <frame tileid="309" duration="250"/>
    <frame tileid="315" duration="250"/>
    <frame tileid="321" duration="250"/>
    <frame tileid="543" duration="250"/>
    <frame tileid="549" duration="250"/>
    <frame tileid="555" duration="250"/>
    <frame tileid="561" duration="250"/>
    <frame tileid="567" duration="250"/>
    <frame tileid="573" duration="250"/>
    <frame tileid="795" duration="250"/>
    <frame tileid="801" duration="250"/>
    <frame tileid="807" duration="250"/>
    <frame tileid="813" duration="250"/>
    <frame tileid="819" duration="250"/>
   </animation>
  </tile>
  <tile id="292">
   <animation>
    <frame tileid="292" duration="250"/>
    <frame tileid="298" duration="250"/>
    <frame tileid="304" duration="250"/>
    <frame tileid="310" duration="250"/>
    <frame tileid="316" duration="250"/>
    <frame tileid="322" duration="250"/>
    <frame tileid="544" duration="250"/>
    <frame tileid="550" duration="250"/>
    <frame tileid="556" duration="250"/>
    <frame tileid="562" duration="250"/>
    <frame tileid="568" duration="250"/>
    <frame tileid="574" duration="250"/>
    <frame tileid="796" duration="250"/>
    <frame tileid="802" duration="250"/>
    <frame tileid="808" duration="250"/>
    <frame tileid="814" duration="250"/>
    <frame tileid="820" duration="250"/>
   </animation>
  </tile>
  <tile id="293">
   <animation>
    <frame tileid="293" duration="250"/>
    <frame tileid="299" duration="250"/>
    <frame tileid="305" duration="250"/>
    <frame tileid="311" duration="250"/>
    <frame tileid="317" duration="250"/>
    <frame tileid="323" duration="250"/>
    <frame tileid="545" duration="250"/>
    <frame tileid="551" duration="250"/>
    <frame tileid="557" duration="250"/>
    <frame tileid="563" duration="250"/>
    <frame tileid="569" duration="250"/>
    <frame tileid="575" duration="250"/>
    <frame tileid="797" duration="250"/>
    <frame tileid="803" duration="250"/>
    <frame tileid="809" duration="250"/>
    <frame tileid="815" duration="250"/>
    <frame tileid="821" duration="250"/>
   </animation>
  </tile>
  <tile id="324">
   <animation>
    <frame tileid="324" duration="250"/>
    <frame tileid="330" duration="250"/>
    <frame tileid="336" duration="250"/>
    <frame tileid="342" duration="250"/>
    <frame tileid="348" duration="250"/>
    <frame tileid="354" duration="250"/>
    <frame tileid="576" duration="250"/>
    <frame tileid="582" duration="250"/>
    <frame tileid="588" duration="250"/>
    <frame tileid="594" duration="250"/>
    <frame tileid="600" duration="250"/>
    <frame tileid="606" duration="250"/>
    <frame tileid="828" duration="250"/>
    <frame tileid="834" duration="250"/>
    <frame tileid="840" duration="250"/>
    <frame tileid="846" duration="250"/>
    <frame tileid="852" duration="250"/>
   </animation>
  </tile>
  <tile id="325">
   <animation>
    <frame tileid="325" duration="250"/>
    <frame tileid="331" duration="250"/>
    <frame tileid="337" duration="250"/>
    <frame tileid="343" duration="250"/>
    <frame tileid="349" duration="250"/>
    <frame tileid="355" duration="250"/>
    <frame tileid="577" duration="250"/>
    <frame tileid="583" duration="250"/>
    <frame tileid="589" duration="250"/>
    <frame tileid="595" duration="250"/>
    <frame tileid="601" duration="250"/>
    <frame tileid="607" duration="250"/>
    <frame tileid="829" duration="250"/>
    <frame tileid="835" duration="250"/>
    <frame tileid="841" duration="250"/>
    <frame tileid="847" duration="250"/>
    <frame tileid="853" duration="250"/>
   </animation>
  </tile>
  <tile id="326">
   <animation>
    <frame tileid="326" duration="250"/>
    <frame tileid="332" duration="250"/>
    <frame tileid="338" duration="250"/>
    <frame tileid="344" duration="250"/>
    <frame tileid="350" duration="250"/>
    <frame tileid="356" duration="250"/>
    <frame tileid="578" duration="250"/>
    <frame tileid="584" duration="250"/>
    <frame tileid="590" duration="250"/>
    <frame tileid="596" duration="250"/>
    <frame tileid="602" duration="250"/>
    <frame tileid="608" duration="250"/>
    <frame tileid="830" duration="250"/>
    <frame tileid="836" duration="250"/>
    <frame tileid="842" duration="250"/>
    <frame tileid="848" duration="250"/>
    <frame tileid="854" duration="250"/>
   </animation>
  </tile>
  <tile id="327">
   <animation>
    <frame tileid="327" duration="250"/>
    <frame tileid="333" duration="250"/>
    <frame tileid="339" duration="250"/>
    <frame tileid="345" duration="250"/>
    <frame tileid="351" duration="250"/>
    <frame tileid="357" duration="250"/>
    <frame tileid="579" duration="250"/>
    <frame tileid="585" duration="250"/>
    <frame tileid="591" duration="250"/>
    <frame tileid="597" duration="250"/>
    <frame tileid="603" duration="250"/>
    <frame tileid="609" duration="250"/>
    <frame tileid="831" duration="250"/>
    <frame tileid="837" duration="250"/>
    <frame tileid="843" duration="250"/>
    <frame tileid="849" duration="250"/>
    <frame tileid="855" duration="250"/>
   </animation>
  </tile>
  <tile id="328">
   <animation>
    <frame tileid="328" duration="250"/>
    <frame tileid="334" duration="250"/>
    <frame tileid="340" duration="250"/>
    <frame tileid="346" duration="250"/>
    <frame tileid="352" duration="250"/>
    <frame tileid="358" duration="250"/>
    <frame tileid="580" duration="250"/>
    <frame tileid="586" duration="250"/>
    <frame tileid="592" duration="250"/>
    <frame tileid="598" duration="250"/>
    <frame tileid="604" duration="250"/>
    <frame tileid="610" duration="250"/>
    <frame tileid="832" duration="250"/>
    <frame tileid="838" duration="250"/>
    <frame tileid="844" duration="250"/>
    <frame tileid="850" duration="250"/>
    <frame tileid="856" duration="250"/>
   </animation>
  </tile>
  <tile id="329">
   <animation>
    <frame tileid="329" duration="250"/>
    <frame tileid="335" duration="250"/>
    <frame tileid="341" duration="250"/>
    <frame tileid="347" duration="250"/>
    <frame tileid="353" duration="250"/>
    <frame tileid="359" duration="250"/>
    <frame tileid="581" duration="250"/>
    <frame tileid="587" duration="250"/>
    <frame tileid="593" duration="250"/>
    <frame tileid="599" duration="250"/>
    <frame tileid="605" duration="250"/>
    <frame tileid="611" duration="250"/>
    <frame tileid="833" duration="250"/>
    <frame tileid="839" duration="250"/>
    <frame tileid="845" duration="250"/>
    <frame tileid="851" duration="250"/>
    <frame tileid="857" duration="250"/>
   </animation>
  </tile>
  <tile id="360">
   <animation>
    <frame tileid="360" duration="250"/>
    <frame tileid="366" duration="250"/>
    <frame tileid="372" duration="250"/>
    <frame tileid="378" duration="250"/>
    <frame tileid="384" duration="250"/>
    <frame tileid="390" duration="250"/>
    <frame tileid="612" duration="250"/>
    <frame tileid="618" duration="250"/>
    <frame tileid="624" duration="250"/>
    <frame tileid="630" duration="250"/>
    <frame tileid="636" duration="250"/>
    <frame tileid="642" duration="250"/>
    <frame tileid="864" duration="250"/>
    <frame tileid="870" duration="250"/>
    <frame tileid="876" duration="250"/>
    <frame tileid="882" duration="250"/>
    <frame tileid="888" duration="250"/>
   </animation>
  </tile>
  <tile id="361">
   <animation>
    <frame tileid="361" duration="250"/>
    <frame tileid="367" duration="250"/>
    <frame tileid="373" duration="250"/>
    <frame tileid="379" duration="250"/>
    <frame tileid="385" duration="250"/>
    <frame tileid="391" duration="250"/>
    <frame tileid="613" duration="250"/>
    <frame tileid="619" duration="250"/>
    <frame tileid="625" duration="250"/>
    <frame tileid="631" duration="250"/>
    <frame tileid="637" duration="250"/>
    <frame tileid="643" duration="250"/>
    <frame tileid="865" duration="250"/>
    <frame tileid="871" duration="250"/>
    <frame tileid="877" duration="250"/>
    <frame tileid="883" duration="250"/>
    <frame tileid="889" duration="250"/>
   </animation>
  </tile>
  <tile id="362">
   <animation>
    <frame tileid="362" duration="250"/>
    <frame tileid="368" duration="250"/>
    <frame tileid="374" duration="250"/>
    <frame tileid="380" duration="250"/>
    <frame tileid="386" duration="250"/>
    <frame tileid="392" duration="250"/>
    <frame tileid="614" duration="250"/>
    <frame tileid="620" duration="250"/>
    <frame tileid="626" duration="250"/>
    <frame tileid="632" duration="250"/>
    <frame tileid="638" duration="250"/>
    <frame tileid="644" duration="250"/>
    <frame tileid="866" duration="250"/>
    <frame tileid="872" duration="250"/>
    <frame tileid="878" duration="250"/>
    <frame tileid="884" duration="250"/>
    <frame tileid="890" duration="250"/>
   </animation>
  </tile>
  <tile id="363">
   <animation>
    <frame tileid="363" duration="250"/>
    <frame tileid="369" duration="250"/>
    <frame tileid="375" duration="250"/>
    <frame tileid="381" duration="250"/>
    <frame tileid="387" duration="250"/>
    <frame tileid="393" duration="250"/>
    <frame tileid="615" duration="250"/>
    <frame tileid="621" duration="250"/>
    <frame tileid="627" duration="250"/>
    <frame tileid="633" duration="250"/>
    <frame tileid="639" duration="250"/>
    <frame tileid="645" duration="250"/>
    <frame tileid="867" duration="250"/>
    <frame tileid="873" duration="250"/>
    <frame tileid="879" duration="250"/>
    <frame tileid="885" duration="250"/>
    <frame tileid="891" duration="250"/>
   </animation>
  </tile>
  <tile id="364">
   <animation>
    <frame tileid="364" duration="250"/>
    <frame tileid="370" duration="250"/>
    <frame tileid="376" duration="250"/>
    <frame tileid="382" duration="250"/>
    <frame tileid="388" duration="250"/>
    <frame tileid="394" duration="250"/>
    <frame tileid="616" duration="250"/>
    <frame tileid="622" duration="250"/>
    <frame tileid="628" duration="250"/>
    <frame tileid="634" duration="250"/>
    <frame tileid="640" duration="250"/>
    <frame tileid="646" duration="250"/>
    <frame tileid="868" duration="250"/>
    <frame tileid="873" duration="250"/>
    <frame tileid="880" duration="250"/>
    <frame tileid="886" duration="250"/>
    <frame tileid="892" duration="250"/>
   </animation>
  </tile>
  <tile id="365">
   <animation>
    <frame tileid="365" duration="250"/>
    <frame tileid="371" duration="250"/>
    <frame tileid="377" duration="250"/>
    <frame tileid="383" duration="250"/>
    <frame tileid="389" duration="250"/>
    <frame tileid="395" duration="250"/>
    <frame tileid="617" duration="250"/>
    <frame tileid="623" duration="250"/>
    <frame tileid="629" duration="250"/>
    <frame tileid="635" duration="250"/>
    <frame tileid="641" duration="250"/>
    <frame tileid="647" duration="250"/>
    <frame tileid="869" duration="250"/>
    <frame tileid="875" duration="250"/>
    <frame tileid="881" duration="250"/>
    <frame tileid="887" duration="250"/>
    <frame tileid="893" duration="250"/>
   </animation>
  </tile>
 </tileset>
 <tileset firstgid="4220" name="v16_outdoors2" tilewidth="16" tileheight="16" tilecount="1120" columns="16">
  <image source="Tilesheet/spring_outdoorsTileSheet2.png" width="256" height="1120"/>
  <tile id="536">
   <animation>
    <frame tileid="536" duration="1000"/>
    <frame tileid="540" duration="1000"/>
   </animation>
  </tile>
  <tile id="537">
   <animation>
    <frame tileid="537" duration="1000"/>
    <frame tileid="541" duration="1000"/>
   </animation>
  </tile>
  <tile id="538">
   <animation>
    <frame tileid="538" duration="1000"/>
    <frame tileid="542" duration="1000"/>
   </animation>
  </tile>
  <tile id="544">
   <animation>
    <frame tileid="544" duration="1000"/>
    <frame tileid="576" duration="1000"/>
   </animation>
  </tile>
  <tile id="545">
   <animation>
    <frame tileid="545" duration="1000"/>
    <frame tileid="577" duration="1000"/>
   </animation>
  </tile>
  <tile id="546">
   <animation>
    <frame tileid="546" duration="1000"/>
    <frame tileid="578" duration="1000"/>
   </animation>
  </tile>
  <tile id="547">
   <animation>
    <frame tileid="547" duration="1000"/>
    <frame tileid="579" duration="1000"/>
   </animation>
  </tile>
  <tile id="550">
   <animation>
    <frame tileid="550" duration="1000"/>
    <frame tileid="582" duration="1000"/>
   </animation>
  </tile>
  <tile id="551">
   <animation>
    <frame tileid="551" duration="1000"/>
    <frame tileid="583" duration="1000"/>
   </animation>
  </tile>
  <tile id="552">
   <animation>
    <frame tileid="552" duration="1000"/>
    <frame tileid="556" duration="1000"/>
   </animation>
  </tile>
  <tile id="554">
   <animation>
    <frame tileid="554" duration="1000"/>
    <frame tileid="558" duration="1000"/>
   </animation>
  </tile>
  <tile id="563">
   <animation>
    <frame tileid="563" duration="1000"/>
    <frame tileid="595" duration="1000"/>
   </animation>
  </tile>
  <tile id="564">
   <animation>
    <frame tileid="564" duration="1000"/>
    <frame tileid="596" duration="1000"/>
   </animation>
  </tile>
  <tile id="565">
   <animation>
    <frame tileid="565" duration="1000"/>
    <frame tileid="597" duration="1000"/>
   </animation>
  </tile>
  <tile id="566">
   <animation>
    <frame tileid="566" duration="1000"/>
    <frame tileid="598" duration="1000"/>
   </animation>
  </tile>
  <tile id="568">
   <animation>
    <frame tileid="568" duration="1000"/>
    <frame tileid="572" duration="1000"/>
   </animation>
  </tile>
  <tile id="570">
   <animation>
    <frame tileid="570" duration="1000"/>
    <frame tileid="574" duration="1000"/>
   </animation>
  </tile>
  <tile id="584">
   <animation>
    <frame tileid="584" duration="1000"/>
    <frame tileid="588" duration="1000"/>
   </animation>
  </tile>
  <tile id="585">
   <animation>
    <frame tileid="585" duration="1000"/>
    <frame tileid="589" duration="1000"/>
   </animation>
  </tile>
  <tile id="586">
   <animation>
    <frame tileid="586" duration="1000"/>
    <frame tileid="590" duration="1000"/>
   </animation>
  </tile>
  <tile id="600">
   <animation>
    <frame tileid="600" duration="1000"/>
    <frame tileid="604" duration="1000"/>
   </animation>
  </tile>
  <tile id="602">
   <animation>
    <frame tileid="602" duration="1000"/>
    <frame tileid="606" duration="1000"/>
   </animation>
  </tile>
  <tile id="609">
   <animation>
    <frame tileid="609" duration="1000"/>
    <frame tileid="611" duration="1000"/>
   </animation>
  </tile>
  <tile id="612">
   <animation>
    <frame tileid="612" duration="1000"/>
    <frame tileid="614" duration="1000"/>
   </animation>
  </tile>
  <tile id="616">
   <animation>
    <frame tileid="616" duration="1000"/>
    <frame tileid="620" duration="1000"/>
   </animation>
  </tile>
  <tile id="617">
   <animation>
    <frame tileid="617" duration="1000"/>
    <frame tileid="621" duration="1000"/>
   </animation>
  </tile>
  <tile id="618">
   <animation>
    <frame tileid="618" duration="1000"/>
    <frame tileid="622" duration="1000"/>
   </animation>
  </tile>
  <tile id="624">
   <animation>
    <frame tileid="624" duration="1000"/>
    <frame tileid="626" duration="1000"/>
   </animation>
  </tile>
  <tile id="625">
   <animation>
    <frame tileid="625" duration="1000"/>
    <frame tileid="627" duration="1000"/>
   </animation>
  </tile>
  <tile id="628">
   <animation>
    <frame tileid="628" duration="1000"/>
    <frame tileid="630" duration="1000"/>
   </animation>
  </tile>
  <tile id="629">
   <animation>
    <frame tileid="631" duration="1000"/>
   </animation>
  </tile>
  <tile id="632">
   <animation>
    <frame tileid="632" duration="1000"/>
    <frame tileid="636" duration="1000"/>
   </animation>
  </tile>
  <tile id="633">
   <animation>
    <frame tileid="633" duration="1000"/>
    <frame tileid="637" duration="1000"/>
   </animation>
  </tile>
  <tile id="640">
   <animation>
    <frame tileid="640" duration="1000"/>
    <frame tileid="688" duration="1000"/>
   </animation>
  </tile>
  <tile id="647">
   <animation>
    <frame tileid="647" duration="1000"/>
    <frame tileid="695" duration="1000"/>
   </animation>
  </tile>
  <tile id="648">
   <animation>
    <frame tileid="648" duration="1000"/>
    <frame tileid="652" duration="1000"/>
   </animation>
  </tile>
  <tile id="649">
   <animation>
    <frame tileid="649" duration="1000"/>
    <frame tileid="653" duration="1000"/>
   </animation>
  </tile>
  <tile id="656">
   <animation>
    <frame tileid="656" duration="1000"/>
    <frame tileid="704" duration="1000"/>
   </animation>
  </tile>
  <tile id="657">
   <animation>
    <frame tileid="657" duration="1000"/>
    <frame tileid="705" duration="1000"/>
   </animation>
  </tile>
  <tile id="658">
   <animation>
    <frame tileid="658" duration="1000"/>
    <frame tileid="706" duration="1000"/>
   </animation>
  </tile>
  <tile id="659">
   <animation>
    <frame tileid="659" duration="1000"/>
    <frame tileid="707" duration="1000"/>
   </animation>
  </tile>
  <tile id="660">
   <animation>
    <frame tileid="660" duration="1000"/>
    <frame tileid="708" duration="1000"/>
   </animation>
  </tile>
  <tile id="661">
   <animation>
    <frame tileid="661" duration="1000"/>
    <frame tileid="709" duration="1000"/>
   </animation>
  </tile>
  <tile id="662">
   <animation>
    <frame tileid="662" duration="1000"/>
    <frame tileid="710" duration="1000"/>
   </animation>
  </tile>
  <tile id="663">
   <animation>
    <frame tileid="663" duration="1000"/>
    <frame tileid="711" duration="1000"/>
   </animation>
  </tile>
  <tile id="664">
   <animation>
    <frame tileid="664" duration="1000"/>
    <frame tileid="668" duration="1000"/>
   </animation>
  </tile>
  <tile id="665">
   <animation>
    <frame tileid="665" duration="1000"/>
    <frame tileid="669" duration="1000"/>
   </animation>
  </tile>
  <tile id="676">
   <animation>
    <frame tileid="676" duration="1000"/>
    <frame tileid="724" duration="1000"/>
   </animation>
  </tile>
  <tile id="677">
   <animation>
    <frame tileid="677" duration="1000"/>
    <frame tileid="725" duration="1000"/>
   </animation>
  </tile>
  <tile id="728">
   <animation>
    <frame tileid="728" duration="1000"/>
    <frame tileid="732" duration="1000"/>
   </animation>
  </tile>
  <tile id="729">
   <animation>
    <frame tileid="729" duration="1000"/>
    <frame tileid="733" duration="1000"/>
   </animation>
  </tile>
  <tile id="730">
   <animation>
    <frame tileid="730" duration="1000"/>
    <frame tileid="734" duration="1000"/>
   </animation>
  </tile>
  <tile id="736">
   <properties>
    <property name="Type" value="Wood"/>
   </properties>
  </tile>
  <tile id="737">
   <properties>
    <property name="Type" value="Wood"/>
   </properties>
  </tile>
  <tile id="738">
   <properties>
    <property name="Type" value="Wood"/>
   </properties>
  </tile>
  <tile id="739">
   <properties>
    <property name="Type" value="Wood"/>
   </properties>
  </tile>
  <tile id="740">
   <properties>
    <property name="Buildable" value="T"/>
    <property name="CanPlantTrees" value="T"/>
    <property name="Diggable" value="T"/>
    <property name="NoSpawn" value="T"/>
   </properties>
  </tile>
  <tile id="741">
   <properties>
    <property name="Buildable" value="T"/>
    <property name="CanPlantTrees" value="T"/>
    <property name="Diggable" value="T"/>
    <property name="NoSpawn" value="T"/>
   </properties>
  </tile>
  <tile id="744">
   <animation>
    <frame tileid="744" duration="1000"/>
    <frame tileid="748" duration="1000"/>
   </animation>
  </tile>
  <tile id="746">
   <animation>
    <frame tileid="746" duration="1000"/>
    <frame tileid="750" duration="1000"/>
   </animation>
  </tile>
  <tile id="752">
   <properties>
    <property name="Type" value="Wood"/>
   </properties>
  </tile>
  <tile id="753">
   <properties>
    <property name="Type" value="Wood"/>
   </properties>
  </tile>
  <tile id="754">
   <properties>
    <property name="Type" value="Wood"/>
   </properties>
  </tile>
  <tile id="755">
   <properties>
    <property name="Type" value="Wood"/>
   </properties>
  </tile>
  <tile id="756">
   <properties>
    <property name="Buildable" value="T"/>
    <property name="CanPlantTrees" value="T"/>
    <property name="Diggable" value="T"/>
    <property name="NoSpawn" value="T"/>
   </properties>
  </tile>
  <tile id="757">
   <properties>
    <property name="Buildable" value="T"/>
    <property name="CanPlantTrees" value="T"/>
    <property name="Diggable" value="T"/>
    <property name="NoSpawn" value="T"/>
   </properties>
  </tile>
  <tile id="760">
   <animation>
    <frame tileid="760" duration="1000"/>
    <frame tileid="764" duration="1000"/>
   </animation>
  </tile>
  <tile id="762">
   <animation>
    <frame tileid="762" duration="1000"/>
    <frame tileid="766" duration="1000"/>
   </animation>
  </tile>
  <tile id="770">
   <properties>
    <property name="Diggable" value="T"/>
   </properties>
  </tile>
  <tile id="771">
   <properties>
    <property name="Diggable" value="T"/>
   </properties>
  </tile>
  <tile id="772">
   <properties>
    <property name="Buildable" value="T"/>
    <property name="CanPlantTrees" value="T"/>
    <property name="Diggable" value="T"/>
    <property name="NoSpawn" value="T"/>
   </properties>
  </tile>
  <tile id="773">
   <properties>
    <property name="Buildable" value="T"/>
    <property name="CanPlantTrees" value="T"/>
    <property name="Diggable" value="T"/>
    <property name="NoSpawn" value="T"/>
   </properties>
  </tile>
  <tile id="776">
   <animation>
    <frame tileid="776" duration="1000"/>
    <frame tileid="780" duration="1000"/>
   </animation>
  </tile>
  <tile id="777">
   <animation>
    <frame tileid="777" duration="1000"/>
    <frame tileid="781" duration="1000"/>
   </animation>
  </tile>
  <tile id="778">
   <animation>
    <frame tileid="778" duration="1000"/>
    <frame tileid="782" duration="1000"/>
   </animation>
  </tile>
  <tile id="786">
   <properties>
    <property name="Diggable" value="T"/>
   </properties>
  </tile>
  <tile id="787">
   <properties>
    <property name="Diggable" value="T"/>
   </properties>
  </tile>
  <tile id="792">
   <animation>
    <frame tileid="792" duration="1000"/>
    <frame tileid="796" duration="1000"/>
   </animation>
  </tile>
  <tile id="794">
   <animation>
    <frame tileid="794" duration="1000"/>
    <frame tileid="798" duration="1000"/>
   </animation>
  </tile>
  <tile id="802">
   <properties>
    <property name="Diggable" value="T"/>
   </properties>
  </tile>
  <tile id="803">
   <properties>
    <property name="Diggable" value="T"/>
   </properties>
  </tile>
  <tile id="808">
   <animation>
    <frame tileid="808" duration="1000"/>
    <frame tileid="812" duration="1000"/>
   </animation>
  </tile>
  <tile id="809">
   <animation>
    <frame tileid="809" duration="1000"/>
    <frame tileid="813" duration="1000"/>
   </animation>
  </tile>
  <tile id="810">
   <animation>
    <frame tileid="810" duration="1000"/>
    <frame tileid="814" duration="1000"/>
   </animation>
  </tile>
  <tile id="824">
   <animation>
    <frame tileid="824" duration="1000"/>
    <frame tileid="828" duration="1000"/>
   </animation>
  </tile>
  <tile id="825">
   <animation>
    <frame tileid="825" duration="1000"/>
    <frame tileid="829" duration="1000"/>
   </animation>
  </tile>
  <tile id="840">
   <animation>
    <frame tileid="840" duration="1000"/>
    <frame tileid="844" duration="1000"/>
   </animation>
  </tile>
  <tile id="841">
   <animation>
    <frame tileid="841" duration="1000"/>
    <frame tileid="845" duration="1000"/>
   </animation>
  </tile>
  <tile id="856">
   <animation>
    <frame tileid="856" duration="1000"/>
    <frame tileid="860" duration="1000"/>
   </animation>
  </tile>
  <tile id="857">
   <animation>
    <frame tileid="857" duration="1000"/>
    <frame tileid="861" duration="1000"/>
   </animation>
  </tile>
  <tile id="905">
   <animation>
    <frame tileid="905" duration="1000"/>
    <frame tileid="937" duration="1000"/>
   </animation>
  </tile>
  <tile id="909">
   <animation>
    <frame tileid="909" duration="1000"/>
    <frame tileid="941" duration="1000"/>
   </animation>
  </tile>
  <tile id="920">
   <animation>
    <frame tileid="920" duration="1000"/>
    <frame tileid="952" duration="1000"/>
   </animation>
  </tile>
  <tile id="921">
   <animation>
    <frame tileid="921" duration="1000"/>
    <frame tileid="953" duration="1000"/>
   </animation>
  </tile>
  <tile id="922">
   <animation>
    <frame tileid="922" duration="1000"/>
    <frame tileid="923" duration="1000"/>
   </animation>
  </tile>
  <tile id="924">
   <animation>
    <frame tileid="924" duration="1000"/>
    <frame tileid="956" duration="1000"/>
   </animation>
  </tile>
  <tile id="925">
   <animation>
    <frame tileid="925" duration="1000"/>
    <frame tileid="957" duration="1000"/>
   </animation>
  </tile>
  <tile id="926">
   <animation>
    <frame tileid="926" duration="1000"/>
    <frame tileid="927" duration="1000"/>
   </animation>
  </tile>
  <tile id="938">
   <animation>
    <frame tileid="938" duration="1000"/>
    <frame tileid="939" duration="1000"/>
   </animation>
  </tile>
  <tile id="942">
   <animation>
    <frame tileid="942" duration="1000"/>
    <frame tileid="943" duration="1000"/>
   </animation>
  </tile>
  <tile id="968">
   <animation>
    <frame tileid="968" duration="1000"/>
    <frame tileid="1000" duration="1000"/>
   </animation>
  </tile>
  <tile id="970">
   <animation>
    <frame tileid="970" duration="1000"/>
    <frame tileid="971" duration="1000"/>
   </animation>
  </tile>
  <tile id="972">
   <animation>
    <frame tileid="972" duration="1000"/>
    <frame tileid="1004" duration="1000"/>
   </animation>
  </tile>
  <tile id="974">
   <animation>
    <frame tileid="974" duration="1000"/>
    <frame tileid="975" duration="1000"/>
   </animation>
  </tile>
  <tile id="984">
   <animation>
    <frame tileid="984" duration="1000"/>
    <frame tileid="1016" duration="1000"/>
   </animation>
  </tile>
  <tile id="985">
   <animation>
    <frame tileid="985" duration="1000"/>
    <frame tileid="1017" duration="1000"/>
   </animation>
  </tile>
  <tile id="986">
   <animation>
    <frame tileid="986" duration="1000"/>
    <frame tileid="987" duration="1000"/>
   </animation>
  </tile>
  <tile id="988">
   <animation>
    <frame tileid="988" duration="1000"/>
    <frame tileid="1020" duration="1000"/>
   </animation>
  </tile>
  <tile id="989">
   <animation>
    <frame tileid="989" duration="1000"/>
    <frame tileid="1021" duration="1000"/>
   </animation>
  </tile>
  <tile id="990">
   <animation>
    <frame tileid="990" duration="1000"/>
    <frame tileid="991" duration="1000"/>
   </animation>
  </tile>
  <tile id="1002">
   <animation>
    <frame tileid="1002" duration="1000"/>
    <frame tileid="1003" duration="1000"/>
   </animation>
  </tile>
  <tile id="1006">
   <animation>
    <frame tileid="1006" duration="1000"/>
    <frame tileid="1007" duration="1000"/>
   </animation>
  </tile>
  <tile id="1018">
   <animation>
    <frame tileid="1018" duration="1000"/>
    <frame tileid="1019" duration="1000"/>
   </animation>
  </tile>
  <tile id="1022">
   <animation>
    <frame tileid="1022" duration="1000"/>
    <frame tileid="1023" duration="1000"/>
   </animation>
  </tile>
  <tile id="1064">
   <animation>
    <frame tileid="1064" duration="1000"/>
    <frame tileid="1065" duration="1000"/>
   </animation>
  </tile>
  <tile id="1066">
   <animation>
    <frame tileid="1066" duration="1000"/>
    <frame tileid="1067" duration="1000"/>
   </animation>
  </tile>
  <tile id="1068">
   <animation>
    <frame tileid="1068" duration="1000"/>
    <frame tileid="1069" duration="1000"/>
   </animation>
  </tile>
  <tile id="1070">
   <animation>
    <frame tileid="1070" duration="1000"/>
    <frame tileid="1071" duration="1000"/>
   </animation>
  </tile>
 </tileset>
 <tileset firstgid="5340" name="z_spring_town" tilewidth="16" tileheight="16" tilecount="2304" columns="32">
  <image source="Tilesheet/spring_town.png" width="512" height="1152"/>
  <tile id="159">
   <properties>
    <property name="Passable" value="T"/>
   </properties>
  </tile>
  <tile id="191">
   <properties>
    <property name="Passable" value="T"/>
   </properties>
  </tile>
  <tile id="223">
   <properties>
    <property name="Passable" value="T"/>
   </properties>
  </tile>
  <tile id="907">
   <properties>
    <property name="DayTiles" value=""/>
   </properties>
  </tile>
  <tile id="909">
   <properties>
    <property name="Type" value="Stone"/>
   </properties>
  </tile>
  <tile id="916">
   <properties>
    <property name="Water" value="T"/>
   </properties>
  </tile>
  <tile id="917">
   <properties>
    <property name="Water" value="T"/>
   </properties>
  </tile>
  <tile id="918">
   <properties>
    <property name="Water" value="T"/>
   </properties>
  </tile>
  <tile id="950">
   <properties>
    <property name="Water" value="T"/>
   </properties>
  </tile>
  <tile id="969">
   <properties>
    <property name="Type" value="Stone"/>
   </properties>
  </tile>
  <tile id="970">
   <properties>
    <property name="Type" value="Stone"/>
   </properties>
  </tile>
  <tile id="1007">
   <properties>
    <property name="Type" value="Stone"/>
   </properties>
  </tile>
  <tile id="1008">
   <properties>
    <property name="Type" value="Stone"/>
   </properties>
  </tile>
  <tile id="2071">
   <animation>
    <frame tileid="2071" duration="1000"/>
    <frame tileid="2071" duration="1000"/>
    <frame tileid="2072" duration="1000"/>
    <frame tileid="2073" duration="1000"/>
    <frame tileid="2072" duration="1000"/>
    <frame tileid="2071" duration="1000"/>
    <frame tileid="2071" duration="1000"/>
   </animation>
  </tile>
 </tileset>
 <tileset firstgid="7644" name="summer_outdoorsTileSheet" tilewidth="16" tileheight="16" tilecount="1975" columns="25">
  <image source="Tilesheet/summer_outdoorsTileSheet.png" width="400" height="1264"/>
 </tileset>
 <tileset firstgid="9619" name="summer_z_extras" tilewidth="16" tileheight="16" tilecount="6400" columns="25">
  <image source="Tilesheet/summer_z_extras.png" width="400" height="4096"/>
 </tileset>
 <tileset firstgid="16019" name="zspring_z_extras" tilewidth="16" tileheight="16" tilecount="6400" columns="25">
  <image source="Tilesheet/spring_z_extras.png" width="400" height="4096"/>
 </tileset>
 <tileset firstgid="22419" name="v16_Shadows" tilewidth="16" tileheight="16" tilecount="475" columns="19">
  <image source="Tilesheet/spring_Shadows.png" width="304" height="400"/>
 </tileset>
 <tileset firstgid="22894" name="z_JunimoWoods_Shadow" tilewidth="16" tileheight="16" tilecount="11000" columns="100">
  <image source="Tilesheet/JunimoWoods_Shadow.png" width="1600" height="1760"/>
 </tileset>
 <layer id="1" name="Back" width="100" height="75">
  <data encoding="csv">
416,416,416,416,1159,1159,1159,1159,1159,1159,416,416,416,416,416,416,416,416,416,416,416,416,416,416,416,416,416,416,416,416,416,416,416,416,416,416,1159,1159,1159,416,1161,1159,1159,1159,1159,1159,1159,445,445,445,445,446,415,416,416,416,416,416,416,416,416,416,416,416,416,416,416,416,416,417,394,1184,1158,1159,1159,1159,1159,1159,1159,416,416,416,416,416,416,416,416,416,340,340,340,340,340,340,340,416,416,416,416,416,
416,416,416,416,1159,1159,1159,1159,1159,1159,416,416,416,416,416,416,416,1159,416,416,416,416,416,416,416,416,416,416,416,416,416,416,416,416,416,416,1159,1159,1159,1159,1159,1159,1159,1159,1159,1159,1159,445,445,445,445,446,415,416,416,416,416,416,416,416,416,416,416,416,416,416,416,416,416,417,394,472,1160,1184,1158,1159,1159,1159,1159,1159,416,416,416,416,416,416,416,416,340,340,340,340,340,340,340,340,340,340,340,416,
416,416,416,416,416,416,416,416,416,416,416,416,416,416,416,416,1159,1159,1159,416,416,1159,1159,1159,1159,1159,1159,1159,1159,1159,1159,1159,1159,1159,1159,416,416,416,416,1159,1159,1159,1159,1159,1159,1159,1159,445,445,445,445,446,440,441,441,441,468,416,416,416,416,416,416,416,416,416,416,416,416,417,365,469,470,1160,1184,1158,1159,1159,1159,1159,1159,416,416,416,416,416,416,416,416,416,416,1159,1159,1159,1159,1159,1159,1159,340,340,
416,416,1159,1159,1159,1159,1159,1159,1159,1159,1159,1159,1159,1159,1159,416,1159,1159,1159,416,416,1159,1159,1159,1159,1159,1159,1159,1159,1159,1159,1159,1159,1159,1159,416,416,416,416,1157,1184,1184,1184,1158,1159,1159,1159,422,470,472,445,445,240,240,240,240,440,441,441,441,441,441,441,441,468,416,416,416,416,417,394,394,394,470,472,1160,1184,1158,1159,1159,1159,1159,416,416,416,416,416,416,416,416,416,1159,1159,1159,1159,1159,1159,1159,340,340,
416,416,1159,1159,1159,1159,1159,1159,1159,1159,1159,1159,1159,1159,1159,416,416,416,416,416,416,1159,1159,1159,1184,1184,1184,1184,1184,1184,1184,1184,1184,1159,1159,416,416,416,416,1185,422,470,472,1160,1158,1159,1159,471,416,469,470,471,416,416,416,240,240,240,240,319,240,240,240,240,440,441,441,468,416,417,416,416,394,416,469,470,1160,1184,1158,1159,1159,1159,1159,416,416,416,416,416,420,420,416,1159,1159,1159,1159,1159,1159,1159,416,416,
416,416,1159,1159,1159,1159,1157,1158,1159,1159,1159,1184,1184,1184,1158,416,416,416,416,416,416,1159,1159,422,470,470,470,470,470,470,470,470,472,445,416,416,416,416,416,470,471,369,469,472,1160,1184,1184,416,4543,416,416,416,2147484013,418,441,468,416,416,416,391,391,391,391,391,392,240,215,440,441,442,416,394,416,416,394,394,470,472,1161,1159,1159,1159,1159,1159,1159,1159,1159,1159,1159,416,416,1159,1159,1159,1159,1159,1159,1159,416,416,
416,416,1159,1159,1159,1159,1186,1160,1184,1184,1184,1184,445,445,1159,1159,416,416,416,416,416,1159,1159,446,394,394,370,365,369,416,369,416,444,445,416,416,416,416,1159,1159,1159,1159,1159,416,416,416,416,416,365,416,416,416,416,417,319,440,441,441,468,416,416,416,416,416,416,391,392,240,240,240,369,394,416,394,394,394,365,444,1184,1158,1159,1159,1159,1159,1159,1159,1159,1159,1159,1159,416,1159,1159,1159,1159,1159,1159,1159,416,416,
416,416,1184,1184,1184,1184,1185,422,470,470,472,1160,470,470,1184,1159,1159,1159,1159,1159,1159,1184,422,471,394,394,416,369,394,394,394,365,444,445,416,416,416,416,394,1159,1159,416,365,416,416,416,416,365,416,416,365,416,418,442,240,240,240,240,440,441,441,441,441,441,468,416,416,240,240,390,468,416,416,2147484013,418,441,369,469,472,1160,1184,1184,1158,1159,1159,1159,1159,1159,440,441,442,416,416,416,416,416,416,416,416,416,
416,416,445,445,445,445,470,471,1064,1064,1039,1037,1012,1039,1184,1184,1184,1184,1184,1184,470,470,471,369,370,418,441,441,468,394,394,370,444,445,445,416,416,416,394,416,416,343,441,341,342,342,343,441,341,342,343,441,442,321,240,240,240,240,240,320,240,240,240,2147483863,440,468,416,416,416,416,416,370,416,418,442,216,441,468,469,470,1160,472,1160,1184,1158,1159,1159,1159,1159,1159,1159,1159,416,416,416,416,416,416,416,416,
416,416,445,445,445,445,416,416,1014,1012,441,468,394,1160,1184,1184,1184,1184,470,470,470,470,365,418,441,442,217,465,440,341,343,468,469,472,445,445,416,445,343,342,445,320,442,240,240,240,240,240,240,240,2345,216,240,240,240,240,240,240,240,240,240,240,240,240,240,440,441,341,342,343,468,342,343,442,2345,240,240,240,394,394,470,469,470,472,1160,1184,1184,1158,1159,1159,1159,1159,1159,416,416,416,416,416,416,416,
416,416,416,445,445,416,416,404,403,404,404,440,441,441,441,441,441,341,342,343,341,342,343,442,216,320,321,321,2345,215,466,440,468,469,472,445,445,445,445,445,416,416,417,240,240,240,240,240,240,240,240,240,240,240,240,390,391,392,240,240,240,390,391,391,392,240,240,240,240,240,240,2345,240,2345,2147483863,240,240,240,240,240,320,394,394,469,470,472,472,1160,1184,1158,1159,1159,1159,1159,416,416,416,416,416,416,
416,416,416,416,416,416,416,404,404,403,404,416,416,416,416,416,416,321,321,416,416,416,416,332,416,416,321,321,216,416,416,416,440,468,469,470,470,416,416,365,365,418,442,240,240,240,240,240,240,240,240,240,240,240,240,415,369,417,215,240,240,440,468,416,417,240,240,240,320,240,240,2345,216,240,240,240,2345,2147483863,2345,2345,2345,2147483863,240,394,394,469,469,470,1160,1184,1159,1159,1159,1159,1159,416,416,416,416,416,
416,416,416,416,416,416,416,404,403,404,404,416,416,416,416,416,416,416,416,416,416,416,416,332,416,416,416,416,416,416,416,416,416,440,441,441,441,341,342,343,343,442,321,240,240,240,240,240,240,240,240,240,240,240,240,440,468,443,392,240,240,466,440,441,442,240,240,390,391,392,216,390,391,392,240,240,2345,2147483863,240,240,240,2345,2345,2345,2147483863,394,394,394,470,472,1158,1159,1159,1159,1159,1159,1159,1159,1159,1159,
416,416,416,416,416,416,416,404,404,403,404,416,416,416,416,416,416,416,416,416,416,416,416,332,416,416,416,1159,1159,1159,1159,1159,1159,416,340,340,340,391,391,240,240,240,240,240,240,240,215,240,240,215,240,240,240,240,240,240,215,416,346,240,240,240,240,240,240,240,240,415,416,443,391,393,416,443,392,240,2345,2147483863,240,240,240,240,240,2345,2345,2345,2147483863,240,469,472,1160,1184,1158,1159,1159,1159,1159,1159,1159,1159,
416,416,416,416,416,416,416,2147484686,2147484686,2147484686,2147484686,416,416,1159,1159,1159,1159,416,1159,1159,1159,1159,1159,332,1159,1159,1159,1159,1159,1159,1159,1159,1159,1159,1159,240,240,240,240,240,240,240,240,240,215,240,240,215,240,240,240,215,215,215,240,240,240,240,240,240,240,240,240,240,240,240,215,440,468,416,416,416,416,416,346,240,2345,2345,2345,2345,240,240,2345,2147483863,240,2345,2345,2345,394,469,470,472,1160,1184,1158,1159,1159,1159,1159,1159,
416,416,416,416,416,416,1037,1038,2147484686,1012,1014,394,394,416,416,1159,1159,1159,1159,1159,1159,1159,1157,1184,1158,1159,1159,1159,1159,1159,1159,1159,1159,1159,1159,1159,365,443,391,240,240,215,240,320,240,240,240,240,240,240,240,240,240,240,240,240,240,240,240,240,240,240,240,240,240,240,240,215,415,416,416,416,416,365,371,240,240,240,240,240,240,240,240,240,240,240,240,240,2345,394,394,469,470,1160,1184,1159,1159,1159,1159,1159,
416,416,1159,1159,422,416,1037,2147484686,2147484686,2147484686,2147484686,370,444,416,240,240,1159,1159,1159,240,240,1159,1186,445,1161,240,240,240,240,1159,1159,1159,1159,1159,1159,1159,416,416,418,215,390,391,392,240,240,240,240,240,240,240,240,240,240,240,240,240,240,240,240,240,240,240,240,240,240,240,240,240,415,416,370,416,416,416,240,390,391,392,216,390,391,392,240,240,240,240,240,240,240,240,240,394,394,470,472,1184,1184,1158,1159,1184,
416,416,416,369,416,416,416,1038,2147484686,1012,1014,416,416,416,416,416,416,416,416,370,416,417,215,240,216,240,240,445,240,1159,1159,1159,1159,1159,1159,1159,416,416,417,390,393,365,417,240,240,240,240,390,391,392,240,240,240,240,240,445,397,445,397,445,445,445,221,447,421,421,240,240,440,468,416,416,416,418,240,415,416,443,391,393,416,443,392,240,240,240,240,390,391,392,216,390,240,240,240,240,415,416,416,416,
416,1159,441,341,416,418,342,1014,1012,1038,1038,342,342,342,342,342,342,342,342,342,343,442,240,240,240,415,416,369,394,394,394,1159,1159,240,240,240,416,418,442,415,418,441,442,240,240,240,390,393,365,417,240,240,215,240,445,445,445,445,445,445,445,445,445,445,445,445,421,240,240,440,441,441,441,442,215,440,468,416,416,416,416,416,346,240,240,240,240,240,240,240,240,240,240,240,240,240,415,416,416,416,
445,470,470,471,418,442,240,2147484686,2147484686,2147484686,2147484686,240,240,240,240,240,240,240,240,216,240,240,240,240,240,440,441,441,468,394,394,416,416,370,416,418,441,442,321,440,442,240,240,240,240,240,415,418,441,442,240,240,240,240,445,445,445,445,445,445,445,445,445,445,445,445,445,447,240,319,240,240,240,240,240,215,415,416,416,416,416,365,371,240,240,240,240,240,240,240,240,240,240,240,240,240,415,416,416,416,
445,446,370,416,396,240,240,1038,2147484686,1012,1014,240,240,240,240,215,240,240,240,240,240,240,240,240,465,240,2345,465,440,341,343,342,342,342,343,442,240,240,240,240,240,240,240,240,240,240,440,442,240,240,240,240,240,240,445,445,445,445,445,445,445,445,445,445,445,445,445,446,392,240,240,240,240,240,240,240,415,416,370,416,416,416,396,240,240,240,240,240,240,240,240,240,240,240,240,240,440,468,416,416,
445,447,421,416,396,240,240,1014,1012,1038,1038,240,240,240,240,240,240,240,240,216,240,240,240,240,240,240,390,366,368,392,240,240,240,240,240,240,240,240,240,240,240,240,240,240,240,240,240,240,215,240,240,240,445,445,445,445,445,445,445,445,445,445,445,445,445,445,1186,446,421,240,240,240,240,240,240,240,440,468,416,416,416,418,442,240,240,240,240,240,240,240,240,240,240,240,240,240,2147483863,415,416,416,
445,445,446,416,417,216,240,240,240,240,216,240,240,240,240,240,240,240,240,216,240,240,215,240,215,240,415,369,365,417,240,240,240,240,240,240,240,240,240,240,240,240,240,240,240,240,240,240,240,240,240,240,1159,1159,1159,1159,1159,1159,1159,1159,1159,1159,1159,445,445,445,1186,446,446,240,240,240,240,240,240,392,240,440,441,441,441,442,240,240,240,240,240,240,240,240,240,240,319,240,240,240,390,393,416,416,
445,422,471,416,417,240,240,240,216,240,240,240,240,240,240,240,240,240,240,240,216,240,240,240,240,319,415,416,416,417,240,240,240,240,215,240,240,240,215,240,240,215,240,240,240,215,240,240,215,240,445,1159,1159,1159,1159,1159,1159,1159,1159,1159,445,445,1159,1159,1159,445,445,1186,446,392,240,240,240,240,240,240,240,240,240,240,240,240,240,240,240,240,240,240,240,240,240,240,240,240,240,240,415,416,416,416,
445,446,416,416,417,240,240,240,216,240,240,215,240,240,240,240,240,240,390,391,392,240,240,240,240,390,393,416,418,442,240,240,215,240,240,215,215,240,240,215,240,215,240,215,240,240,240,240,215,445,445,445,1159,1159,1159,1157,1184,1184,1158,1159,1159,1159,1159,445,1159,445,445,1186,446,417,340,240,240,240,240,240,240,240,240,240,240,240,240,240,390,366,368,392,390,392,240,390,391,392,240,390,393,416,370,416,
445,446,416,418,442,240,240,240,240,465,240,390,366,367,368,391,391,391,393,365,417,240,240,240,240,415,416,416,396,240,319,240,240,240,240,240,240,240,240,240,240,240,240,240,215,240,240,215,240,445,445,445,1159,1159,1157,1185,445,221,1160,1184,1184,1158,1159,1159,1159,445,445,445,447,421,2648,240,240,240,240,240,240,240,240,240,240,240,240,240,415,365,416,417,440,442,240,415,416,417,240,415,416,416,416,416,
445,446,1013,417,240,240,240,240,240,240,390,393,418,468,416,416,416,370,418,441,442,215,240,392,240,440,441,441,442,240,240,240,240,240,240,240,240,240,240,240,240,240,240,240,240,240,240,215,240,240,240,445,1159,1157,1185,422,470,470,470,470,472,1160,1158,1159,1159,445,445,445,445,446,465,240,240,240,240,240,240,240,240,240,240,240,240,240,440,468,369,443,391,392,240,440,441,442,240,415,416,416,416,416,
445,446,1063,443,392,240,240,240,240,215,440,441,442,440,441,341,342,343,442,216,240,240,416,346,240,240,240,240,240,240,240,240,240,240,240,240,465,240,390,366,368,392,390,392,240,240,240,215,445,240,240,445,1159,1186,422,471,369,1013,370,369,469,472,1161,1159,1159,445,445,445,1186,446,240,240,240,240,240,240,240,240,240,240,240,240,240,240,466,440,341,342,343,442,240,240,390,391,392,415,416,416,416,416,
445,447,421,369,417,240,240,240,240,240,240,240,240,240,240,240,240,240,240,240,240,240,416,371,240,390,391,392,240,240,240,240,240,240,240,240,240,240,415,365,416,417,440,442,240,240,240,240,445,240,240,445,1159,1186,446,1037,1064,1038,1013,1038,370,444,1161,1159,1159,445,445,445,1186,446,240,240,240,240,240,240,240,240,240,240,240,240,240,240,240,240,240,240,240,240,240,240,415,416,417,440,468,416,416,416,
445,445,446,416,443,392,240,240,240,240,240,240,240,240,240,240,240,240,240,416,416,416,416,396,390,393,370,346,240,390,419,240,240,240,240,240,240,240,440,468,369,443,391,392,240,240,240,240,445,240,445,240,1159,1186,446,370,1063,1037,1012,1039,416,444,1161,1159,1159,1159,445,445,1186,446,240,240,240,240,240,240,240,240,240,240,240,240,240,240,240,240,240,240,240,240,240,240,440,441,442,240,415,416,416,416,
240,445,446,416,416,417,240,240,468,416,416,416,416,416,416,416,416,416,416,416,416,418,441,442,415,369,365,396,240,415,444,240,240,240,240,240,240,240,466,440,341,342,343,442,240,240,445,240,445,240,240,240,1159,1186,447,421,365,370,1063,365,369,444,1161,1159,1159,445,445,445,1186,446,240,240,240,240,240,240,240,240,240,240,240,240,240,240,240,240,240,240,240,240,240,240,240,240,216,240,415,416,416,416,
240,445,446,416,416,417,240,240,440,441,441,441,441,441,441,441,441,341,342,342,343,442,240,240,440,341,343,442,240,415,469,470,472,445,445,240,240,240,240,240,240,240,240,240,240,240,240,240,240,240,240,240,445,445,1186,447,421,1064,1039,419,420,397,1161,1159,1159,445,445,1159,1186,446,240,240,240,390,366,368,392,240,240,240,240,240,240,390,366,368,392,390,392,240,390,391,392,240,240,240,440,441,441,441,
240,422,471,416,418,442,240,240,240,240,216,240,240,240,240,216,240,240,240,240,216,240,240,240,240,240,240,240,240,440,468,370,469,470,472,240,240,240,240,240,240,240,240,240,240,240,240,445,445,240,240,240,240,1186,1186,221,447,421,419,397,445,445,1161,445,1159,445,445,1159,1186,447,392,216,240,415,369,365,417,240,240,240,240,240,240,415,365,416,417,440,442,240,415,416,417,240,240,240,240,240,240,240,
422,471,416,416,417,240,240,240,240,2147483864,240,240,240,240,240,240,240,240,240,240,240,240,240,240,240,390,391,392,465,240,440,468,416,416,416,1184,1184,1184,1184,1158,1159,1159,1158,1159,1159,1159,1159,1159,1159,1159,445,240,240,1186,1186,445,445,447,397,221,445,445,1161,445,1159,365,443,416,416,416,417,240,240,415,416,416,417,240,240,240,240,240,240,440,468,369,443,391,392,240,440,441,442,240,240,240,2680,2681,2652,2653,
445,446,370,416,417,240,240,240,240,240,240,240,240,240,240,240,240,240,240,390,391,392,240,240,240,415,370,443,392,240,240,468,370,370,469,470,470,470,472,1161,1159,1159,1160,1184,1184,1184,1184,1184,1158,1159,1159,240,240,1186,1186,445,445,445,221,445,445,445,445,445,1159,416,416,416,416,416,417,240,390,393,416,418,442,240,240,240,240,240,240,466,440,341,342,343,442,240,240,390,391,392,240,240,2712,2112,2112,2112,
445,447,421,416,417,240,240,240,240,240,216,240,240,240,240,216,240,240,240,415,369,417,215,240,240,440,441,468,443,392,240,440,468,416,416,416,416,394,444,1160,1158,1159,470,470,470,470,470,472,1161,1159,1159,240,240,1186,1186,445,221,221,445,445,445,445,445,445,1159,416,416,416,416,418,442,240,415,416,416,396,240,240,240,240,240,240,240,240,240,240,240,240,240,240,240,326,365,417,240,240,2744,2745,2745,2745,
445,445,446,416,417,216,240,240,240,240,240,240,240,216,240,240,240,240,240,440,468,443,392,240,240,319,340,326,418,442,240,240,240,441,418,321,468,394,469,472,1160,1158,369,416,416,416,394,444,1160,1158,1159,240,240,1186,445,445,445,445,1159,445,445,445,445,445,240,416,416,416,416,396,240,240,440,441,441,442,240,240,240,240,240,240,240,240,240,240,240,240,240,216,240,351,416,346,240,240,240,240,240,240,
445,422,471,416,417,240,240,240,240,240,240,240,240,216,240,240,215,240,240,2648,415,416,346,240,240,240,240,351,443,391,392,240,240,440,442,340,440,441,468,418,321,468,441,418,321,468,394,469,472,1160,1158,1159,1159,1159,445,445,240,240,240,240,240,240,1159,1159,1159,1186,416,416,418,442,240,240,240,240,240,240,240,240,240,240,240,240,240,390,366,368,392,390,392,240,240,376,365,371,240,240,240,465,240,2147483863,
445,446,416,416,417,240,240,240,240,240,240,240,240,240,240,240,240,240,240,340,415,365,396,240,240,240,216,376,416,369,417,240,240,390,366,367,368,392,440,442,2345,440,440,442,340,440,441,468,418,321,468,1184,1158,1159,1159,445,240,240,240,240,240,240,1159,1157,1184,1185,446,416,396,240,2147483864,240,240,240,240,240,240,240,240,240,240,240,240,415,365,416,417,440,442,240,390,393,365,396,240,240,2147483863,2147483864,216,465,
445,446,416,418,442,240,216,240,240,240,240,240,240,240,240,240,240,240,240,2648,440,441,442,240,240,240,240,440,441,441,442,319,240,393,394,416,416,443,391,391,392,390,390,366,367,368,392,440,442,2345,440,468,1161,1159,1159,240,240,240,240,240,240,240,1157,1185,422,470,471,418,442,466,390,391,392,240,240,240,240,240,240,240,240,240,240,440,468,369,443,391,392,240,415,365,418,442,240,240,466,240,320,466,
445,446,1013,417,240,240,240,240,240,216,240,240,240,240,240,390,366,368,392,390,392,240,390,391,392,240,240,240,340,390,366,367,368,468,394,418,321,468,394,394,417,415,393,394,416,416,443,391,391,392,390,393,1160,1184,1184,472,240,240,240,471,365,370,1157,422,471,365,370,346,217,216,415,365,417,240,240,240,240,240,240,240,240,240,240,466,440,341,342,343,442,240,440,441,442,240,240,240,216,215,321,2147483864,
445,446,1063,443,392,240,240,240,240,216,240,240,215,240,240,415,365,416,417,440,442,240,415,416,417,240,240,240,390,393,365,418,468,440,441,442,240,440,341,343,442,415,468,394,418,321,468,394,394,417,415,469,470,470,470,472,240,240,240,418,441,468,422,471,418,441,468,371,320,321,440,441,442,240,240,240,240,240,240,240,240,240,240,240,240,240,240,240,240,240,240,240,240,240,240,240,240,465,240,2147483863,
445,447,421,369,417,240,240,240,240,240,240,240,240,240,240,440,468,369,443,391,392,240,440,441,442,240,240,240,415,416,416,443,393,370,346,240,240,240,240,240,240,215,440,441,442,240,440,341,343,442,415,418,321,415,394,394,469,470,470,417,321,415,471,394,417,321,415,396,240,217,240,240,240,240,240,390,366,368,392,390,240,240,240,240,240,240,240,240,240,240,240,240,240,216,240,240,240,240,216,321,
445,445,446,416,443,392,240,240,240,240,240,240,240,240,240,466,440,341,342,343,442,240,240,390,391,392,240,240,440,468,416,370,394,416,371,240,240,320,240,240,240,240,240,240,240,240,240,240,240,240,240,468,416,369,416,369,416,369,416,416,416,418,441,441,442,465,240,240,390,391,392,240,240,240,240,415,369,365,417,440,240,240,240,240,240,240,240,240,240,240,240,240,240,240,240,240,240,240,240,320,
240,445,446,416,416,417,240,240,240,240,240,240,240,240,240,240,240,240,240,240,240,465,240,240,240,240,240,2147483864,240,440,441,468,416,369,396,240,240,240,2147483864,240,240,240,240,240,240,240,240,240,240,240,240,440,441,441,441,441,441,441,441,441,441,442,319,240,240,240,390,392,415,365,417,240,240,240,240,415,416,416,443,391,240,240,215,240,390,391,240,390,392,240,240,240,240,240,240,240,2147483863,240,466,2147483864,
240,445,446,416,416,417,240,216,240,390,366,368,392,240,466,240,240,216,240,240,240,240,240,240,240,240,240,240,240,240,319,440,441,441,442,240,215,240,240,415,416,416,416,240,392,240,240,240,240,240,240,240,240,240,240,391,392,240,215,240,240,240,240,240,240,240,440,442,440,441,442,240,418,441,468,440,441,468,416,469,367,368,391,391,393,365,392,440,442,240,240,240,390,392,240,240,240,240,2147483864,321,
240,422,471,416,418,442,240,240,240,415,369,370,443,366,368,392,240,240,240,2112,2112,2112,2112,2112,2112,240,2147483863,240,240,240,240,240,240,240,240,240,240,240,240,440,441,468,416,416,240,240,240,392,240,240,240,240,240,2147483863,240,416,443,392,240,240,240,240,240,240,240,215,240,240,240,240,240,390,417,321,415,392,240,440,468,416,416,416,416,416,416,416,443,391,392,240,240,240,440,442,390,392,240,1158,1159,1184,
422,471,416,416,417,240,240,240,240,440,441,468,369,416,365,417,240,240,240,2112,2112,2112,2112,2112,2112,2112,2112,240,240,240,240,240,240,240,240,240,240,240,240,240,240,440,468,416,240,240,240,240,240,240,240,240,240,240,240,416,416,443,392,240,240,240,240,240,240,240,240,240,240,240,240,326,418,441,468,346,240,240,440,468,416,416,416,416,416,416,416,418,442,240,240,390,392,390,393,346,240,416,416,416,
445,422,470,471,240,240,240,240,240,340,215,440,341,342,343,442,240,240,240,2112,2112,2112,2112,2112,2112,2112,2073,240,240,216,240,240,240,240,240,216,240,240,240,240,240,240,415,416,240,240,240,445,240,240,216,240,445,240,240,416,416,416,417,240,240,240,2147483864,240,240,240,240,240,240,240,240,351,417,216,415,371,240,216,240,440,416,416,365,416,416,416,416,417,319,240,240,440,442,440,468,396,240,416,416,416,
240,240,240,240,240,240,240,240,240,240,240,240,240,240,240,240,240,240,240,2112,2112,2112,2112,2112,2112,2112,2112,2112,2112,240,240,240,240,240,240,240,240,240,240,240,215,240,415,416,240,240,240,445,240,240,240,240,445,240,240,416,416,416,417,240,240,240,240,415,416,416,416,240,240,216,240,376,443,391,393,396,240,240,240,391,416,365,416,416,365,416,418,442,240,240,240,240,390,392,440,442,240,416,416,416,
240,240,240,240,240,240,240,240,240,240,240,240,240,240,240,240,240,240,240,2112,2112,2112,2112,2112,2112,2112,2112,2112,2112,2112,2112,240,2112,240,240,240,240,240,240,240,240,465,415,416,416,416,416,470,470,470,470,470,470,240,416,416,416,418,442,240,240,215,240,440,441,468,416,416,240,240,240,440,341,342,343,442,240,2147483863,240,416,343,441,341,342,343,441,442,321,240,240,240,240,440,442,240,240,240,468,416,416,
2239,2239,2239,2239,2239,2239,240,240,240,240,240,240,240,240,240,240,240,240,240,2112,2112,2081,2112,2112,2112,2112,2112,2112,2112,2074,2112,2112,2112,2112,2112,2112,2112,2112,240,240,240,240,440,441,441,468,416,416,416,1336,1336,416,416,416,416,418,441,442,240,216,240,240,240,240,240,440,468,416,240,240,240,240,240,240,240,240,240,240,240,416,240,240,240,240,240,240,240,240,240,240,240,240,240,240,240,240,240,415,416,416,
2239,2239,2239,2239,2239,2239,2239,2239,2239,240,240,240,240,240,240,240,240,2237,2237,2076,2078,2112,2112,2112,2112,2112,2112,2112,2112,2074,2112,2112,2112,2112,2112,2112,2112,2112,2112,2112,2109,2109,2109,240,216,440,468,416,416,1336,1336,416,416,418,441,442,465,240,240,240,240,240,240,240,240,240,415,416,240,240,240,445,240,240,216,240,445,240,240,416,240,240,216,240,240,240,240,216,240,240,240,240,240,240,240,240,240,393,416,416,
2207,2271,2207,2239,2239,2239,2239,2239,2239,2239,2239,2239,2239,2239,2270,2237,2237,2237,2237,2237,2079,2144,2076,2077,2078,2112,2080,2112,2112,2112,2112,2112,2112,2112,2112,2112,2112,2112,2112,2112,2112,2112,2112,2142,240,240,440,441,1336,1336,1336,1336,441,442,215,240,240,240,240,240,240,240,240,240,215,240,415,416,240,240,240,445,240,240,240,240,445,240,240,416,240,240,240,240,240,240,240,216,240,240,215,240,240,240,240,391,320,416,416,416,
2175,2175,2175,2208,2271,2239,2239,2239,2239,2239,2239,2239,2239,2239,2206,2205,2237,2237,2237,2237,2237,2079,2079,2079,2079,2144,2076,2078,2112,2112,2112,2112,2112,2112,2112,2112,2112,2112,2112,2112,2112,2112,2112,2112,2110,2112,2112,240,1336,1336,1336,1336,2112,2112,2112,2112,2112,2112,2112,240,240,240,240,240,240,465,415,416,416,416,416,470,470,470,470,470,470,240,416,416,240,240,240,240,240,240,240,240,240,240,240,240,240,216,240,240,393,416,370,416,
2175,2275,2275,2175,2175,2208,2271,2207,2239,2239,2239,2239,2239,2239,2239,2239,2206,2237,2237,2237,2237,2237,2237,2237,2079,2079,2079,2079,2144,2076,2078,2112,2112,2112,2112,2112,2112,2112,2112,2112,2112,2112,2112,2112,2112,2112,2112,2112,1073744153,1073744153,1073744153,1073744153,2112,2112,2112,2112,2112,2112,2112,2112,240,240,240,240,240,240,440,441,441,468,416,416,416,1336,1336,416,416,416,416,418,240,240,240,240,240,240,240,240,240,240,240,240,240,240,240,415,416,416,416,416,
2175,2175,2175,2175,2175,2175,2175,2175,2208,2271,2239,2239,2239,2239,2239,2239,2239,2206,2269,2237,2237,2237,2340,2237,2237,2237,2237,2079,2079,2079,2079,2144,2077,2078,2112,2081,2112,2112,2112,2112,2112,2112,2112,2112,2112,2112,2112,2147485726,1073744095,1073744095,1073744095,1073744095,2078,2081,2112,2112,2112,2073,2112,2112,2112,2112,2112,2112,2112,2112,2109,240,216,440,468,416,416,1336,1336,416,416,216,240,240,240,240,216,216,240,240,240,240,216,240,240,240,240,240,240,415,416,416,416,416,
2329,2329,2329,2175,2175,2175,2275,2175,2175,2175,2208,2271,2207,2271,2239,2239,2239,2239,2239,2206,2269,2237,2237,2237,2237,2237,2237,2237,2237,2237,2079,2079,2079,2079,2144,2077,2077,2076,2077,2078,2112,2112,2112,2112,2112,2112,2147485759,2237,2661,2661,2661,2661,2237,2111,2112,2112,2112,2112,2112,2112,2112,2074,2112,2112,2112,2112,2112,2142,240,240,440,441,1336,1336,1336,1336,441,240,240,240,240,240,216,240,240,240,240,240,216,240,240,215,240,240,240,415,416,416,416,416,
2360,2360,2360,2361,2329,2329,2175,2175,2175,2175,2175,2175,2175,2175,2208,2239,2239,2239,2239,2239,2239,2206,2237,2237,2237,2237,2237,2237,2237,2237,2237,2237,2237,2079,2079,2079,2079,2079,2079,2079,2111,2147485726,2078,2112,2112,2147485759,2079,2237,2269,2269,2269,2269,2237,2079,2111,2112,2112,2112,2112,2112,2112,2112,2112,2112,2112,2112,2112,2472,2110,2112,2112,240,1336,1336,1336,1336,2112,2112,2112,2110,240,240,240,240,2110,240,240,240,240,240,2112,2112,2112,240,240,440,468,416,416,416,
2360,2360,2360,2360,2360,2360,2361,2329,2329,2175,2175,2175,2200,2201,2175,2208,2271,2239,2239,2239,2239,2239,2206,2269,2205,2237,2237,2237,2237,2237,2237,2237,2237,2237,2237,2237,2237,2237,2237,2079,2079,2079,2079,2144,2147485792,2079,2079,2665,2239,2239,2239,2239,2238,2079,2079,2144,2077,2112,2112,2112,2080,2112,2112,2112,2112,2112,2112,2112,2112,2112,2112,2112,1073744153,1073744153,1073744153,1073744153,2112,2112,2112,2112,2112,2112,2112,2112,2112,2112,2112,2112,2112,2112,2112,2112,2112,2112,2112,2112,415,416,416,416,
2360,2360,2360,2360,2360,2360,2360,2360,2360,2361,2175,2175,2232,2233,2175,2175,2175,2208,2207,2239,2239,2239,2239,2239,2239,2206,2269,2205,2269,2205,2237,2237,2237,2237,2237,2237,2237,2237,2237,2237,2237,2237,2079,2079,2079,2079,2237,2665,2239,2239,2239,2239,2270,2237,2079,2079,2079,2144,2076,2077,2076,2077,2077,2112,2112,2112,2112,2112,2112,2112,2112,2147485726,1073744095,1073744095,1073744095,1073744095,2078,2081,2112,2112,2080,2112,2112,2080,2112,2112,2112,2112,2112,2080,2074,2112,2112,2112,2112,2112,415,416,416,416,
2360,2360,2360,2360,2360,2360,2360,2360,2360,2360,2361,2329,2175,2175,2175,2175,2175,2175,2175,2208,2207,2271,2239,2239,2239,2239,2239,2239,2239,2239,2206,2269,2205,2269,2205,2269,2205,2237,2237,2237,2237,2237,2237,2237,2237,2237,2237,2665,2239,2239,2239,2239,2238,2237,2237,2237,2079,2079,2079,2079,2079,2079,2077,2078,2077,2112,2112,2112,2112,2112,2147485759,2237,2661,2661,2661,2661,2237,2111,2112,2112,2112,2112,2112,2112,2112,2112,2112,2112,2112,2112,2112,2112,2112,2112,2112,2112,440,441,441,441,
2360,2360,2360,2360,2360,2360,2360,2360,2360,2360,2360,2360,2361,2175,2175,2175,2175,2175,2175,2175,2175,2175,2208,2271,2239,2239,2239,2239,2239,2239,2239,2239,2239,2239,2239,2239,2239,2206,2269,2205,2269,2205,2237,2237,2237,2237,2237,2408,2239,2239,2239,2239,2270,2237,2237,2237,2237,2237,2237,2237,2237,2237,2079,2079,2111,2077,2112,2112,2112,2147485759,2079,2237,2269,2269,2269,2269,2237,2079,2111,2112,2112,2112,2080,2112,2112,2112,2108,2110,2112,2112,2112,2112,2112,2112,2112,2112,240,240,240,240,
2360,2360,2360,2360,2360,2360,2360,2360,2360,2360,2360,2360,2360,2361,2329,2329,2175,2175,2175,2175,2175,2175,2175,2175,2208,2271,2207,2271,2207,2271,2239,2239,2239,2239,2239,2239,2239,2239,2239,2239,2239,2239,2206,2205,2269,2205,2408,2239,2239,2239,2239,2239,2206,2237,2237,2237,2237,2237,2237,2237,2237,2237,2237,2079,2079,2079,2079,2144,2147485792,2079,2079,2665,2239,2239,2239,2239,2238,2079,2079,2144,2077,2077,2078,2112,2112,2112,2172,2174,2112,2112,2112,2112,2112,2112,2112,2112,240,240,465,216,
2360,2360,2360,2360,2360,2360,2360,2360,2360,2360,2360,2360,2360,2360,2360,2360,2361,2329,2329,2175,2175,2175,2175,2175,2175,2175,2175,2175,2175,2175,2208,2271,2207,2271,2207,2239,2239,2239,2239,2239,2239,2239,2239,2239,2239,2239,2239,2239,2239,2239,2239,2239,2239,2206,2205,2269,2205,2237,2237,2237,2237,2237,2237,2237,2237,2237,2079,2079,2079,2079,2237,2665,2239,2239,2239,2239,2270,2237,2079,2079,2079,2079,2079,2144,2077,2076,2077,2077,2077,2076,2077,2081,2112,2147485726,2147485725,2147485792,2079,2079,2079,2079,
2360,2360,2360,2360,2360,2360,2360,2360,2360,2360,2360,2360,2360,2360,2360,2360,2360,2360,2360,2361,2329,2175,2175,2175,2175,2175,2175,2175,2175,2175,2175,2175,2175,2175,2175,2208,2207,2271,2239,2239,2239,2239,2239,2239,2239,2239,2239,2239,2239,2239,2239,2239,2239,2239,2239,2239,2239,2206,2205,2269,2205,2269,2237,2237,2237,2237,2237,2237,2237,2237,2237,2665,2239,2239,2239,2239,2238,2237,2237,2237,2237,2237,2079,2079,2079,2079,2079,2079,2079,2079,2079,2144,2147485759,2079,2079,2079,2079,2079,2079,2079,
2360,2360,2360,2360,2360,2360,2360,2360,2360,2360,2360,2360,2360,2360,2360,2360,2360,2360,2360,2360,2360,2361,2329,2329,2175,2175,2175,2175,2175,2175,2175,2175,2175,2175,2175,2175,2175,2175,2208,2271,2207,2271,2207,2271,2239,2239,2239,2239,2271,2207,2271,2239,2239,2239,2239,2239,2239,2239,2239,2239,2239,2239,2269,2205,2269,2205,2237,2237,2237,2237,2237,2408,2239,2239,2239,2239,2270,2237,2237,2237,2237,2237,2237,2237,2237,2237,2237,2237,2237,2237,2237,2079,2079,2079,2237,2237,2237,2237,2237,2237,
2360,2360,2360,2360,2360,2360,2360,2360,2360,2360,2360,2360,2360,2360,2360,2360,2360,2360,2360,2360,2360,2360,2360,2360,2361,2329,2329,2175,2175,2175,2175,2175,2175,2175,2175,2175,2175,2175,2175,2175,2175,2175,2175,2175,2208,2207,2271,2147485856,2175,2175,2175,2208,2207,2239,2239,2239,2239,2239,2239,2239,2239,2239,2239,2239,2239,2239,2206,2205,2269,2205,2408,2239,2239,2239,2239,2239,2206,2237,2237,2237,2237,2237,2237,2237,2237,2237,2237,2237,2237,2237,2237,2237,2237,2237,2237,2237,2237,2237,2237,2237,
2360,2360,2360,2360,2360,2360,2360,2360,2360,2360,2360,2360,2360,2360,2360,2360,2360,2360,2360,2360,2360,2360,2360,2360,2360,2360,2360,2361,2329,2329,2329,2329,2175,2175,2297,2175,2175,2175,2175,2175,2175,2175,2175,2175,2175,2175,2175,2175,2175,2175,2175,2175,2175,2208,2207,2271,2207,2239,2239,2239,2239,2239,2239,2239,2239,2239,2239,2239,2239,2239,2239,2239,2239,2239,2239,2239,2239,2206,2205,2269,2205,2269,2205,2269,2205,2269,2237,2237,2237,2237,2237,2237,2237,2237,2237,2237,2237,2237,2237,2237,
2360,2360,2360,2360,2360,2360,2360,2360,2360,2360,2360,2360,2360,2360,2360,2360,2360,2360,2360,2360,2360,2360,2360,2360,2360,2360,2360,2360,2360,2360,2360,2360,2361,2329,2329,2329,2329,2175,2175,2175,2175,2175,2175,2175,2175,2175,2175,2175,2175,2175,2175,2175,2175,2175,2175,2175,2175,2208,2207,2271,2207,2271,2207,2271,2207,2271,2207,2239,2239,2239,2239,2239,2239,2239,2239,2239,2239,2239,2239,2239,2239,2239,2239,2239,2239,2239,2206,2269,2205,2269,2205,2269,2205,2269,2205,2269,2237,2237,2237,2237,
2360,2360,2360,2360,2360,2360,2360,2360,2360,2360,2360,2360,2360,2360,2360,2360,2360,2360,2360,2360,2360,2360,2360,2360,2360,2360,2360,2360,2360,2360,2360,2360,2360,2360,2360,2360,2360,2361,2329,2329,2329,2329,2329,2329,2329,2175,2175,2175,2175,2175,2175,2175,2175,2175,2175,2175,2175,2175,2175,2175,2175,2175,2175,2175,2175,2175,2175,2208,2207,2271,2207,2271,2239,2239,2239,2239,2239,2239,2239,2239,2239,2239,2239,2239,2239,2239,2239,2239,2239,2239,2239,2239,2239,2239,2239,2239,2206,2269,2205,2269,
2360,2360,2360,2360,2360,2360,2360,2360,2360,2360,2360,2360,2360,2360,2360,2360,2360,2360,2360,2360,2360,2360,2360,2360,2360,2360,2360,2360,2360,2360,2360,2360,2360,2360,2360,2360,2360,2360,2360,2360,2360,2360,2360,2360,2360,2361,2329,2329,2329,2329,2329,2175,2175,2175,2175,2175,2175,2175,2175,2175,2175,2175,2175,2175,2175,2175,2175,2175,2175,2175,2175,2175,2208,2271,2207,2271,2207,2271,2207,2239,2239,2239,2239,2239,2239,2239,2239,2239,2239,2239,2239,2239,2239,2239,2239,2239,2239,2239,2239,2239,
2360,2360,2360,2360,2360,2360,2360,2360,2360,2360,2360,2360,2360,2360,2360,2360,2360,2360,2360,2360,2360,2360,2360,2360,2360,2360,2360,2360,2360,2360,2360,2360,2360,2360,2360,2360,2360,2360,2360,2360,2360,2360,2360,2360,2360,2360,2360,2360,2360,2360,2360,2361,2329,2329,2329,2329,2175,2175,2175,2175,2175,2175,2175,2175,2175,2175,2175,2175,2175,2175,2175,2175,2175,2175,2175,2175,2175,2175,2175,2208,2207,2271,2207,2271,2207,2239,2239,2239,2239,2239,2239,2239,2239,2239,2239,2239,2239,2239,2239,2239,
2360,2360,2360,2360,2360,2360,2360,2360,2360,2360,2360,2360,2360,2360,2360,2360,2360,2360,2360,2360,2360,2360,2360,2360,2360,2360,2360,2360,2360,2360,2360,2360,2360,2360,2360,2360,2360,2360,2360,2360,2360,2360,2360,2360,2360,2360,2360,2360,2360,2360,2360,2360,2360,2360,2360,2360,2361,2329,2329,2329,2329,2329,2329,2329,2329,2329,2175,2175,2175,2175,2175,2175,2175,2265,2175,2175,2175,2175,2175,2175,2175,2175,2175,2175,2175,2208,2207,2271,2207,2271,2207,2271,2207,2271,2207,2239,2239,2239,2239,2239,
2360,2360,2360,2360,2360,2360,2360,2360,2360,2360,2360,2360,2360,2360,2360,2360,2360,2360,2360,2360,2360,2360,2360,2360,2360,2360,2360,2360,2360,2360,2360,2360,2360,2360,2360,2360,2360,2360,2360,2360,2360,2360,2360,2360,2360,2360,2360,2360,2360,2360,2360,2360,2360,2360,2360,2360,2360,2360,2360,2360,2360,2360,2360,2360,2360,2360,2361,2329,2329,2329,2329,2329,2329,2329,2175,2175,2175,2175,2175,2175,2175,2175,2175,2175,2175,2175,2175,2175,2175,2175,2175,2175,2175,2175,2175,2208,2207,2271,2207,2271
</data>
 </layer>
 <layer id="25" name="Back2" width="100" height="75">
  <data encoding="csv">
0,0,0,0,0,0,0,0,0,0,0,0,0,0,0,0,0,0,0,0,0,0,0,0,0,0,0,0,0,0,0,0,0,0,0,0,0,0,0,0,0,0,0,0,0,0,0,0,0,0,0,0,0,0,0,0,0,0,0,0,0,0,0,0,0,0,0,0,0,0,0,0,0,0,0,0,0,0,0,0,0,0,0,0,0,0,0,0,0,0,0,0,0,0,0,0,0,0,0,0,
0,0,0,0,0,0,0,0,0,0,0,0,0,0,0,0,0,0,0,0,0,0,0,0,0,0,0,0,0,0,0,0,0,0,0,0,0,0,0,0,0,0,0,0,0,0,0,0,0,0,0,0,0,0,0,0,0,0,0,0,0,0,0,0,0,0,0,0,0,0,0,0,0,0,0,0,0,0,0,0,0,0,0,0,0,0,0,0,0,0,0,0,0,0,0,0,0,0,0,0,
0,0,0,0,0,0,0,0,0,0,0,0,0,0,0,0,0,0,0,0,0,0,0,0,0,0,0,0,0,0,0,0,0,0,0,0,0,0,0,0,0,0,0,0,0,0,0,0,0,0,0,0,0,0,0,0,0,0,0,0,0,0,0,0,0,0,0,0,0,0,0,0,0,0,0,0,0,0,0,0,0,0,0,0,0,0,0,0,0,0,0,0,0,0,0,0,0,0,0,0,
0,0,0,0,0,0,0,0,0,0,0,0,0,0,0,0,0,0,0,0,0,0,0,0,0,0,0,0,0,0,0,0,0,0,0,0,0,0,0,0,0,0,0,0,0,0,0,0,0,0,0,0,0,0,0,0,0,0,0,0,0,0,0,0,0,0,0,0,0,0,0,0,0,0,0,0,0,0,0,0,0,0,0,0,0,0,0,0,0,0,0,0,0,0,0,0,0,0,0,0,
0,0,0,0,0,0,0,0,0,0,0,0,0,0,0,0,0,0,0,0,0,0,0,0,0,0,0,0,0,0,0,0,0,0,0,0,0,0,0,0,0,0,0,0,0,0,0,0,0,0,0,0,0,0,0,0,0,0,0,0,0,0,0,0,0,0,0,0,0,0,0,0,0,0,0,0,0,0,0,0,0,0,0,0,0,0,0,0,0,0,0,0,0,0,0,0,0,0,0,0,
0,0,0,0,0,0,0,0,0,0,0,0,0,0,0,0,0,0,0,0,0,0,0,0,0,0,0,0,0,0,0,0,0,0,0,0,0,0,0,0,0,0,0,0,0,0,0,0,0,0,0,0,0,0,0,0,0,0,0,0,0,0,0,0,0,0,0,0,0,0,0,0,0,0,0,0,0,0,0,0,0,0,0,0,0,0,0,0,0,0,0,0,0,0,0,0,0,0,0,0,
0,0,0,0,0,0,0,22443,22442,0,0,0,0,0,0,0,0,0,0,0,0,0,0,0,0,0,0,0,0,0,0,0,0,0,0,0,0,0,0,0,0,0,0,0,0,0,0,0,0,0,0,0,0,0,0,0,0,0,0,0,0,0,0,0,0,0,0,0,0,0,0,0,0,0,0,0,0,0,0,0,0,0,0,0,0,0,0,0,0,0,0,0,0,0,0,0,0,0,0,0,
0,0,0,0,0,0,0,22462,22514,22514,0,0,0,0,0,0,0,0,0,0,0,0,0,0,0,0,0,0,0,0,0,0,0,0,0,557,0,0,0,0,0,0,0,0,0,0,0,0,0,0,0,0,0,0,0,0,0,0,0,0,0,0,0,0,0,0,0,0,0,0,0,0,0,0,0,0,0,0,0,0,0,0,0,0,0,0,0,0,0,0,0,0,0,0,0,0,0,0,0,0,
0,0,0,0,0,0,0,22424,22484,22485,0,0,0,0,0,0,0,0,0,0,0,0,0,0,0,0,0,0,0,0,0,0,0,0,0,582,0,0,0,0,0,0,0,0,0,0,0,0,0,0,0,0,0,0,0,0,0,0,0,0,0,0,0,0,0,0,0,0,0,0,0,0,0,0,0,0,0,0,0,0,0,0,0,0,0,0,0,0,0,0,0,0,0,0,0,0,0,0,0,0,
0,0,0,0,0,0,0,0,0,0,0,0,0,0,0,0,0,0,0,0,0,0,0,0,0,0,0,0,0,0,0,0,0,0,0,607,0,0,0,0,0,0,0,0,0,0,0,0,0,0,0,0,0,0,0,0,0,0,0,0,0,0,0,0,0,0,0,0,0,0,0,0,0,0,0,0,0,0,0,0,0,0,0,0,0,0,0,0,0,0,0,0,0,0,0,0,0,0,0,0,
0,0,0,0,0,0,0,0,0,0,0,0,0,0,0,0,0,0,0,0,0,0,0,0,0,0,0,0,0,0,0,0,0,0,0,0,0,0,0,0,0,0,0,0,0,0,0,0,0,0,0,0,0,0,0,0,0,0,0,0,0,0,0,0,0,0,0,0,0,0,0,0,0,0,0,0,0,0,0,0,0,0,0,0,0,0,0,0,0,0,0,0,0,0,0,0,0,0,0,0,
0,0,0,0,0,0,0,0,0,0,0,0,0,0,0,0,0,0,0,0,0,0,0,533,0,0,0,0,0,0,0,0,0,0,0,0,0,0,0,0,0,0,0,0,0,0,0,0,0,0,0,0,0,0,0,0,0,0,0,0,0,0,0,0,0,0,0,0,0,0,0,0,0,0,0,0,0,0,0,0,0,0,0,0,0,0,0,0,0,0,0,0,0,0,0,0,0,0,0,0,
0,0,0,0,0,0,0,0,0,0,0,0,0,0,0,0,0,0,0,0,0,0,0,558,0,0,0,0,0,0,0,0,0,0,0,0,0,0,0,0,0,0,0,0,0,0,0,0,0,0,0,0,0,0,0,0,0,0,0,0,0,0,0,0,0,0,0,0,0,0,0,0,0,0,0,0,0,0,0,0,0,0,0,0,0,0,0,0,0,0,0,0,0,0,0,0,0,0,0,0,
0,0,0,0,0,0,0,0,0,0,0,0,0,0,0,0,0,0,0,0,0,0,0,583,0,0,0,0,0,0,0,0,0,0,0,0,0,0,0,0,0,0,0,0,0,0,0,0,0,0,0,0,0,0,0,0,0,0,0,0,0,0,0,0,0,0,0,0,0,0,0,0,0,0,0,0,0,0,0,0,0,0,0,0,0,0,0,0,0,0,0,0,0,0,0,0,0,0,0,0,
0,0,0,0,0,0,0,22420,22476,22476,22419,0,0,0,0,0,0,0,0,0,0,0,0,1159,0,0,0,0,0,0,0,0,0,0,0,0,0,0,0,0,0,0,0,0,0,0,0,0,0,0,0,0,0,0,0,0,0,0,0,0,0,0,0,0,0,0,0,0,0,0,0,0,0,0,0,0,0,0,0,0,0,0,0,0,0,0,0,0,0,0,0,0,0,0,0,0,0,0,0,0,
0,0,0,0,0,0,0,0,0,0,0,0,0,0,0,0,0,0,0,0,0,0,0,0,0,0,0,0,0,0,0,0,0,0,0,0,0,0,0,0,0,0,0,0,0,0,0,0,0,0,0,0,0,0,0,0,0,0,0,0,0,0,0,0,0,0,0,0,0,0,0,0,0,0,0,0,0,0,0,0,0,0,0,0,0,0,0,0,0,0,0,0,0,0,0,0,0,0,0,0,
0,0,0,0,0,0,0,22420,22476,22476,22419,0,0,0,0,0,0,0,0,0,0,0,0,0,0,0,0,0,0,0,0,0,0,0,0,0,0,0,0,0,0,0,0,0,0,0,0,0,0,0,0,0,0,0,0,0,0,0,0,0,0,0,0,0,0,0,0,0,0,0,0,0,0,0,0,0,0,0,0,0,0,0,0,0,0,0,0,0,0,0,0,0,0,0,0,0,0,0,0,0,
0,0,0,0,0,0,0,22420,22476,22476,22419,0,0,0,0,0,0,0,0,0,0,0,0,0,0,0,0,0,0,0,0,0,0,0,0,0,0,0,0,0,0,0,0,0,0,0,0,0,0,0,0,0,0,0,0,0,0,0,0,0,0,0,0,0,0,0,0,0,0,0,0,0,0,0,0,0,0,0,0,0,0,0,0,0,0,0,0,0,0,0,0,0,0,0,0,0,0,0,0,0,
0,0,0,0,0,0,0,0,0,0,0,0,0,0,0,0,0,0,0,0,0,0,0,0,0,0,0,0,0,0,0,0,0,0,0,0,0,0,0,0,0,0,0,0,0,0,0,0,0,0,0,0,0,0,0,0,0,0,0,0,0,0,0,0,0,0,0,0,0,0,0,0,0,0,0,0,0,0,0,0,0,0,0,0,0,0,0,0,0,0,0,0,0,0,0,0,0,0,0,0,
0,0,0,0,0,0,0,22420,22476,22476,22419,0,0,0,0,0,0,0,0,0,0,0,0,0,0,0,0,0,0,0,0,0,0,0,0,0,0,0,0,0,0,0,0,0,0,0,0,0,0,0,0,0,0,0,0,0,0,0,0,0,0,0,0,0,0,0,0,0,0,0,0,0,0,0,0,0,0,0,0,0,0,0,0,0,0,0,0,0,0,0,0,0,0,0,0,0,0,0,0,0,
0,0,0,0,0,0,0,0,0,0,0,0,0,0,0,0,0,0,0,0,0,0,0,0,0,0,0,0,0,0,0,0,0,0,0,0,0,0,0,0,0,0,0,0,0,0,0,0,0,0,0,0,0,0,0,0,0,0,0,0,0,0,0,0,0,0,0,0,0,0,0,0,0,0,0,0,0,0,0,0,0,0,0,0,0,0,0,0,0,0,0,0,0,0,0,0,0,0,0,0,
0,0,0,0,0,0,0,0,0,0,0,0,0,0,0,0,0,0,0,0,0,0,0,0,0,0,0,0,0,0,0,0,0,0,0,0,0,0,0,0,0,0,0,0,0,0,0,0,0,0,0,0,0,0,0,0,0,0,0,0,0,0,0,0,0,0,0,0,0,0,0,0,0,0,0,0,0,0,0,0,0,0,0,0,0,0,0,0,0,0,0,0,0,0,0,0,0,0,0,0,
0,0,0,0,0,0,0,0,0,0,0,0,0,0,0,0,0,0,0,0,0,0,0,0,0,0,0,0,0,0,0,0,0,0,0,0,0,0,0,0,0,0,0,0,0,0,0,0,0,0,0,0,0,0,0,0,0,0,0,0,0,0,0,0,0,0,0,0,0,0,0,0,0,0,0,0,0,0,0,0,0,0,0,0,0,0,0,0,0,0,0,0,0,0,0,0,0,0,0,0,
0,0,0,0,0,0,0,0,0,0,0,0,0,0,0,0,0,0,0,0,0,0,0,0,0,0,0,0,0,0,0,0,0,0,0,0,0,0,0,0,0,0,0,0,0,0,0,0,0,0,0,0,0,0,0,0,0,0,0,0,0,0,0,0,0,0,0,0,0,0,0,0,0,0,0,0,0,0,0,0,0,0,0,0,0,0,0,0,0,0,0,0,0,0,0,0,0,0,0,0,
0,0,0,0,0,0,0,0,0,0,0,0,0,0,0,0,0,0,0,0,0,0,0,0,0,0,0,0,0,0,0,0,0,0,0,0,0,0,0,0,0,0,0,0,0,0,0,0,0,0,0,0,0,0,0,0,0,0,0,0,0,0,0,0,0,0,0,0,0,0,0,0,0,0,0,0,0,0,0,0,0,0,0,0,0,0,0,0,0,0,0,0,0,0,0,0,0,0,0,0,
0,0,0,0,0,0,0,0,0,0,0,0,0,0,0,0,0,0,0,0,0,0,0,0,0,0,0,0,0,0,0,0,0,0,0,0,0,0,0,0,0,0,0,0,0,0,0,0,0,0,0,0,0,0,0,0,0,0,0,0,0,0,0,0,0,0,0,0,0,0,0,0,0,0,0,0,0,0,0,0,0,0,0,0,0,0,0,0,0,0,0,0,0,0,0,0,0,0,0,0,
0,0,0,0,0,0,0,0,0,0,0,0,0,0,0,0,0,0,0,0,0,0,0,0,0,0,0,0,0,0,0,0,0,0,0,0,0,0,0,0,0,0,0,0,0,0,0,0,0,0,0,0,0,0,0,0,0,0,0,0,0,0,0,0,0,0,0,0,0,0,0,0,0,0,0,0,0,0,0,0,0,0,0,0,0,0,0,0,0,0,0,0,0,0,0,0,0,0,0,0,
0,0,0,0,0,0,0,0,0,0,0,0,0,0,0,0,0,0,0,0,0,0,0,0,0,0,0,0,0,0,0,0,0,0,0,0,0,0,0,0,0,0,0,0,0,0,0,0,0,0,0,0,0,0,0,0,0,0,0,0,0,0,0,0,0,0,0,0,0,0,0,0,0,0,0,0,0,0,0,0,0,0,0,0,0,0,0,0,0,0,0,0,0,0,0,0,0,0,0,0,
0,0,0,0,0,0,0,0,0,0,0,0,0,0,0,0,0,0,0,0,0,0,0,0,0,0,0,0,0,0,0,0,0,0,0,0,0,0,0,0,0,0,0,0,0,0,0,0,0,0,0,0,0,0,0,0,0,0,0,0,0,0,0,0,0,0,0,0,0,0,0,0,0,0,0,0,0,0,0,0,0,0,0,0,0,0,0,0,0,0,0,0,0,0,0,0,0,0,0,0,
0,0,0,0,0,0,0,0,0,0,0,0,0,0,0,0,0,0,0,0,0,0,0,0,0,0,0,0,0,0,0,0,0,0,0,0,0,0,0,0,0,0,0,0,0,0,0,0,0,0,0,0,0,0,0,0,0,0,0,0,0,0,0,0,0,0,0,0,0,0,0,0,0,0,0,0,0,0,0,0,0,0,0,0,0,0,0,0,0,0,0,0,0,0,0,0,0,0,0,0,
0,0,0,0,0,0,0,0,0,0,0,0,0,0,0,0,0,0,0,0,0,0,0,0,0,0,0,0,0,0,0,0,0,0,0,0,0,0,0,0,0,0,0,0,0,0,0,0,0,0,0,0,0,0,0,0,0,0,0,0,0,0,0,0,0,0,0,0,0,0,0,0,0,0,0,0,0,0,0,0,0,0,0,0,0,0,0,0,0,0,0,0,0,0,0,0,0,0,0,0,
0,0,0,0,0,0,0,0,0,0,0,0,0,0,0,0,0,0,0,0,0,0,0,0,0,0,0,0,0,0,0,0,0,0,0,0,0,0,0,0,0,0,0,0,0,0,0,0,0,0,0,0,0,0,0,0,0,0,0,0,0,0,0,0,0,0,0,0,0,0,0,0,0,0,0,0,0,0,0,0,0,0,0,0,0,0,0,0,0,0,0,0,0,0,0,0,0,0,0,0,
0,0,0,0,0,0,0,0,0,0,0,0,0,0,0,0,0,0,0,0,0,0,0,0,0,0,0,0,0,0,0,0,0,0,0,0,0,0,0,0,0,0,0,0,0,0,0,0,0,0,0,0,0,0,0,0,0,0,0,0,0,0,0,0,0,0,0,0,0,0,0,0,0,0,0,0,0,0,0,0,0,0,0,0,0,0,0,0,0,0,0,0,0,0,0,0,0,0,0,0,
0,0,0,0,0,0,0,0,0,0,0,0,0,0,0,0,0,0,0,0,0,0,0,0,0,0,0,0,0,0,0,0,0,0,0,0,0,0,0,0,0,0,0,0,0,0,0,0,0,0,0,0,0,0,0,0,0,0,0,0,0,0,0,0,0,0,0,0,0,0,0,0,0,0,0,0,0,0,0,0,0,0,0,0,0,0,0,0,0,0,0,0,0,0,0,0,0,0,0,0,
0,0,0,0,0,0,0,0,0,0,0,0,0,0,0,0,0,0,0,0,0,0,0,0,0,0,0,0,0,0,0,0,0,0,0,0,0,0,0,0,0,0,0,0,0,0,0,0,0,0,0,0,0,0,0,0,0,0,0,0,0,0,0,0,0,0,0,0,0,0,0,0,0,0,0,0,0,0,0,0,0,0,0,0,0,0,0,0,0,0,0,0,0,0,0,0,0,0,0,0,
0,0,0,0,0,0,0,0,0,0,0,0,0,0,0,0,0,0,0,0,0,0,0,0,0,0,0,0,0,0,0,0,0,0,0,0,0,0,0,0,0,0,0,0,0,0,0,0,0,0,0,0,0,0,0,0,0,0,0,0,0,0,0,0,0,0,0,0,0,0,0,0,0,0,0,0,0,0,0,0,0,0,0,0,0,0,0,0,0,0,0,0,0,0,0,0,0,0,0,0,
0,0,0,0,0,0,0,0,0,0,0,0,0,0,0,0,0,0,0,0,0,0,0,0,0,0,0,0,0,0,0,0,0,0,0,0,0,0,0,0,0,0,0,0,0,0,0,0,0,0,0,0,0,0,0,0,0,0,0,0,0,0,0,0,0,0,0,0,0,0,0,0,0,0,0,0,0,0,0,0,0,0,0,0,0,0,0,0,0,0,0,0,0,0,0,0,0,0,0,0,
0,0,0,0,0,0,0,0,0,0,0,0,0,0,0,0,0,0,0,0,0,0,0,0,0,0,0,0,0,0,0,0,0,0,0,0,0,0,0,0,0,0,0,0,0,0,0,0,0,0,0,0,0,0,0,0,0,0,0,0,0,0,0,0,0,0,0,0,0,0,0,0,0,0,0,0,0,0,0,0,0,0,0,0,0,0,0,0,0,0,0,0,0,0,0,0,0,0,0,0,
0,0,0,0,0,0,0,0,0,0,0,0,0,0,0,0,0,0,0,0,0,0,0,0,0,0,0,0,0,0,0,0,0,0,0,0,0,0,0,0,0,0,0,0,0,0,0,0,0,0,0,0,0,0,0,0,0,0,0,0,0,0,0,0,0,0,0,0,0,0,0,0,0,0,0,0,0,0,0,0,0,0,0,0,0,0,0,0,0,0,0,0,0,0,0,0,0,0,0,0,
0,0,0,0,0,0,0,0,0,0,0,0,0,0,0,0,0,0,0,0,0,0,0,0,0,0,0,0,0,0,0,0,0,0,0,0,0,0,0,0,0,0,0,0,0,0,0,0,0,0,0,0,0,0,0,0,0,0,0,0,0,0,0,0,0,0,0,0,0,0,0,0,0,0,0,0,0,0,0,0,0,0,0,0,0,0,0,0,0,0,0,0,0,0,0,0,0,0,0,0,
0,0,0,0,0,0,0,0,0,0,0,0,0,0,0,0,0,0,0,0,0,0,0,0,0,0,0,0,0,0,0,0,0,0,0,0,0,0,0,0,0,0,0,0,0,0,0,0,0,0,0,0,0,0,0,0,0,0,0,0,0,0,0,0,0,0,0,0,0,0,0,0,0,0,0,0,0,0,0,0,0,0,0,0,0,0,0,0,0,0,0,0,0,0,0,0,0,0,0,0,
0,0,0,0,0,0,0,0,0,0,0,0,0,0,0,0,0,0,0,0,0,0,0,0,0,0,0,0,0,0,0,0,0,0,0,0,0,0,0,0,0,0,0,0,0,0,0,0,0,0,0,0,0,0,0,0,0,0,0,0,0,0,0,0,0,0,0,0,0,0,0,0,0,0,0,0,0,0,0,0,0,0,0,0,0,0,0,0,0,0,0,0,0,0,0,0,0,0,0,0,
0,0,0,0,0,0,0,0,0,0,0,0,0,0,0,0,0,0,0,0,0,0,0,0,0,0,0,0,0,0,0,0,0,0,0,0,0,0,0,0,0,0,0,0,0,0,0,0,0,0,0,0,0,0,0,0,0,0,0,0,0,0,0,16609,0,0,0,0,0,0,0,0,0,0,0,0,0,0,0,0,0,0,0,0,0,0,0,0,0,0,0,0,0,0,0,0,0,0,0,0,
0,0,0,0,0,0,0,0,0,0,0,0,0,0,0,0,0,0,0,0,0,0,0,0,0,0,0,0,0,0,0,0,0,0,0,0,0,0,0,0,0,0,0,0,0,0,0,0,0,0,0,0,0,0,0,0,0,0,0,0,0,0,0,0,0,0,0,0,0,0,0,0,0,0,0,0,0,0,0,0,0,0,0,0,0,0,0,0,0,0,0,0,0,0,0,0,0,0,0,0,
0,0,0,0,0,0,0,0,0,0,0,0,0,0,0,0,0,0,0,0,0,0,0,0,0,0,0,0,0,0,0,0,0,0,0,0,0,0,0,0,0,0,0,0,0,0,0,0,0,0,0,0,0,0,0,0,0,0,0,0,0,0,0,0,0,0,0,0,0,0,0,0,0,0,0,0,0,0,0,0,0,0,0,0,0,0,0,0,0,0,0,0,0,0,0,0,0,0,0,0,
0,0,0,0,0,0,0,0,0,0,0,0,0,0,0,0,0,0,0,0,0,0,0,0,0,0,0,0,0,0,0,0,0,0,0,0,0,0,0,0,0,0,0,0,0,0,0,0,0,0,0,0,0,0,0,0,0,0,0,0,0,0,0,0,0,0,0,0,0,0,0,0,0,0,0,0,0,0,0,0,0,0,0,0,0,0,0,0,0,0,0,0,0,0,0,0,0,0,0,0,
0,0,0,0,0,0,0,0,0,0,0,0,0,0,0,0,0,0,0,0,0,0,0,0,0,0,0,0,0,0,0,0,0,0,0,0,0,0,0,0,0,0,0,0,0,0,0,0,0,0,0,0,0,0,0,0,0,0,0,0,0,0,0,0,0,0,0,0,0,0,0,0,0,0,0,0,0,0,0,0,0,0,0,0,0,0,0,0,0,0,0,0,0,0,0,0,0,0,0,0,
0,0,0,0,0,0,0,0,0,0,0,0,0,0,0,0,0,0,0,0,0,0,0,0,0,0,0,0,0,0,0,0,0,0,0,0,0,0,0,0,0,0,0,0,0,0,0,0,0,0,0,0,0,0,0,0,0,0,0,0,0,0,0,0,0,0,0,0,0,0,0,0,0,0,0,0,0,0,0,0,0,0,0,0,0,0,0,0,0,0,0,0,0,0,0,0,0,0,0,0,
0,0,0,0,0,0,0,0,0,0,0,0,0,0,0,0,0,0,0,0,0,0,0,0,0,0,0,0,0,0,0,0,0,0,0,0,0,0,0,0,0,0,0,0,0,0,0,0,0,0,0,0,0,0,0,0,0,0,0,0,0,0,0,0,0,0,0,0,0,0,0,0,0,0,0,0,0,0,0,0,0,0,0,0,0,0,0,0,0,0,0,0,0,0,0,0,0,0,0,0,
0,0,0,0,0,0,0,0,0,0,0,0,0,0,0,0,0,0,0,0,0,0,0,0,0,0,0,0,0,0,0,0,0,0,0,0,0,0,0,0,0,0,0,0,0,0,0,0,0,0,0,0,0,0,0,0,0,0,0,0,0,0,0,0,0,0,0,0,0,0,0,0,0,0,0,0,0,0,0,0,0,0,0,0,0,0,0,0,0,0,0,0,0,0,0,0,0,0,0,0,
0,0,0,0,0,0,0,0,0,0,0,0,0,0,0,0,0,0,0,0,0,0,0,0,0,0,0,0,0,0,0,0,0,0,0,0,0,0,0,0,0,0,0,0,0,0,0,0,0,0,0,0,0,0,0,0,0,0,0,0,0,0,0,0,0,0,0,0,0,0,0,0,0,0,0,0,0,0,0,0,0,0,0,0,0,0,0,0,0,0,0,0,0,0,0,0,0,0,0,0,
0,0,0,0,0,0,0,0,0,0,0,0,0,0,0,0,0,0,0,0,0,0,0,0,0,0,0,0,0,0,0,0,0,0,0,0,0,0,0,0,0,0,0,0,0,0,0,0,0,0,0,0,0,0,0,0,0,0,0,0,0,0,0,0,0,0,0,0,0,0,0,0,0,0,0,0,0,0,0,0,0,0,0,0,0,0,0,0,0,0,0,0,0,0,0,0,0,0,0,0,
0,0,0,0,0,0,0,0,0,0,0,0,0,0,0,0,0,0,0,0,0,0,0,0,0,0,0,0,0,0,0,0,0,0,0,0,0,0,0,0,0,0,0,0,0,0,0,0,0,0,0,0,0,0,0,0,0,0,0,0,0,0,0,0,0,0,0,0,0,0,0,0,0,0,0,0,0,0,0,0,0,0,0,0,0,0,0,0,0,0,0,0,0,0,0,0,0,0,0,0,
0,0,0,0,0,0,0,0,0,0,0,0,0,0,0,0,0,0,0,0,0,0,0,0,0,0,0,0,0,0,0,0,0,0,0,0,0,0,0,0,0,0,0,0,0,0,0,0,0,0,0,0,0,0,0,0,0,0,0,0,0,0,0,0,0,0,0,0,0,0,0,0,0,0,0,0,0,0,0,0,0,0,0,0,0,0,0,0,0,0,0,0,0,0,0,0,0,0,0,0,
0,0,0,0,0,0,0,0,0,0,0,0,0,0,0,0,0,0,0,0,0,0,0,0,0,0,0,0,0,0,0,0,0,0,0,0,0,0,0,0,0,0,0,0,0,0,0,0,0,0,0,0,0,0,0,0,0,0,0,0,0,0,0,0,0,0,0,0,0,0,0,0,0,0,0,0,0,0,0,0,0,0,0,0,0,0,0,0,0,0,0,0,0,0,0,0,0,0,0,0,
0,0,0,0,0,0,0,0,0,0,0,0,0,0,0,0,0,0,0,0,0,0,0,0,0,0,0,0,0,0,0,0,0,0,0,0,0,0,0,0,0,0,0,0,0,0,0,0,0,0,0,0,0,0,0,0,0,0,0,0,0,0,0,0,0,0,0,0,0,0,0,0,0,0,0,0,0,0,0,0,0,0,0,0,0,0,0,0,0,0,0,0,0,0,0,0,0,0,0,0,
0,0,0,0,0,0,0,0,0,0,0,0,0,0,0,0,0,0,0,0,0,0,0,0,0,0,0,0,0,0,0,0,0,0,0,0,0,0,0,0,0,0,0,0,0,0,0,0,0,0,0,0,0,0,0,0,0,0,0,0,0,0,0,0,0,0,0,0,0,0,0,0,0,0,0,0,0,0,0,0,0,0,0,0,0,0,0,0,0,0,0,0,0,0,0,0,0,0,0,0,
0,0,0,0,0,0,0,0,0,0,0,0,0,0,0,0,0,0,0,0,0,0,0,0,0,0,0,0,0,0,0,0,0,0,0,0,0,0,0,0,0,0,0,0,0,0,0,0,0,0,0,0,0,0,0,0,0,0,0,0,0,0,0,0,0,0,0,0,0,0,0,0,0,0,0,0,0,0,0,0,0,0,0,0,0,0,0,0,0,0,0,0,0,0,0,0,0,0,0,0,
0,0,0,0,0,0,0,0,0,0,0,0,0,0,0,0,0,0,0,0,0,0,0,0,0,0,0,0,0,0,0,0,0,0,0,0,0,0,0,0,0,0,0,0,0,0,0,0,0,0,0,0,0,0,0,0,0,0,0,0,0,0,0,0,0,0,0,0,0,0,0,0,0,0,0,0,0,0,0,0,0,0,0,0,0,0,0,0,0,0,0,0,0,0,0,0,0,0,0,0,
0,0,0,0,0,0,0,0,0,0,0,0,0,0,0,0,0,0,0,0,0,0,0,0,0,0,0,0,0,0,0,0,0,0,0,0,0,0,0,0,0,0,0,0,0,0,0,0,0,0,0,0,0,0,0,0,0,0,0,0,0,0,0,0,0,0,0,0,0,0,0,0,0,0,0,0,0,0,0,0,0,0,0,0,0,0,0,0,0,0,0,0,0,0,0,0,0,0,0,0,
0,0,0,0,0,0,0,0,0,0,0,0,0,0,0,0,0,0,0,0,0,0,0,0,0,0,0,0,0,0,0,0,0,0,0,0,0,0,0,0,0,0,0,0,0,0,0,0,0,0,0,0,0,0,0,0,0,0,0,0,0,0,0,0,0,0,0,0,0,0,0,0,0,0,0,0,0,0,0,0,0,0,0,0,0,0,0,0,0,0,0,0,0,0,0,0,0,0,0,0,
0,0,0,0,0,0,0,0,0,0,0,0,0,0,0,0,0,0,0,0,0,0,0,0,0,0,0,0,0,0,0,0,0,0,0,0,0,0,0,0,0,0,0,0,0,0,0,0,0,0,0,0,0,0,0,0,0,0,0,0,0,0,0,0,0,0,0,0,0,0,0,0,0,0,0,0,0,0,0,0,0,0,0,0,0,0,0,0,0,0,0,0,0,0,0,0,0,0,0,0,
0,0,0,0,0,0,0,0,0,0,0,0,0,0,0,0,0,0,0,0,0,0,0,0,0,0,0,0,0,0,0,0,0,0,0,0,0,0,0,0,0,0,0,0,0,0,0,0,0,0,0,0,0,0,0,0,0,0,0,0,0,0,0,0,0,0,0,0,0,0,0,0,0,0,0,0,0,0,0,0,0,0,0,0,0,0,0,0,0,0,0,0,0,0,0,0,0,0,0,0,
0,0,0,0,0,0,0,0,0,0,0,0,0,0,0,0,0,0,0,0,0,0,0,0,0,0,0,0,0,0,0,0,0,0,0,0,0,0,0,0,0,0,0,0,0,0,0,0,0,0,0,0,0,0,0,0,0,0,0,0,0,0,0,0,0,0,0,0,0,0,0,0,0,0,0,0,0,0,0,0,0,0,0,0,0,0,0,0,0,0,0,0,0,0,0,0,0,0,0,0,
0,0,0,0,0,0,0,0,0,0,0,0,0,0,0,0,0,0,0,0,0,0,0,0,0,0,0,0,0,0,0,0,0,0,0,0,0,0,0,0,0,0,0,0,0,0,0,0,0,0,0,0,0,0,0,0,0,0,0,0,0,0,0,0,0,0,0,0,0,0,0,0,0,0,0,0,0,0,0,0,0,0,0,0,0,0,0,0,0,0,0,0,0,0,0,0,0,0,0,0,
0,0,0,0,0,0,0,0,0,0,0,0,0,0,0,0,0,0,0,0,0,0,0,0,0,0,0,0,0,0,0,0,0,0,0,0,0,0,0,0,0,0,0,0,0,0,0,0,0,0,0,0,0,0,0,0,0,0,0,0,0,0,0,0,0,0,0,0,0,0,0,0,0,0,0,0,0,0,0,0,0,0,0,0,0,0,0,0,0,0,0,0,0,0,0,0,0,0,0,0,
0,0,0,0,0,0,0,0,0,0,0,0,0,0,0,0,0,0,0,0,0,0,0,0,0,0,0,0,0,0,0,0,0,0,0,0,0,0,0,0,0,0,0,0,0,0,0,0,0,0,0,0,0,0,0,0,0,0,0,0,0,0,0,0,0,0,0,0,0,0,0,0,0,0,0,0,0,0,0,0,0,0,0,0,0,0,0,0,0,0,0,0,0,0,0,0,0,0,0,0,
0,0,0,0,0,0,0,0,0,0,0,0,0,0,0,0,0,0,0,0,0,0,0,0,0,0,0,0,0,0,0,0,0,0,0,0,0,0,0,0,0,0,0,0,0,0,0,0,0,0,0,0,0,0,0,0,0,0,0,0,0,0,0,0,0,0,0,0,0,0,0,0,0,0,0,0,0,0,0,0,0,0,0,0,0,0,0,0,0,0,0,0,0,0,0,0,0,0,0,0,
0,0,0,0,0,0,0,0,0,0,0,0,0,0,0,0,0,0,0,0,0,0,0,0,0,0,0,0,0,0,0,0,0,0,0,0,0,0,0,0,0,0,0,0,0,0,0,0,0,0,0,0,0,0,0,0,0,0,0,0,0,0,0,0,0,0,0,0,0,0,0,0,0,0,0,0,0,0,0,0,0,0,0,0,0,0,0,0,0,0,0,0,0,0,0,0,0,0,0,0,
0,0,0,0,0,0,0,0,0,0,0,0,0,0,0,0,0,0,0,0,0,0,0,0,0,0,0,0,0,0,0,0,0,0,0,0,0,0,0,0,0,0,0,0,0,0,0,0,0,0,0,0,0,0,0,0,0,0,0,0,0,0,0,0,0,0,0,0,0,0,0,0,0,0,0,0,0,0,0,0,0,0,0,0,0,0,0,0,0,0,0,0,0,0,0,0,0,0,0,0,
0,0,0,0,0,0,0,0,0,0,0,0,0,0,0,0,0,0,0,0,0,0,0,0,0,0,0,0,0,0,0,0,0,0,0,0,0,0,0,0,0,0,0,0,0,0,0,0,0,0,0,0,0,0,0,0,0,0,0,0,0,0,0,0,0,0,0,0,0,0,0,0,0,0,0,0,0,0,0,0,0,0,0,0,0,0,0,0,0,0,0,0,0,0,0,0,0,0,0,0,
0,0,0,0,0,0,0,0,0,0,0,0,0,0,0,0,0,0,0,0,0,0,0,0,0,0,0,0,0,0,0,0,0,0,0,0,0,0,0,0,0,0,0,0,0,0,0,0,0,0,0,0,0,0,0,0,0,0,0,0,0,0,0,0,0,0,0,0,0,0,0,0,0,0,0,0,0,0,0,0,0,0,0,0,0,0,0,0,0,0,0,0,0,0,0,0,0,0,0,0,
0,0,0,0,0,0,0,0,0,0,0,0,0,0,0,0,0,0,0,0,0,0,0,0,0,0,0,0,0,0,0,0,0,0,0,0,0,0,0,0,0,0,0,0,0,0,0,0,0,0,0,0,0,0,0,0,0,0,0,0,0,0,0,0,0,0,0,0,0,0,0,0,0,0,0,0,0,0,0,0,0,0,0,0,0,0,0,0,0,0,0,0,0,0,0,0,0,0,0,0,
0,0,0,0,0,0,0,0,0,0,0,0,0,0,0,0,0,0,0,0,0,0,0,0,0,0,0,0,0,0,0,0,0,0,0,0,0,0,0,0,0,0,0,0,0,0,0,0,0,0,0,0,0,0,0,0,0,0,0,0,0,0,0,0,0,0,0,0,0,0,0,0,0,0,0,0,0,0,0,0,0,0,0,0,0,0,0,0,0,0,0,0,0,0,0,0,0,0,0,0,
0,0,0,0,0,0,0,0,0,0,0,0,0,0,0,0,0,0,0,0,0,0,0,0,0,0,0,0,0,0,0,0,0,0,0,0,0,0,0,0,0,0,0,0,0,0,0,0,0,0,0,0,0,0,0,0,0,0,0,0,0,0,0,0,0,0,0,0,0,0,0,0,0,0,0,0,0,0,0,0,0,0,0,0,0,0,0,0,0,0,0,0,0,0,0,0,0,0,0,0
</data>
 </layer>
 <layer id="26" name="Back3" width="100" height="75">
  <data encoding="csv">
0,0,0,0,0,0,0,0,0,0,0,0,0,0,0,0,0,0,0,0,0,0,0,0,0,0,0,0,0,0,0,0,0,0,0,0,0,0,0,0,0,0,0,0,0,0,0,0,0,0,0,0,0,0,0,0,0,0,0,0,0,0,0,0,0,0,0,0,0,0,0,0,0,0,0,0,0,0,0,0,0,0,0,0,0,0,0,0,0,0,0,0,0,0,0,0,0,0,0,0,
0,0,0,0,0,0,0,0,0,0,0,0,0,0,0,0,0,0,0,0,0,0,0,0,0,0,0,0,0,0,0,0,0,0,0,0,0,0,0,0,0,0,0,0,0,0,0,0,0,0,0,0,0,0,0,0,0,0,0,0,0,0,0,0,0,0,0,0,0,0,0,0,0,0,0,0,0,0,0,0,0,0,0,0,0,0,0,0,0,0,0,0,0,0,0,0,0,0,0,0,
0,0,0,0,0,0,0,0,0,0,0,0,0,0,0,0,0,0,0,0,0,0,0,0,0,0,0,0,0,0,0,0,0,0,0,0,0,0,0,0,0,0,0,0,0,0,0,0,0,0,0,0,0,0,0,0,0,0,0,0,0,0,0,0,0,0,0,0,0,0,0,0,0,0,0,0,0,0,0,0,0,0,0,0,0,0,0,0,0,0,0,0,0,0,0,0,0,0,0,0,
0,0,0,0,0,0,0,0,0,0,0,0,0,0,0,0,0,0,0,0,0,0,0,0,0,0,0,0,0,0,0,0,0,0,0,0,0,0,0,0,0,0,0,0,0,0,0,0,0,0,0,0,0,0,0,0,0,0,0,0,0,0,0,0,0,0,0,0,0,0,0,0,0,0,0,0,0,0,0,0,0,0,0,0,0,0,0,0,0,0,0,0,0,0,0,0,0,0,0,0,
0,0,0,0,0,0,0,0,0,0,0,0,0,0,0,0,0,0,0,0,0,0,0,0,0,0,0,0,0,0,0,0,0,0,0,0,0,0,0,0,0,0,0,0,0,0,0,0,0,0,0,0,0,0,0,0,0,0,0,0,0,0,0,0,0,0,0,0,0,0,0,0,0,0,0,0,0,0,0,0,0,0,0,0,0,0,0,0,0,0,0,0,0,0,0,0,0,0,0,0,
0,0,0,0,0,0,0,0,0,0,0,0,0,0,0,0,0,0,0,0,0,0,0,0,0,0,0,0,0,0,0,0,0,0,0,0,0,0,0,0,0,0,0,0,0,0,0,0,0,0,0,0,0,0,0,0,0,0,0,0,0,0,0,0,0,0,0,0,0,0,0,0,0,0,0,0,0,0,0,0,0,0,0,0,0,0,0,0,0,0,0,0,0,0,0,0,0,0,0,0,
0,0,0,0,0,0,0,0,0,0,0,0,0,0,0,0,0,0,0,0,0,0,0,0,0,0,0,0,0,0,0,0,0,0,0,0,0,0,0,0,0,0,0,0,0,0,0,0,0,0,0,0,0,0,0,0,0,0,0,0,0,0,0,0,0,0,0,0,0,0,0,0,0,0,0,0,0,0,0,0,0,0,0,0,0,0,0,0,0,0,0,0,0,0,0,0,0,0,0,0,
0,0,0,0,0,0,0,0,0,0,0,0,0,0,0,0,0,0,0,0,0,0,0,0,0,0,0,0,0,0,0,0,0,0,0,0,0,0,0,0,0,0,0,0,0,0,0,0,0,0,0,0,0,0,0,0,0,0,0,0,0,0,0,0,0,0,0,0,0,0,0,0,0,0,0,0,0,0,0,0,0,0,0,0,0,0,0,0,0,0,0,0,0,0,0,0,0,0,0,0,
0,0,0,0,0,0,0,0,0,0,0,0,0,0,0,0,0,0,0,0,0,0,0,0,0,0,0,0,0,0,0,0,0,0,0,0,0,0,0,0,0,0,0,0,0,0,0,0,0,0,0,0,0,0,0,0,0,0,0,0,0,0,0,0,0,0,0,0,0,0,0,0,0,0,0,0,0,0,0,0,0,0,0,0,0,0,0,0,0,0,0,0,0,0,0,0,0,0,0,0,
0,0,0,0,0,0,0,22427,22427,22427,22427,0,0,0,0,0,0,0,0,0,0,0,0,0,0,0,0,0,0,0,0,0,0,0,0,0,0,0,0,0,0,0,0,0,0,0,0,0,0,0,0,0,0,0,0,0,0,0,0,0,0,0,0,0,0,0,0,0,0,0,0,0,0,0,0,0,0,0,0,0,0,0,0,0,0,0,0,0,0,0,0,0,0,0,0,0,0,0,0,0,
0,0,0,0,0,0,0,0,0,0,0,0,0,0,0,0,0,0,0,0,0,0,0,0,0,0,0,0,0,0,0,0,0,0,0,0,0,0,0,0,0,0,0,0,0,0,0,0,0,0,0,0,0,0,0,0,0,0,0,0,0,0,0,0,0,0,0,0,0,0,0,0,0,0,0,0,0,0,0,0,0,0,0,0,0,0,0,0,0,0,0,0,0,0,0,0,0,0,0,0,
0,0,0,0,0,0,0,0,0,0,0,0,0,0,0,0,0,0,0,0,0,0,0,0,0,0,0,0,0,0,0,0,0,0,0,0,0,0,0,0,0,0,0,0,0,0,0,0,0,0,0,0,0,0,0,0,0,0,0,0,0,0,0,0,0,0,0,0,0,0,0,0,0,0,0,0,0,0,0,0,0,0,0,0,0,0,0,0,0,0,0,0,0,0,0,0,0,0,0,0,
0,0,0,0,0,0,0,0,0,0,0,0,0,0,0,0,0,0,0,0,0,0,0,0,0,0,0,0,0,0,0,0,0,0,0,0,0,0,0,0,0,0,0,0,0,0,0,0,0,0,0,0,0,0,0,0,0,0,0,0,0,0,0,0,0,0,0,0,0,0,0,0,0,0,0,0,0,0,0,0,0,0,0,0,0,0,0,0,0,0,0,0,0,0,0,0,0,0,0,0,
0,0,0,0,0,0,0,0,0,0,0,0,0,0,0,0,0,0,0,0,0,0,0,0,0,0,0,0,0,0,0,0,0,0,0,0,0,0,0,0,0,0,0,0,0,0,0,0,0,0,0,0,0,0,0,0,0,0,0,0,0,0,0,0,0,0,0,0,0,0,0,0,0,0,0,0,0,0,0,0,0,0,0,0,0,0,0,0,0,0,0,0,0,0,0,0,0,0,0,0,
0,0,0,0,0,0,22428,22428,22428,22428,22428,0,0,0,0,0,0,0,0,0,0,0,0,608,0,0,0,0,0,0,0,0,0,0,0,0,0,0,0,0,0,0,0,0,0,0,0,0,0,0,0,0,0,0,0,0,0,0,0,0,0,0,0,0,0,0,0,0,0,0,0,0,0,0,0,0,0,0,0,0,0,0,0,0,0,0,0,0,0,0,0,0,0,0,0,0,0,0,0,0,
0,0,0,0,0,0,0,0,0,0,0,0,0,0,0,0,0,0,0,0,0,0,0,0,0,0,0,0,0,0,0,0,0,0,0,0,0,0,0,0,0,0,0,0,0,0,0,0,0,0,0,0,0,0,0,0,0,0,0,0,0,0,0,0,0,0,0,0,0,0,0,0,0,0,0,0,0,0,0,0,0,0,0,0,0,0,0,0,0,0,0,0,0,0,0,0,0,0,0,0,
0,0,0,0,0,0,0,22428,22428,22428,22428,0,0,0,0,0,0,0,0,0,0,0,0,0,0,0,0,0,0,0,0,0,0,0,0,0,0,0,0,0,0,0,0,0,0,0,0,0,0,0,0,0,0,0,0,0,0,0,0,0,0,0,0,0,0,0,0,0,0,0,0,0,0,0,0,0,0,0,0,0,0,0,0,0,0,0,0,0,0,0,0,0,0,0,0,0,0,0,0,0,
0,0,0,0,0,0,0,22428,22428,22428,22428,0,0,0,0,0,0,0,0,0,0,0,0,0,0,0,0,0,0,0,0,0,0,0,0,0,0,0,0,0,0,0,0,0,0,0,0,0,0,0,0,0,0,0,0,0,0,0,0,0,0,0,0,0,0,0,0,0,0,0,0,0,0,0,0,0,0,0,0,0,0,0,0,0,0,0,0,0,0,0,0,0,0,0,0,0,0,0,0,0,
0,0,0,0,0,0,0,0,0,0,0,0,0,0,0,0,0,0,0,0,0,0,0,0,0,0,0,0,0,0,0,0,0,0,0,0,0,0,0,0,0,0,0,0,0,0,0,0,0,0,0,0,0,0,0,0,0,0,0,0,0,0,0,0,0,0,0,0,0,0,0,0,0,0,0,0,0,0,0,0,0,0,0,0,0,0,0,0,0,0,0,0,0,0,0,0,0,0,0,0,
0,0,0,0,0,0,0,22428,22428,22428,22428,0,0,0,0,0,0,0,0,0,0,0,0,0,0,0,0,0,0,0,0,0,0,0,0,0,0,0,0,0,0,0,0,0,0,0,0,0,0,0,0,0,0,0,0,0,0,0,0,0,0,0,0,0,1159,1159,0,0,0,0,0,0,0,0,0,0,0,0,0,0,0,0,0,0,0,0,0,0,0,0,0,0,0,0,0,0,0,0,0,0,
0,0,0,0,0,0,0,0,0,0,0,0,0,0,0,0,0,0,0,0,0,0,0,0,0,0,0,0,0,0,0,0,0,0,0,0,0,0,0,0,0,0,0,0,0,0,0,0,0,0,0,0,0,0,0,0,0,0,0,0,0,0,0,0,1159,0,0,0,0,0,0,0,0,0,0,0,0,0,0,0,0,0,0,0,0,0,0,0,0,0,0,0,0,0,0,0,0,0,0,0,
0,0,0,0,0,0,0,0,0,0,0,0,0,0,0,0,0,0,0,0,0,0,0,0,0,0,0,0,0,0,0,0,0,0,0,0,0,0,0,0,0,0,0,0,0,0,0,0,0,0,0,1159,1159,1159,1159,1159,1159,1159,1159,1159,1159,1159,1159,1159,1159,1159,0,0,0,0,0,0,0,0,0,0,0,0,0,0,0,0,0,0,0,0,0,0,0,0,0,0,0,0,0,0,0,0,0,0,
0,0,0,0,0,0,0,0,0,0,0,0,0,0,0,0,0,0,0,0,0,0,0,0,0,0,0,0,0,0,0,0,0,0,0,0,0,0,0,0,0,0,0,0,0,0,0,0,0,0,0,1159,1159,1159,1159,1209,1210,1209,1210,1159,1159,1159,1159,1159,1159,1159,0,0,0,0,0,0,0,0,0,0,0,0,0,0,0,0,0,0,0,0,0,0,0,0,0,0,0,0,0,0,0,0,0,0,
0,0,0,0,0,0,0,0,0,0,0,0,0,0,0,0,0,0,0,0,0,0,0,0,0,0,0,0,0,0,0,0,0,0,0,0,0,0,0,0,0,0,0,0,0,0,0,0,0,0,0,1159,1209,1210,0,0,0,0,0,1088,383,1159,1159,1159,1159,1159,0,0,0,0,0,0,0,0,0,0,0,0,0,0,0,0,0,0,0,0,0,0,0,0,0,0,0,0,0,0,0,0,0,0,
0,0,0,0,0,0,0,0,0,0,0,0,0,0,0,0,0,0,0,0,0,0,0,0,0,0,0,0,0,0,0,0,0,0,0,0,0,0,0,0,0,0,0,0,0,0,0,0,0,0,0,1159,0,0,0,0,0,0,0,1113,408,0,1159,1159,1159,1159,1159,0,0,0,0,0,0,0,0,0,0,0,0,0,0,0,0,0,0,0,0,0,0,0,0,0,0,0,0,0,0,0,0,0,
0,0,0,0,0,0,0,0,0,0,0,0,0,0,0,0,0,0,0,0,0,0,0,0,0,0,0,0,0,0,0,0,0,0,0,0,0,0,0,0,0,0,0,0,0,0,0,0,0,0,0,1159,0,0,0,0,0,0,0,0,0,0,1209,1210,1159,1159,1159,0,0,0,0,0,0,0,0,0,0,0,0,0,0,0,0,0,0,0,0,0,0,0,0,0,0,0,0,0,0,0,0,0,
0,0,0,0,0,0,0,0,0,0,0,0,0,0,0,0,0,0,0,0,0,0,0,0,0,0,0,0,0,0,0,0,0,0,0,0,0,0,0,0,0,0,0,0,0,0,0,0,0,0,1159,1159,0,0,0,0,0,0,0,0,0,0,0,0,0,1159,1159,0,0,0,0,0,0,0,0,0,0,0,0,0,0,0,0,0,0,0,0,0,0,0,0,0,0,0,0,0,0,0,0,0,
0,0,0,0,0,0,0,0,0,0,0,0,0,0,0,0,0,0,0,0,0,0,0,0,0,0,0,0,0,0,0,0,0,0,0,0,0,0,0,0,0,0,0,0,0,0,0,0,0,0,1159,1159,0,0,0,0,1111,0,0,0,0,0,0,0,0,1159,1159,0,0,0,0,0,0,0,0,0,0,0,0,0,0,0,0,0,0,0,0,0,0,0,0,0,0,0,0,0,0,0,0,0,
0,0,0,0,0,0,0,0,0,0,0,0,0,0,0,0,0,0,0,0,0,0,0,0,0,0,0,0,0,0,0,0,0,0,0,0,0,0,0,0,0,0,0,0,0,0,0,0,0,0,1159,1159,0,16230,0,0,0,0,0,0,0,0,0,0,16230,1159,1159,1159,0,0,0,0,0,0,0,0,0,0,0,0,0,0,0,0,0,0,0,0,0,0,0,0,0,0,0,0,0,0,0,0,
0,0,0,0,0,0,0,0,0,0,0,0,0,0,0,0,0,0,0,0,0,0,0,0,0,0,0,0,0,0,0,0,0,0,0,0,0,0,0,0,0,0,0,0,0,0,0,1159,1159,1159,1159,1159,1159,0,0,0,0,0,0,0,1062,0,0,0,0,0,1159,1159,0,0,0,0,0,0,0,0,0,0,0,0,0,0,0,0,0,0,0,0,0,0,0,0,0,0,0,0,0,0,0,0,
0,0,0,0,0,0,0,0,0,0,0,0,0,0,0,0,0,0,0,0,0,0,0,0,0,0,0,0,0,0,0,0,0,0,0,0,0,0,0,0,0,0,0,0,0,0,0,1159,1159,1159,1159,0,0,0,0,0,1136,1137,1138,0,1087,0,0,16230,0,1159,1159,1159,0,0,0,0,0,0,0,0,0,0,0,0,0,0,0,0,0,0,0,0,0,0,0,0,0,0,0,0,0,0,0,0,
0,0,0,0,0,0,0,0,0,0,0,0,0,0,0,0,0,0,0,0,0,0,0,0,0,0,0,0,0,0,0,0,0,0,0,0,0,0,0,0,0,0,0,0,0,0,0,1159,1159,0,0,1159,1159,1159,16230,0,0,0,0,0,1112,0,0,0,0,1159,1159,1159,0,0,0,0,0,0,0,0,0,0,0,0,0,0,0,0,0,0,0,0,0,0,0,0,0,0,0,0,0,0,0,0,
0,0,0,0,0,0,0,0,0,0,0,0,0,0,0,0,0,0,0,0,0,0,0,0,0,0,0,0,0,0,0,0,0,0,0,0,0,0,0,0,0,0,0,0,0,0,0,0,0,0,0,1159,1159,1159,16230,0,0,0,0,0,0,0,0,1159,1159,1159,1159,0,0,0,0,0,0,0,0,0,0,0,0,0,0,0,0,0,0,0,0,0,0,0,0,0,0,0,0,0,0,0,0,0,
0,0,0,0,0,0,0,0,0,0,0,0,0,0,0,0,0,0,0,0,0,0,0,0,0,0,0,0,0,0,0,0,0,0,0,0,0,0,0,0,0,0,0,0,0,0,0,0,0,0,0,1159,1159,1159,0,0,0,0,0,0,0,0,1159,1159,1159,1159,0,0,0,0,0,0,0,0,0,0,0,0,0,0,0,0,0,0,0,0,0,0,0,0,0,0,0,0,0,0,0,0,0,0,
0,0,0,0,0,0,0,0,0,0,0,0,0,0,0,0,0,0,0,0,0,0,0,0,0,0,0,0,0,0,0,0,0,0,0,0,0,0,0,0,0,0,0,0,0,0,0,0,0,0,0,1159,1159,1159,0,0,0,0,0,0,0,1159,1159,1159,20433,20434,20435,20436,20437,20438,20439,20440,0,0,0,0,0,0,0,0,0,0,0,0,0,0,0,0,0,0,0,0,0,0,0,0,0,0,0,0,
0,0,0,0,0,0,0,0,0,0,0,0,0,0,0,0,0,0,0,0,0,0,0,0,0,0,0,0,0,0,0,0,0,0,0,0,0,0,0,0,0,0,0,0,0,0,0,0,0,0,0,1159,1159,1159,0,0,0,16230,0,16230,1159,1159,1159,1159,20458,20459,20460,20461,20462,20463,20464,20465,0,0,0,0,0,0,0,0,0,0,0,0,0,0,0,0,0,0,0,0,0,0,0,0,0,0,0,0,
0,0,0,0,0,0,0,0,0,0,0,0,0,0,0,0,0,0,0,0,0,0,0,0,0,0,0,0,0,0,0,0,0,16609,0,0,0,0,0,0,0,0,0,0,0,0,0,0,0,0,0,1159,1159,1159,1159,1159,1159,1159,0,1159,1159,1159,1159,1159,20483,20484,20485,20486,20487,20488,20489,20490,0,0,0,0,0,0,0,0,0,0,0,0,0,0,0,0,0,0,0,0,0,0,0,0,0,0,0,0,
0,0,0,0,0,0,0,0,0,0,0,0,0,0,0,0,0,0,0,0,0,0,0,0,0,0,0,0,0,0,0,0,0,16634,16635,16636,16637,0,16609,0,0,0,16609,0,0,0,0,0,0,0,0,0,0,0,0,0,0,0,0,0,0,0,1159,1113,20508,20509,20510,20511,20512,20513,20514,20515,0,0,0,0,0,0,0,0,0,0,0,0,0,0,0,0,0,0,0,0,0,0,0,0,0,0,0,0,
0,0,0,0,0,0,0,0,0,0,0,0,0,0,0,0,0,0,0,0,0,0,0,0,0,0,0,0,0,0,0,0,0,0,0,0,0,0,16634,16635,16636,16637,16634,16635,16636,16637,0,16609,0,0,0,0,0,0,0,0,0,0,0,0,0,0,1159,0,20533,20534,20535,20536,20537,20538,20539,20540,0,0,0,0,0,0,0,0,0,0,0,0,0,0,0,0,0,0,0,0,0,0,0,0,0,0,0,0,
0,0,0,0,0,0,0,0,0,0,0,0,0,0,0,0,0,0,0,0,0,0,0,0,0,0,0,0,0,0,0,0,0,0,0,0,0,0,0,0,0,0,0,0,0,0,0,16634,16635,16636,16637,0,0,0,0,0,0,0,0,0,0,0,0,0,20558,20559,20560,20561,20562,20563,20564,20565,0,0,0,0,0,0,0,0,0,0,0,0,0,0,0,0,0,0,0,0,0,0,0,0,0,0,0,0,
0,0,0,0,0,0,0,0,0,0,0,0,0,0,0,0,0,0,0,0,0,0,0,0,0,0,0,0,0,0,0,0,0,0,16609,0,0,0,0,0,0,0,0,0,0,0,0,0,0,0,0,0,0,0,0,0,0,0,0,0,0,0,0,0,20583,20584,20585,20586,20587,20588,20589,20590,0,0,0,0,0,0,0,0,0,0,0,0,0,0,0,0,0,0,0,0,0,0,0,0,0,0,0,0,
0,0,0,0,0,0,0,0,0,0,0,0,0,0,0,0,0,0,0,0,0,0,0,0,0,0,0,0,0,0,0,0,0,0,16634,16635,16636,16637,0,0,0,16609,0,16609,0,0,0,0,0,0,0,0,0,0,0,0,0,0,0,0,0,0,6254,6255,0,0,0,0,0,0,0,0,0,0,0,0,0,0,0,0,0,0,0,0,0,0,0,0,0,0,0,0,0,0,0,0,0,0,0,0,
0,0,0,0,0,0,0,0,0,0,0,0,0,0,0,0,0,0,0,0,0,0,0,0,0,0,0,0,0,0,0,0,0,0,0,0,0,0,0,0,0,0,0,16634,16635,16636,16637,0,0,0,16609,0,0,0,0,0,0,0,0,16610,16611,16612,0,16368,16610,16611,16612,0,0,0,0,0,0,0,0,0,0,0,0,0,0,0,0,0,0,0,0,0,0,0,0,0,0,0,0,0,0,0,0,0,
0,0,0,0,0,0,0,0,0,0,0,0,0,0,0,0,0,0,0,0,0,0,0,0,0,0,0,0,0,0,0,0,0,0,0,0,0,0,0,0,0,0,0,0,0,0,0,0,0,0,0,0,0,0,0,0,0,0,0,0,0,0,0,0,0,0,0,0,0,0,0,0,0,0,0,0,0,0,0,0,0,0,0,0,0,0,0,0,0,0,0,0,0,0,0,0,0,0,0,0,
0,0,0,0,0,0,0,0,0,0,0,0,0,0,0,0,0,0,0,0,0,0,0,0,0,0,0,0,0,0,0,0,0,0,0,0,0,0,0,0,0,0,0,0,0,0,0,0,0,0,0,0,0,0,0,0,0,0,0,0,0,0,0,0,0,0,0,0,0,0,0,0,0,0,0,0,0,0,0,0,0,0,0,0,0,0,0,0,0,0,0,0,0,0,0,0,0,0,0,0,
0,0,0,0,0,0,0,0,0,0,0,0,0,0,0,0,0,0,0,0,0,0,0,0,0,0,0,0,0,0,0,0,0,0,0,0,0,0,0,0,0,0,0,0,0,0,0,0,0,0,0,0,0,0,0,0,0,0,0,0,0,0,0,0,0,0,0,0,0,0,0,0,0,0,0,0,0,0,0,0,0,0,0,0,0,0,0,0,0,0,0,0,0,0,0,0,0,0,0,0,
0,0,0,0,0,0,0,0,0,0,0,0,0,0,0,0,0,0,0,0,0,0,0,0,0,0,0,0,0,0,0,0,0,0,0,0,0,0,0,0,0,0,0,0,0,0,0,0,0,0,0,0,0,0,0,0,0,0,0,0,0,0,0,0,0,0,0,0,0,0,0,0,16610,16611,16612,0,0,0,0,0,0,0,0,0,0,0,0,0,0,0,0,0,0,0,0,0,0,0,0,0,
0,0,0,0,0,0,0,0,0,0,0,0,0,0,0,0,0,0,0,0,0,0,0,0,0,0,0,0,0,0,0,0,0,0,0,0,0,0,0,0,0,0,0,0,0,0,0,0,0,0,0,0,0,0,0,0,0,0,0,0,0,0,0,0,0,0,0,0,0,0,0,0,0,0,0,0,0,0,0,0,0,0,0,0,0,0,0,0,0,0,0,0,0,0,0,0,0,0,0,0,
0,0,0,0,0,0,0,0,0,0,0,0,0,0,0,0,0,0,0,0,0,0,0,0,0,0,0,0,0,0,0,0,0,0,0,0,0,0,0,0,0,0,0,0,0,0,0,0,0,0,0,0,0,0,0,0,0,0,0,0,0,0,0,0,0,0,0,0,0,0,0,0,0,0,0,0,0,0,0,0,0,0,0,0,0,0,0,0,0,0,0,0,0,0,0,0,0,0,0,0,
0,0,0,0,0,0,0,0,0,0,0,0,0,0,0,0,0,0,0,0,0,0,0,0,0,0,0,0,0,0,0,0,0,0,0,0,0,0,0,0,0,0,0,0,0,0,0,0,0,0,0,0,0,0,0,0,0,0,0,0,0,0,0,0,0,0,0,0,0,0,0,0,0,0,0,0,0,0,0,0,0,0,0,0,0,0,0,0,0,0,0,0,0,0,0,0,0,0,0,0,
0,0,0,0,0,0,0,0,0,0,0,0,0,0,0,0,0,0,0,0,0,0,0,0,0,0,0,0,0,0,0,0,0,0,0,0,0,0,0,0,0,0,0,0,0,0,0,0,0,0,0,0,0,0,0,0,0,0,0,0,0,0,0,0,0,0,0,0,0,0,0,0,0,0,0,0,0,0,0,0,0,0,0,0,0,0,0,0,0,0,0,0,0,0,0,0,0,0,0,0,
0,0,0,0,0,0,0,0,0,0,0,0,0,0,0,0,0,0,0,0,0,0,0,0,0,0,0,0,0,0,0,0,0,0,0,0,0,0,0,0,0,0,0,0,0,0,0,0,0,0,0,0,0,0,0,0,0,0,0,0,0,0,0,0,0,0,0,0,0,0,0,0,0,0,0,0,0,0,0,0,0,0,0,0,0,0,0,0,0,0,0,0,0,0,0,0,0,0,0,0,
0,0,0,0,0,0,0,0,0,0,0,0,0,0,0,0,0,0,0,0,0,0,0,0,0,0,0,0,0,0,0,0,0,0,0,0,0,0,0,0,0,0,0,0,0,0,0,0,0,0,0,0,0,0,0,0,0,0,0,0,0,0,0,0,0,0,0,0,0,0,0,0,0,0,0,0,0,0,0,0,0,0,0,0,0,0,0,0,0,0,0,0,0,0,0,0,0,0,0,0,
0,0,0,0,0,0,0,0,0,0,0,0,0,0,0,0,0,0,0,0,0,0,0,0,0,0,0,0,0,0,0,0,0,0,0,0,0,0,0,0,0,0,0,0,0,0,0,0,0,0,0,0,0,0,0,0,0,0,0,0,0,0,0,0,0,0,0,0,0,0,0,0,0,0,0,0,0,0,0,0,0,0,0,0,0,0,0,0,0,0,0,0,0,0,0,0,0,0,0,0,
0,0,0,0,0,0,0,0,0,0,0,0,0,0,0,0,0,0,0,0,0,0,0,0,0,0,0,0,0,0,0,0,0,0,0,0,0,0,0,0,0,0,0,0,0,0,0,0,0,0,0,0,0,0,0,0,0,0,0,0,0,0,0,0,0,0,0,0,0,0,0,0,0,0,0,0,0,0,0,0,0,0,0,0,0,0,0,0,0,0,0,0,0,0,0,0,0,0,0,0,
0,0,0,0,0,0,0,0,0,0,0,0,0,0,0,0,0,0,0,0,0,0,0,0,0,0,0,0,0,0,0,0,0,0,0,0,0,0,0,0,0,0,0,0,0,0,0,0,0,0,0,0,0,0,0,0,0,0,0,0,0,0,0,0,0,0,0,0,0,0,0,0,0,0,0,0,0,0,0,0,0,0,0,0,0,0,0,0,0,0,0,0,0,0,0,0,0,0,0,0,
0,0,0,0,0,0,0,0,0,0,0,0,0,0,0,0,0,0,0,0,0,0,0,0,0,0,0,0,0,0,0,0,0,0,0,0,0,0,0,0,0,0,0,0,0,0,0,0,0,0,0,0,0,0,0,0,0,0,0,0,0,0,0,0,0,0,0,0,0,0,0,0,0,0,0,0,0,0,0,0,0,0,0,0,0,0,0,0,0,0,0,0,0,0,0,0,0,0,0,0,
0,0,0,0,0,0,0,0,0,0,0,0,0,0,0,0,0,0,0,0,0,0,0,0,0,0,0,0,0,0,0,0,0,0,0,0,0,0,0,0,0,0,0,0,0,0,0,0,0,0,0,0,0,0,0,0,0,0,0,0,0,0,0,0,0,0,0,0,0,0,0,0,0,0,0,0,0,0,0,0,0,0,0,0,0,0,0,0,0,0,0,0,0,0,0,0,0,0,0,0,
0,0,0,0,0,0,0,0,0,0,0,0,0,0,0,0,0,0,0,0,0,0,0,0,0,0,0,0,0,0,0,0,0,0,0,0,0,0,0,0,0,0,0,0,0,0,0,0,0,0,0,0,0,0,0,0,0,0,0,0,0,0,0,0,0,0,0,0,0,0,0,0,0,0,0,0,0,0,0,0,0,0,0,0,0,0,0,0,0,0,0,0,0,0,0,0,0,0,0,0,
0,0,0,0,0,0,0,0,0,0,0,0,0,0,0,0,0,0,0,0,0,0,0,0,0,0,0,0,0,0,0,0,0,0,0,0,0,0,0,0,0,0,0,0,0,0,0,0,0,0,0,0,0,0,0,0,0,0,0,0,0,0,0,0,0,0,0,0,0,0,0,0,0,0,0,0,0,0,0,0,0,0,0,0,0,0,0,0,0,0,0,0,0,0,0,0,0,0,0,0,
0,0,0,0,0,0,0,0,0,0,0,0,0,0,0,0,0,0,0,0,0,0,0,0,0,0,0,0,0,0,0,0,0,0,0,0,0,0,0,0,0,0,0,0,0,0,0,0,0,0,0,0,0,0,0,0,0,0,0,0,0,0,0,0,0,0,0,0,0,0,0,0,0,0,0,0,0,0,0,0,0,0,0,0,0,0,0,0,0,0,0,0,0,0,0,0,0,0,0,0,
0,0,0,0,0,0,0,0,0,0,0,0,0,0,0,0,0,0,0,0,0,0,0,0,0,0,0,0,0,0,0,0,0,0,0,0,0,0,0,0,0,0,0,0,0,0,0,0,0,0,0,0,0,0,0,0,0,0,0,0,0,0,0,0,0,0,0,0,0,0,0,0,0,0,0,0,0,0,0,0,0,0,0,0,0,0,0,0,0,0,0,0,0,0,0,0,0,0,0,0,
0,0,0,0,0,0,0,0,0,0,0,0,0,0,0,0,0,0,0,0,0,0,0,0,0,0,0,0,0,0,0,0,0,0,0,0,0,0,0,0,0,0,0,0,0,0,0,0,0,0,0,0,0,0,0,0,0,0,0,0,0,0,0,0,0,0,0,0,0,0,0,0,0,0,0,0,0,0,0,0,0,0,0,0,0,0,0,0,0,0,0,0,0,0,0,0,0,0,0,0,
0,0,0,0,0,0,0,0,0,0,0,0,0,0,0,0,0,0,0,0,0,0,0,0,0,0,0,0,0,0,0,0,0,0,0,0,0,0,0,0,0,0,0,0,0,0,0,0,0,0,0,0,0,0,0,0,0,0,0,0,0,0,0,0,0,0,0,0,0,0,0,0,0,0,0,0,0,0,0,0,0,0,0,0,0,0,0,0,0,0,0,0,0,0,0,0,0,0,0,0,
0,0,0,0,0,0,0,0,0,0,0,0,0,0,0,0,0,0,0,0,0,0,0,0,0,0,0,0,0,0,0,0,0,0,0,0,0,0,0,0,0,0,0,0,0,0,0,0,0,0,0,0,0,0,0,0,0,0,0,0,0,0,0,0,0,0,0,0,0,0,0,0,0,0,0,0,0,0,0,0,0,0,0,0,0,0,0,0,0,0,0,0,0,0,0,0,0,0,0,0,
0,0,0,0,0,0,0,0,0,0,0,0,0,0,0,0,0,0,0,0,0,0,0,0,0,0,0,0,0,0,0,0,0,0,0,0,0,0,0,0,0,0,0,0,0,0,0,0,0,0,0,0,0,0,0,0,0,0,0,0,0,0,0,0,0,0,0,0,0,0,0,0,0,0,0,0,0,0,0,0,0,0,0,0,0,0,0,0,0,0,0,0,0,0,0,0,0,0,0,0,
0,0,0,0,0,0,0,0,0,0,0,0,0,0,0,0,0,0,0,0,0,0,0,0,0,0,0,0,0,0,0,0,0,0,0,0,0,0,0,0,0,0,0,0,0,0,0,0,0,0,0,0,0,0,0,0,0,0,0,0,0,0,0,0,0,0,0,0,0,0,0,0,0,0,0,0,0,0,0,0,0,0,0,0,0,0,0,0,0,0,0,0,0,0,0,0,0,0,0,0,
0,0,0,0,0,0,0,0,0,0,0,0,0,0,0,0,0,0,0,0,0,0,0,0,0,0,0,0,0,0,0,0,0,0,0,0,0,0,0,0,0,0,0,0,0,0,0,0,0,0,0,0,0,0,0,0,0,0,0,0,0,0,0,0,0,0,0,0,0,0,0,0,0,0,0,0,0,0,0,0,0,0,0,0,0,0,0,0,0,0,0,0,0,0,0,0,0,0,0,0,
0,0,0,0,0,0,0,0,0,0,0,0,0,0,0,0,0,0,0,0,0,0,0,0,0,0,0,0,0,0,0,0,0,0,0,0,0,0,0,0,0,0,0,0,0,0,0,0,0,0,0,0,0,0,0,0,0,0,0,0,0,0,0,0,0,0,0,0,0,0,0,0,0,0,0,0,0,0,0,0,0,0,0,0,0,0,0,0,0,0,0,0,0,0,0,0,0,0,0,0,
0,0,0,0,0,0,0,0,0,0,0,0,0,0,0,0,0,0,0,0,0,0,0,0,0,0,0,0,0,0,0,0,0,0,0,0,0,0,0,0,0,0,0,0,0,0,0,0,0,0,0,0,0,0,0,0,0,0,0,0,0,0,0,0,0,0,0,0,0,0,0,0,0,0,0,0,0,0,0,0,0,0,0,0,0,0,0,0,0,0,0,0,0,0,0,0,0,0,0,0,
0,0,0,0,0,0,0,0,0,0,0,0,0,0,0,0,0,0,0,0,0,0,0,0,0,0,0,0,0,0,0,0,0,0,0,0,0,0,0,0,0,0,0,0,0,0,0,0,0,0,0,0,0,0,0,0,0,0,0,0,0,0,0,0,0,0,0,0,0,0,0,0,0,0,0,0,0,0,0,0,0,0,0,0,0,0,0,0,0,0,0,0,0,0,0,0,0,0,0,0,
0,0,0,0,0,0,0,0,0,0,0,0,0,0,0,0,0,0,0,0,0,0,0,0,0,0,0,0,0,0,0,0,0,0,0,0,0,0,0,0,0,0,0,0,0,0,0,0,0,0,0,0,0,0,0,0,0,0,0,0,0,0,0,0,0,0,0,0,0,0,0,0,0,0,0,0,0,0,0,0,0,0,0,0,0,0,0,0,0,0,0,0,0,0,0,0,0,0,0,0,
0,0,0,0,0,0,0,0,0,0,0,0,0,0,0,0,0,0,0,0,0,0,0,0,0,0,0,0,0,0,0,0,0,0,0,0,0,0,0,0,0,0,0,0,0,0,0,0,0,0,0,0,0,0,0,0,0,0,0,0,0,0,0,0,0,0,0,0,0,0,0,0,0,0,0,0,0,0,0,0,0,0,0,0,0,0,0,0,0,0,0,0,0,0,0,0,0,0,0,0,
0,0,0,0,0,0,0,0,0,0,0,0,0,0,0,0,0,0,0,0,0,0,0,0,0,0,0,0,0,0,0,0,0,0,0,0,0,0,0,0,0,0,0,0,0,0,0,0,0,0,0,0,0,0,0,0,0,0,0,0,0,0,0,0,0,0,0,0,0,0,0,0,0,0,0,0,0,0,0,0,0,0,0,0,0,0,0,0,0,0,0,0,0,0,0,0,0,0,0,0,
0,0,0,0,0,0,0,0,0,0,0,0,0,0,0,0,0,0,0,0,0,0,0,0,0,0,0,0,0,0,0,0,0,0,0,0,0,0,0,0,0,0,0,0,0,0,0,0,0,0,0,0,0,0,0,0,0,0,0,0,0,0,0,0,0,0,0,0,0,0,0,0,0,0,0,0,0,0,0,0,0,0,0,0,0,0,0,0,0,0,0,0,0,0,0,0,0,0,0,0
</data>
 </layer>
 <layer id="3" name="Buildings" width="100" height="75">
  <data encoding="csv">
532,533,432,458,583,1113,408,1113,408,582,457,483,582,583,582,482,508,607,607,608,607,608,507,1159,1159,1159,1159,1159,1159,1159,1159,581,405,406,1159,1159,1159,1113,408,1184,1184,1159,1159,1159,1159,1159,1159,4695,4696,4697,4698,4609,219,219,219,219,219,219,222,223,219,219,219,219,219,197,198,219,219,219,484,13958,13959,1113,1088,383,1159,1159,1159,1159,445,445,445,445,445,445,1159,1159,407,433,432,458,557,558,557,558,557,558,380,506,
557,558,457,483,583,582,583,582,582,583,482,508,607,608,607,507,1088,383,1159,1159,1159,1159,1159,1159,1159,1159,1159,1159,1159,1159,1159,606,430,431,1184,1184,1184,1184,1184,1159,1159,1159,1159,1159,1159,1159,1207,4711,4712,4713,4714,4593,153,154,219,372,219,219,219,219,219,219,219,219,219,222,223,219,219,219,434,0,0,0,1113,408,1088,383,1159,1159,1159,1159,1159,1159,1159,1159,1159,1159,432,458,457,483,582,583,582,583,582,583,405,531,
582,583,482,508,608,607,608,607,607,608,507,1159,1159,1159,1159,445,1113,408,1088,383,1159,1159,1159,1088,383,1088,383,1088,383,1088,383,1088,383,481,1159,1159,1159,1159,1159,1159,1159,219,484,13958,1207,1208,4726,4727,4728,4729,322,4588,178,179,6225,219,191,219,219,219,219,4414,4415,4416,6226,219,219,219,219,219,459,0,0,0,0,0,1113,408,1159,1159,1159,1159,1159,1159,1159,1159,1159,1159,457,483,482,508,607,608,607,608,607,608,430,556,
607,608,507,1159,1088,383,1088,383,1159,1159,1088,383,1159,1159,1159,445,1184,1158,1113,408,1159,1088,383,1113,408,1113,408,1113,408,1113,408,1113,408,456,1159,1159,1159,1159,1159,1159,1159,219,434,1159,0,4508,4509,4510,4511,4512,4513,4604,4614,4615,4596,4597,219,128,129,130,219,4430,4431,4432,219,153,154,183,184,219,484,0,0,0,0,0,0,0,1088,383,1159,1159,1159,1159,1159,1159,1159,1159,482,508,507,2147484031,2147484736,1088,383,2147484736,1159,1159,1159,581,
1159,1159,1159,1159,1113,408,1113,408,1088,383,1113,408,1113,408,1159,445,445,1160,1184,1184,1184,1113,408,1159,0,0,0,0,1136,1138,0,0,0,481,1159,1159,2147484031,2147484736,1159,1159,1159,219,459,1208,0,4524,4525,4526,4527,4528,4529,4620,4630,4631,4612,4613,4592,4596,4597,219,6254,6255,219,219,219,178,179,208,209,322,459,0,0,0,0,0,0,0,1113,408,1088,383,1159,1159,1159,1159,1159,1159,507,1159,1159,2147484056,2147484761,1113,408,2147484031,2147484736,1159,1159,606,
1159,1159,1159,1159,1088,1159,1157,372,1113,408,1159,1157,0,0,1159,1159,445,445,445,445,1159,1088,383,1062,0,0,0,0,0,0,0,0,0,506,1159,1159,2147484056,2147484761,1159,1159,1159,219,484,470,0,4540,4541,4542,0,4544,4545,4546,0,0,0,4629,4608,4612,4613,4615,4614,4615,4614,4596,4597,219,219,233,234,219,484,0,0,0,0,0,0,0,0,0,3221225880,3221226585,1159,1159,1159,1159,1159,1159,1159,1159,1159,1184,1184,1184,1158,2147484056,2147484761,1159,1159,1159,
1159,1159,1159,1159,1113,408,178,179,3758096706,372,322,1185,1136,1137,1138,1159,1159,1159,1159,1088,383,1207,1208,1112,0,0,0,0,0,0,0,0,2147484710,531,355,506,1159,1159,482,508,610,322,459,179,0,0,0,0,0,0,0,0,0,0,0,0,0,0,4629,4631,4621,4622,4630,4612,4613,4596,4597,219,219,219,4591,0,0,0,0,0,0,0,0,0,2147484056,2147484761,1159,1159,1159,1159,1159,1159,1159,1159,1159,445,445,445,1160,1184,1184,1184,1159,1159,
1159,1159,1159,1159,372,322,1062,372,1205,1206,1136,1138,0,0,1088,383,1088,383,1159,1113,408,1159,0,0,0,0,0,0,0,0,0,0,2147484735,556,380,531,532,533,507,1159,1159,219,484,0,0,0,0,0,0,0,0,0,0,0,0,0,0,0,0,0,0,0,0,0,4629,4612,4613,4614,4615,4606,4607,0,0,0,0,0,0,0,0,0,0,14474,1073742937,1073742232,1088,383,1159,1159,1159,1159,1159,1159,445,445,445,445,445,445,1159,1159,
1159,1159,1159,1159,178,179,1087,0,0,0,0,0,0,178,1113,408,1113,408,1159,1159,1159,1159,0,0,0,0,0,0,0,0,0,0,2147484760,581,582,556,557,558,1208,1207,1207,219,4591,0,0,0,0,0,0,0,0,0,0,0,0,0,0,0,0,0,0,0,0,0,0,0,4629,4630,4631,4622,4623,0,0,0,0,0,0,0,0,0,0,0,1113,408,1113,408,1088,383,1088,383,1159,1159,1159,1159,1159,1159,1159,1159,1159,1159,
505,1159,1159,1159,448,499,450,1111,0,0,1111,448,449,450,1184,1184,1184,1184,1159,128,129,130,0,0,0,0,0,0,0,0,0,0,178,606,607,581,582,583,1207,1208,583,4606,4607,0,0,0,0,0,0,0,0,0,0,0,0,0,0,0,0,0,0,0,0,0,0,0,0,0,0,0,0,0,0,0,0,0,0,0,0,0,0,0,0,0,0,0,1113,408,1113,408,1159,1159,1159,1159,1159,1159,1159,1159,1159,1159,
530,532,533,529,505,178,179,509,0,0,506,6227,0,128,129,130,0,341,178,179,0,0,0,0,0,0,0,0,0,0,0,0,0,0,0,606,607,608,607,607,607,4622,4623,0,0,0,0,0,0,0,0,0,0,0,0,0,0,0,0,0,0,0,0,0,0,0,0,0,0,0,0,0,0,0,0,0,0,0,0,0,0,0,0,0,0,0,0,0,0,0,1088,383,1159,1159,1159,1159,1159,1159,1159,1159,
555,557,558,554,530,532,533,534,0,0,510,532,533,532,533,529,505,0,0,407,433,532,533,0,529,505,0,0,0,407,360,535,0,0,0,0,0,0,0,0,0,0,0,0,0,0,0,0,0,0,0,0,0,0,0,0,0,0,0,0,0,0,0,0,0,0,0,0,0,0,0,0,0,0,0,0,0,0,0,0,0,0,0,0,0,0,0,0,0,0,1113,408,1088,383,1159,1159,1159,1159,1159,1159,
580,582,583,579,555,557,558,559,0,0,556,557,558,557,558,554,530,532,533,432,458,557,558,0,554,530,532,355,360,432,557,560,561,0,0,0,0,0,0,0,0,0,0,0,0,0,0,0,0,0,0,0,0,0,0,0,0,0,0,0,0,0,0,0,0,0,0,0,0,0,0,0,0,0,0,0,0,0,0,0,0,0,0,0,0,0,0,0,0,0,0,0,3221225880,3221226585,1159,1159,1159,1159,1159,1159,
605,607,608,604,580,582,583,584,0,0,581,582,583,582,583,579,555,557,558,457,483,582,583,0,579,555,557,558,458,457,582,585,586,587,1159,0,0,0,0,0,0,0,0,0,0,0,0,0,0,0,0,0,0,0,0,0,0,0,0,0,0,0,0,0,0,0,0,0,0,0,0,0,0,0,0,0,0,0,0,0,0,0,0,0,0,0,0,0,0,0,0,0,2147484056,2147484761,1159,1159,1159,1159,1159,1159,
1159,1159,1159,1159,605,607,608,609,0,0,606,607,608,607,608,604,580,582,583,482,508,607,608,0,604,580,582,583,483,482,508,610,611,612,613,1159,2147484759,1159,1159,0,0,0,0,0,0,0,0,0,0,0,0,0,0,0,0,0,0,0,0,0,0,0,0,0,0,0,0,0,0,0,0,0,0,0,0,0,0,0,0,0,0,0,0,0,0,0,0,0,0,0,0,0,0,14474,1073742937,1073742232,1088,383,1159,1159,
1159,1159,1159,1159,1159,1159,2147484786,2147484784,0,0,0,8005,0,1088,383,0,605,607,608,507,1088,383,0,0,0,605,607,608,508,507,1159,1159,1159,1159,1159,1159,219,1207,1208,0,0,0,0,0,0,0,0,0,0,0,0,0,0,0,0,0,0,0,0,0,0,0,0,0,0,0,0,0,0,0,0,0,0,0,0,0,0,0,0,0,0,0,0,0,0,0,0,0,0,0,0,0,0,0,1113,408,1113,408,1088,383,
1159,1159,1088,383,1062,0,8005,0,0,0,0,8030,0,1113,1208,1207,507,1159,1159,1207,1208,408,0,0,1062,1207,1208,1207,1208,482,482,508,610,482,508,610,1208,1207,1208,0,0,0,0,0,0,0,0,0,0,0,0,0,0,0,0,0,0,0,0,0,0,0,0,0,0,0,0,0,0,0,0,0,0,0,0,0,0,0,0,0,0,0,0,0,0,0,0,0,0,0,0,0,0,0,0,0,0,0,1113,408,
1159,383,1207,1208,1112,0,8030,0,0,0,0,8055,0,0,0,1207,1208,1207,1207,1208,0,0,0,0,0,1207,1208,1207,1208,507,482,508,610,507,1159,1159,1207,1208,0,0,0,0,0,0,0,0,0,0,0,0,0,0,0,0,0,322,322,0,322,0,0,0,0,0,0,0,0,0,0,0,0,0,0,0,0,0,0,0,0,0,0,0,0,0,0,0,0,0,0,0,0,0,0,0,0,0,0,0,219,166,
1159,408,1159,1159,0,0,8005,0,0,0,0,8080,0,0,0,0,1207,1208,1207,1208,0,0,0,0,0,0,0,1207,1208,1207,507,1159,1159,1207,1208,1207,1208,0,0,0,0,0,0,0,0,0,0,0,0,0,0,0,0,0,0,0,0,0,0,0,0,0,0,0,0,0,0,0,0,0,0,0,0,0,0,0,0,0,0,0,0,0,0,0,0,0,0,0,0,0,0,0,0,0,0,0,0,0,219,191,
1159,1159,1159,1159,0,0,8030,0,0,0,0,8030,0,0,0,0,0,0,0,0,0,0,0,0,0,0,0,0,0,1207,1208,1207,1207,1208,0,0,0,0,0,0,0,0,0,0,0,0,0,0,0,0,0,0,0,0,1159,1159,1159,1159,1159,1159,1159,1159,1159,0,0,0,0,0,0,0,0,0,0,0,0,0,0,0,0,0,0,0,0,0,0,0,0,0,0,0,0,0,0,0,0,0,0,0,219,153,
1159,1159,2147484786,2147484784,0,0,8055,0,0,0,0,8055,0,0,0,0,0,0,0,0,0,0,0,0,0,0,0,0,0,0,1207,1208,1207,1208,0,0,0,0,0,0,0,0,0,0,0,0,0,0,0,0,0,0,1159,1159,1159,1159,1159,1159,1159,1159,1159,1159,1159,1159,0,0,0,0,0,0,0,0,0,0,0,0,0,0,0,0,0,0,0,0,0,0,0,0,0,0,0,0,0,0,0,0,0,0,166,178,
1159,1159,1159,0,0,0,8080,0,0,0,0,8080,4467,4468,4469,4470,4471,4472,4473,0,0,0,0,0,0,0,0,0,0,0,0,0,0,0,0,0,0,0,0,0,0,0,0,0,0,0,0,0,0,16230,1159,1159,1159,1159,1159,1159,0,0,0,0,0,0,0,0,0,0,0,0,0,0,0,0,0,0,0,0,0,0,0,0,0,0,0,0,0,0,0,0,0,0,0,0,0,0,0,0,0,0,191,219,
1159,1159,1159,0,0,0,0,0,0,0,0,0,4483,4484,4485,4486,4487,4488,4489,0,0,0,0,0,0,0,0,0,0,0,0,0,0,0,0,0,0,0,0,0,0,0,0,0,0,0,0,0,0,0,0,0,0,0,0,0,0,0,0,0,0,0,0,0,0,0,0,0,0,0,0,0,0,0,0,0,0,0,0,0,0,0,0,0,0,0,0,0,0,0,0,0,0,0,0,0,0,0,219,219,
1159,1159,1159,0,0,0,0,0,0,0,0,0,4499,4500,4501,4502,4503,4504,4505,0,0,0,0,0,0,0,0,0,0,0,0,0,0,0,0,0,0,0,0,0,0,0,0,0,0,0,0,0,0,16230,1159,0,0,0,0,0,0,0,0,0,0,0,0,0,0,0,0,0,0,0,0,0,0,0,0,0,0,0,0,0,0,0,0,0,0,0,0,0,0,0,0,0,0,0,0,0,0,322,219,219,
1159,1159,1159,1159,0,0,0,0,0,0,0,0,4515,4516,4517,4518,4519,4520,4521,0,0,0,0,0,0,0,0,0,0,0,0,0,0,0,0,0,0,0,0,0,0,0,0,0,0,0,0,0,0,1159,1159,0,0,0,0,0,0,0,0,0,0,0,0,0,0,0,0,0,0,0,0,0,0,0,0,0,0,0,0,0,0,0,0,0,0,0,0,0,0,0,0,0,0,0,0,0,0,0,219,169,
1159,1159,1159,1159,0,0,0,0,0,0,0,0,4531,4532,4533,4534,4535,4536,4537,0,0,0,0,0,0,0,0,0,0,0,0,0,0,0,0,0,0,0,0,0,0,0,0,0,0,0,0,0,0,1159,1159,0,0,0,0,0,0,0,0,0,0,0,0,0,0,0,0,0,0,0,0,0,0,0,0,0,0,0,0,0,0,0,0,0,0,0,0,0,0,0,0,0,0,0,0,0,0,219,219,219,
583,1159,1159,1159,0,0,0,0,0,0,0,0,4547,4548,4549,4550,4551,4552,4553,0,0,1907,359,0,0,0,0,0,0,0,0,0,0,0,0,0,0,0,0,0,0,0,0,0,0,0,0,0,1159,1207,1208,0,0,0,0,0,0,0,0,0,0,0,0,0,0,0,0,0,0,0,0,0,0,0,0,0,0,0,0,0,0,0,0,0,0,0,0,0,0,0,0,0,0,0,0,0,0,219,219,219,
608,1159,1159,1159,407,0,0,0,0,0,0,0,0,0,0,0,0,0,0,0,1931,1932,4591,0,0,0,0,0,0,0,1207,0,0,0,0,0,0,0,0,0,0,0,0,0,0,0,0,0,1159,1207,1207,0,0,0,0,0,0,0,0,0,0,0,0,0,0,0,0,0,0,0,0,0,0,0,0,0,0,0,0,0,0,0,0,0,0,0,0,0,0,0,0,0,0,0,0,0,0,219,219,219,
583,582,583,1159,1159,0,0,0,0,0,0,0,0,0,0,0,0,0,0,4600,4601,4606,4607,0,0,0,0,0,0,0,1207,1208,219,1207,1208,0,0,0,0,0,0,0,0,0,0,0,0,1159,1159,1207,1208,0,0,0,0,0,0,0,0,0,0,0,0,0,0,0,0,0,0,0,0,0,0,0,0,0,0,0,0,0,0,0,0,0,0,0,0,0,0,0,0,0,0,0,0,0,0,219,219,219,
383,607,608,1159,0,0,0,0,0,4721,4615,4614,4615,4614,4615,4614,4615,4614,4615,4616,4617,4622,4623,0,0,0,0,0,0,0,1207,1208,1207,1208,1207,1208,1207,1208,0,0,0,0,0,0,0,0,0,1208,1207,1208,1207,1208,0,0,0,0,0,0,0,0,0,0,0,0,0,0,0,0,0,0,0,0,0,0,0,0,0,0,0,0,0,0,0,0,0,0,0,0,0,0,0,0,0,0,0,0,0,4414,4415,4416,
1159,1159,1159,1159,1159,0,0,0,4736,4737,4631,4630,4631,4630,4631,4630,4631,4630,4631,4632,0,0,0,0,0,0,0,0,0,0,0,1207,1208,1207,1208,219,1207,1208,1207,1208,1207,1208,1207,1208,0,0,1159,1208,1208,1207,1208,1208,0,0,0,0,0,0,0,0,0,0,0,0,0,0,0,0,0,0,0,0,0,0,0,0,0,0,0,0,0,0,0,0,0,0,0,0,0,0,0,0,0,0,0,0,0,4430,4431,4432,
1159,1159,1159,1159,1207,0,0,0,0,0,0,0,0,0,0,0,0,0,0,0,0,0,0,0,0,0,0,0,0,0,0,0,0,0,0,1207,1208,1207,1208,1207,1208,1207,1208,1207,1208,1207,1208,1207,1208,1207,1207,1208,0,0,0,0,0,0,0,0,0,0,0,0,0,0,0,0,0,0,0,0,0,0,0,0,0,0,0,0,0,0,0,0,0,0,0,0,0,0,0,0,0,0,0,0,1907,6227,219,219,
1159,1159,1159,1159,422,0,0,0,4460,4461,4462,4463,4464,4465,4466,4467,0,0,0,0,0,0,0,0,0,0,0,0,0,0,0,0,0,0,0,1207,1208,1207,1208,1207,1208,1207,1208,1207,1208,1207,1208,0,0,1207,1207,1207,1208,0,0,0,0,0,0,0,0,0,0,1207,1208,0,0,0,0,0,0,0,0,0,0,0,0,0,0,0,0,0,0,0,0,0,0,0,0,0,0,0,0,0,0,0,1932,0,128,129,
1159,1159,2147484786,2147484784,446,0,0,0,4476,4477,4478,4479,4480,4481,4482,4483,0,0,0,0,0,0,0,0,0,0,0,0,0,0,0,0,3024,3025,0,0,1207,6254,6255,1207,1207,1159,1207,1113,408,1113,408,1113,408,1210,1159,1207,1208,1159,1159,1159,0,0,0,0,0,0,0,1208,1159,219,1207,1208,0,0,0,0,0,0,0,0,0,0,0,0,0,0,0,0,0,0,0,0,0,0,0,0,0,0,0,0,0,0,0,0,
1159,1159,1159,1208,6225,0,0,0,4492,4493,4494,4495,4496,4497,4498,4499,0,0,0,0,0,0,0,0,0,0,0,0,0,0,0,0,0,0,0,0,0,0,0,1207,1207,1159,0,0,0,1207,6254,6255,0,1207,1159,1207,1208,1159,1159,1159,0,0,0,0,0,0,1207,1208,610,1208,1207,1208,0,1931,0,0,0,0,0,0,0,0,0,0,0,0,0,0,0,0,0,0,0,0,0,0,0,0,0,0,0,0,0,0,
1159,1159,1159,0,0,0,0,0,4508,4509,4510,4511,4512,4513,4514,0,0,0,0,0,0,0,0,0,0,0,0,0,0,0,0,0,0,0,16585,16586,16587,16366,0,0,1207,1208,0,0,0,0,0,0,0,1207,1159,1207,1208,1159,1159,1159,0,0,0,1207,1208,1207,1208,219,1159,1207,1208,0,0,0,0,0,0,0,0,0,0,0,0,0,0,0,0,0,0,0,0,0,0,0,0,0,0,0,0,0,0,0,0,0,
1159,1159,1159,0,0,0,0,0,4524,4525,4526,4527,4528,4529,4530,0,0,0,0,0,0,0,0,0,0,0,0,0,0,0,0,0,0,0,16610,16611,16612,16365,0,16585,16586,16587,0,16585,16586,16587,16366,0,0,1207,1208,1207,1208,1159,1159,1159,1208,1207,1208,1207,1208,1207,1207,1208,1207,1208,0,0,16367,16366,0,0,0,0,0,0,0,0,0,0,0,0,0,0,0,0,0,0,0,0,0,0,0,0,0,0,504,479,478,1907,
1159,1159,1159,1159,0,0,0,0,4540,4541,4542,4543,4544,4545,4546,0,0,0,0,0,0,0,0,0,0,0,0,0,0,0,3024,3025,0,0,0,0,0,0,0,16610,16611,16612,0,16610,16611,16612,16365,0,16585,16586,16587,1209,1210,1159,1159,1159,1208,1207,1208,1207,1208,1207,1208,1207,1208,0,0,0,0,0,0,0,0,0,0,0,0,0,0,0,0,0,0,0,0,0,0,0,0,0,0,0,0,0,0,502,219,219,219,1932,
1159,1159,1159,1159,0,0,0,0,0,0,0,0,0,0,0,0,0,0,0,0,0,0,0,0,0,0,0,0,0,0,0,0,0,0,0,0,0,0,0,0,0,0,0,0,0,0,0,0,16610,16611,16612,1184,1158,1088,383,1159,1207,1208,1207,1208,1207,1208,1207,1208,0,0,0,0,0,0,0,0,16585,16586,16587,0,0,0,0,0,0,0,0,0,0,0,0,0,0,0,0,0,0,0,0,456,219,219,219,219,
583,1159,1159,1159,0,0,0,0,0,0,0,0,0,0,0,0,0,0,0,0,0,0,0,0,0,0,0,0,0,0,0,0,0,0,16367,16585,16586,16587,0,0,0,0,0,0,0,0,0,0,0,0,0,6254,6255,1113,408,1208,219,1207,1207,1208,1207,1208,1207,1208,0,0,0,3024,3025,0,0,0,16610,16611,16612,0,0,0,0,0,0,0,0,0,0,0,0,0,0,0,0,0,0,0,0,481,219,347,219,219,
608,1159,1159,1159,407,0,0,0,0,0,0,0,0,0,0,0,0,0,0,0,0,0,0,0,0,0,0,0,0,0,0,0,0,0,16368,16610,16611,16612,16367,16366,0,0,0,16367,16585,16586,16587,0,0,0,0,0,1160,1184,1184,0,1207,1208,1208,0,0,0,0,0,0,0,0,0,0,0,0,0,0,0,0,0,0,0,0,0,0,0,0,0,0,0,0,0,0,0,0,0,0,0,0,456,219,219,219,219,
583,582,583,1159,1159,0,0,0,0,0,0,0,0,0,0,0,0,0,0,0,0,0,0,0,0,0,0,0,0,0,0,0,0,0,0,0,0,0,0,0,0,0,0,16368,16610,16611,16612,16367,16366,0,0,16585,16586,16587,16366,0,1207,1208,1208,0,0,0,0,0,0,0,0,16367,16366,0,0,0,0,0,0,0,0,0,0,0,0,0,0,0,0,0,0,0,0,0,0,0,0,0,0,4588,219,219,219,219,
383,1208,1207,1208,0,0,0,0,0,0,0,0,0,0,0,0,0,0,0,0,0,0,0,0,0,0,0,0,0,0,0,0,0,0,0,0,0,0,0,4593,0,0,0,0,0,0,0,0,0,0,0,16610,16611,16612,16367,0,0,0,0,0,0,0,0,0,0,0,0,0,0,0,0,0,0,0,0,0,0,0,0,0,0,0,0,0,0,0,0,0,0,0,0,0,0,0,0,4604,4605,356,219,219,
408,1208,1207,1208,1159,0,0,0,0,0,0,0,0,0,0,0,0,0,0,0,0,0,0,0,0,0,0,0,0,0,0,0,0,0,0,0,0,0,0,4588,0,0,0,0,0,0,0,0,0,0,0,0,0,0,0,0,0,0,0,0,0,0,0,0,0,0,0,0,0,0,0,0,0,0,0,0,16585,16586,16587,0,0,0,0,0,0,0,0,0,0,0,0,0,0,0,0,4620,4621,381,219,219,
1184,219,1207,1208,1207,0,0,0,0,0,0,0,0,0,0,0,0,0,0,0,0,0,0,0,0,0,0,0,0,0,0,0,0,0,0,0,0,0,0,4604,4605,4596,4597,0,0,0,0,0,0,0,0,0,0,0,0,0,0,0,0,0,0,0,0,0,0,0,0,0,0,0,0,0,0,0,0,0,16610,16611,16612,0,0,0,0,0,0,0,0,0,0,0,0,0,0,0,0,0,0,406,219,219,
1207,1208,1207,1208,422,0,0,0,0,0,0,0,0,0,0,0,0,0,0,0,0,0,0,0,0,0,0,0,0,0,0,0,0,0,0,0,0,0,0,4620,4621,4612,4613,582,3024,3025,0,0,0,0,0,0,0,0,0,359,0,0,0,0,0,0,0,0,0,0,0,0,0,0,0,0,16585,16586,16587,0,0,0,0,0,0,0,0,0,0,0,0,0,0,0,0,0,0,0,0,0,0,431,219,219,
1208,1207,1208,1159,446,0,0,0,0,0,0,0,0,0,0,0,0,0,0,4594,4595,4614,4615,4614,4596,4597,0,0,0,0,0,0,0,0,0,0,3024,3025,0,0,0,0,4629,607,0,0,0,0,0,0,0,0,0,3024,3025,509,0,0,0,0,0,0,0,4593,0,0,0,0,0,0,0,0,16610,16611,16612,16367,16366,0,0,0,0,0,0,0,0,0,0,0,0,0,0,0,0,0,0,0,0,456,1113,408,
1208,1207,1208,0,0,0,0,0,0,0,0,0,0,0,0,0,0,0,0,4616,4611,4630,4631,4630,4612,4613,4614,0,0,0,0,0,0,0,0,0,0,0,0,0,0,0,0,531,533,529,505,0,0,2990,2991,0,0,407,433,534,16367,16366,0,0,0,0,0,4588,0,16367,16366,0,0,0,0,0,0,0,0,0,0,0,0,0,0,0,0,0,0,0,0,0,0,0,0,0,0,0,0,0,0,481,219,166,
532,533,532,533,529,505,0,0,0,0,0,0,0,0,0,0,0,0,0,4632,0,0,0,0,0,4629,4630,0,0,0,0,0,0,0,0,0,0,0,0,0,0,0,0,556,558,554,530,360,1907,3022,3023,1907,533,432,458,559,0,0,0,0,0,0,0,4604,4605,4596,4597,0,0,0,0,0,0,0,0,0,0,0,0,0,0,0,0,0,0,0,0,0,0,0,0,0,0,0,0,0,0,481,219,191,
557,558,557,558,554,530,532,529,505,0,0,0,0,0,0,0,0,407,433,534,0,0,0,0,0,0,4604,4596,4597,0,0,0,0,0,0,0,0,0,0,0,0,0,0,581,583,579,555,385,1932,0,0,1932,558,457,483,584,0,0,0,0,0,0,0,4620,4621,4612,4613,582,0,0,0,0,0,0,0,0,0,0,0,359,0,0,0,0,0,0,0,0,0,0,0,0,0,0,0,0,0,456,219,153,
582,583,582,583,579,555,380,554,530,532,355,532,533,532,533,532,533,432,458,559,0,0,0,0,0,0,4620,4612,4613,4605,4614,4615,4614,4615,4615,4614,4596,4597,0,0,0,0,0,606,608,604,580,410,1807,1808,1809,1810,583,482,508,609,16585,16586,16587,0,0,0,0,0,0,0,4629,607,1931,0,0,0,0,0,0,0,0,0,1931,509,0,0,0,0,0,0,0,0,0,0,0,0,0,0,0,0,0,481,166,178,
4766,4765,4766,4765,4766,4767,405,579,555,557,380,557,558,557,558,557,558,457,483,584,0,0,0,0,0,0,0,0,4629,4621,4630,4631,4630,4631,4631,4630,4612,4613,4614,4596,4597,0,0,0,0,0,605,435,1832,1833,1834,1835,608,507,0,0,16610,16611,16612,0,0,0,0,0,0,0,0,531,533,529,505,0,0,0,0,0,0,407,433,534,0,0,0,0,0,0,0,0,0,0,0,0,0,0,0,0,502,219,191,219,
0,0,0,0,0,4783,4784,4766,4767,582,405,582,583,582,583,582,583,482,2429,609,0,0,0,0,0,0,0,0,0,0,0,0,0,0,0,0,0,4629,4630,4612,4613,4615,4592,4615,0,0,0,481,1857,1858,1859,1860,484,0,0,0,0,0,0,0,0,0,0,0,0,0,0,556,558,554,530,360,1907,0,0,1907,533,432,458,559,0,0,0,0,0,0,0,0,0,0,0,0,0,0,0,502,219,219,219,219,
0,0,0,0,0,0,0,0,4783,4784,4766,4765,4766,4765,0,0,0,0,2397,2365,0,0,0,0,0,0,0,0,0,0,0,0,0,0,0,0,0,0,0,0,4629,4631,4608,4631,0,0,0,506,3465,219,219,3468,509,0,0,0,0,0,0,0,0,0,0,0,0,0,0,581,583,579,555,385,1932,0,0,1932,558,457,483,584,0,0,0,0,0,0,0,0,0,0,0,0,0,0,0,456,219,322,219,219,
0,0,0,0,0,0,0,0,0,0,0,0,0,0,0,0,0,0,167,2397,2365,0,0,0,0,0,0,0,0,0,0,0,0,0,0,0,0,0,0,0,0,0,0,4604,4615,4596,4597,531,4668,4669,4670,4671,4600,4601,4614,4615,4595,4596,4597,0,0,0,0,0,0,0,0,606,608,604,580,410,1807,1808,1809,1810,583,482,508,609,0,0,0,0,0,0,0,0,0,0,0,0,0,0,0,481,219,219,219,169,
0,0,0,0,0,0,0,0,0,0,0,0,0,0,0,0,0,0,167,167,2397,2301,2333,2365,0,0,0,0,0,0,0,0,0,0,0,0,0,0,0,0,0,0,0,4620,4631,4612,4613,4605,1723,1724,1724,1725,4616,4617,4621,4611,4621,4612,4613,4614,4615,4615,4614,4596,4597,0,0,0,0,0,605,435,1832,1833,1834,1835,608,507,0,0,0,0,0,0,0,0,0,0,0,0,0,0,0,0,0,481,219,219,219,219,
0,0,0,0,0,0,0,0,0,0,0,0,0,0,0,0,0,0,0,167,167,167,167,2397,2301,2333,2365,0,0,0,0,0,0,0,0,0,0,0,0,0,0,0,0,0,0,0,4629,4621,1748,219,219,1750,4632,0,0,0,0,0,4629,4630,4631,4631,4630,4612,4613,4615,4592,4615,0,0,0,481,1857,1858,1859,1860,484,0,0,0,0,0,0,0,0,0,0,0,0,0,0,0,0,0,0,4597,219,219,219,219,
0,0,0,0,0,0,0,0,0,0,0,0,0,0,0,0,0,0,0,0,0,0,167,167,167,167,2397,2301,2333,2365,0,0,0,0,0,0,0,0,0,0,0,0,0,0,0,0,0,2461,1773,2784,2816,1775,2365,0,0,0,0,0,0,0,0,0,0,0,4629,4631,4608,4631,0,0,0,506,3465,219,219,3468,509,0,0,0,0,0,0,0,0,0,0,0,0,0,0,0,0,0,0,4613,297,219,219,219,
0,0,0,0,0,0,0,0,0,0,0,0,0,0,0,0,0,0,0,0,0,0,0,0,0,167,167,167,167,2397,2301,2333,2365,0,0,0,0,0,0,0,0,0,0,0,0,0,0,2525,167,2816,2784,167,2429,0,0,0,0,0,0,0,0,0,0,0,0,0,0,4604,4615,4596,4597,531,4668,4669,4670,4671,4600,4601,4614,4606,4605,4606,4605,4605,4606,4605,4606,4605,4606,4605,4606,4605,4606,4605,4596,4629,219,219,219,219,
0,0,0,0,0,0,0,0,0,0,0,0,0,0,0,0,0,0,0,0,0,0,0,0,0,0,0,0,167,167,167,167,2397,2333,2301,2333,2301,2333,2365,0,0,0,0,0,0,0,0,2525,2816,2784,2816,2784,2429,0,0,0,0,0,0,0,0,0,0,0,0,0,0,4620,4631,4612,4613,4605,1723,1724,1724,1725,4616,4617,4621,4622,4621,4622,4630,4630,4622,4621,4622,4630,4631,4630,4622,4630,4631,4621,4612,481,219,4414,4415,4416,
0,0,0,0,0,0,0,0,0,0,0,0,0,0,0,0,0,0,0,0,0,0,0,0,0,0,0,0,0,0,0,167,167,167,167,167,167,167,2397,2301,2333,2365,0,0,0,0,2461,2493,167,167,167,167,2397,2365,0,0,0,0,0,0,0,0,0,0,0,0,0,0,0,0,4629,4621,1748,219,219,1750,4632,0,0,0,0,0,0,0,0,0,0,0,0,0,0,0,0,0,0,456,219,4430,4431,4432,
0,0,0,0,0,0,0,0,0,0,0,0,0,0,0,0,0,0,0,0,0,0,0,0,0,0,0,0,0,0,0,0,0,0,0,0,0,167,167,167,167,2397,2333,2301,2333,2301,2493,167,0,0,0,0,167,2397,2333,2365,0,0,0,0,0,0,0,0,0,0,0,0,0,0,0,2461,1773,2784,2816,1775,2365,0,0,0,0,0,0,0,0,0,0,0,0,0,0,0,0,0,0,481,1907,6227,219,219,
0,0,0,0,0,0,0,0,0,0,0,0,0,0,0,0,0,0,0,0,0,0,0,0,0,0,0,0,0,0,0,0,0,0,0,0,0,0,0,0,167,167,167,167,167,167,167,167,0,0,0,0,16972,16973,16974,2397,2301,2333,2301,2333,2301,2333,2365,0,0,0,0,0,0,0,0,2525,167,2816,2784,167,2429,0,0,0,0,0,0,0,0,0,0,0,0,0,0,0,0,0,0,506,1932,219,128,129,
0,0,0,0,0,0,0,0,0,0,0,0,0,0,0,0,0,0,0,0,0,0,0,0,0,0,0,0,0,0,0,0,0,0,0,0,0,0,0,0,0,0,0,0,0,0,0,0,0,0,0,0,16997,16998,16999,167,167,167,167,167,167,167,2365,2301,2333,2301,2333,2301,2333,2365,0,2525,2816,2784,2816,2784,2429,0,0,0,0,0,0,0,0,0,0,0,0,0,0,0,0,0,0,531,532,505,219,219,
0,0,0,0,0,0,0,0,0,0,0,0,0,0,0,0,0,0,0,0,0,0,0,0,0,0,0,0,0,0,0,0,0,0,0,0,0,0,0,0,0,0,0,0,0,0,0,0,0,0,0,0,0,0,0,0,0,0,0,0,0,167,2397,2301,2333,2365,167,167,167,2397,2461,2493,167,167,167,167,2397,2365,0,0,0,0,0,0,0,0,0,0,0,0,0,0,0,0,0,556,557,530,532,533,
0,0,0,0,0,0,0,0,0,0,0,0,0,0,0,0,0,0,0,0,0,0,0,0,0,0,0,0,0,0,0,0,0,0,0,0,0,0,0,0,0,0,0,0,0,0,0,0,0,0,0,0,0,0,0,0,0,0,0,0,0,0,167,167,167,2397,2333,2301,2333,2301,2493,167,167,167,2397,2333,167,2397,2333,2365,2301,2365,0,0,0,0,0,0,0,0,0,0,0,0,0,581,582,555,557,558,
0,0,0,0,0,0,0,0,0,0,0,0,0,0,0,0,0,0,0,0,0,0,0,0,0,0,0,0,0,0,0,0,0,0,0,0,0,0,0,0,0,0,0,0,0,0,0,0,0,0,0,0,0,0,0,0,0,0,0,0,0,0,0,0,167,167,167,167,16972,16973,16974,167,0,167,167,167,167,167,167,2397,167,2397,2333,2301,2333,2301,2333,2301,2333,2301,2365,0,0,0,2461,2333,2301,580,582,583,
0,0,0,0,0,0,0,0,0,0,0,0,0,0,0,0,0,0,0,0,0,0,0,0,0,0,0,0,0,0,0,0,0,0,0,0,0,0,0,0,0,0,0,0,0,0,0,0,0,0,0,0,0,0,0,0,0,0,0,0,0,0,0,0,0,0,0,0,16997,16998,16999,0,0,0,0,0,0,0,167,167,167,167,167,167,167,167,167,167,167,167,2397,2333,2301,2333,2493,167,167,2397,2301,2333,
0,0,0,0,0,0,0,0,0,0,0,0,0,0,0,0,0,0,0,0,0,0,0,0,0,0,0,0,0,0,0,0,0,0,0,0,0,0,0,0,0,0,0,0,0,0,0,0,0,0,0,0,0,0,0,0,0,0,0,0,0,0,0,0,0,0,0,0,0,0,0,0,0,0,0,0,0,0,0,0,0,0,0,0,0,0,0,0,0,167,167,167,16972,16973,16974,167,167,167,167,167,
0,0,0,0,0,0,0,0,0,0,0,0,0,0,0,0,0,0,0,0,0,0,0,0,0,0,0,0,0,0,0,0,0,0,0,0,0,0,0,0,0,0,0,0,0,0,0,0,0,0,0,0,0,0,0,0,0,0,0,0,0,0,0,0,0,0,0,0,0,0,0,0,0,0,0,0,0,0,0,0,0,0,0,0,0,0,0,0,0,0,0,0,16997,16998,16999,0,0,0,0,0,
0,0,0,0,0,0,0,0,0,0,0,0,0,0,0,0,0,0,0,0,0,0,0,0,0,0,0,0,0,0,0,0,0,0,0,0,0,0,0,0,0,0,0,0,0,0,0,0,0,0,0,0,0,0,0,0,0,0,0,0,0,0,0,0,0,0,0,0,0,0,0,0,0,0,0,0,0,0,0,0,0,0,0,0,0,0,0,0,0,0,0,0,0,0,0,0,0,0,0,0,
0,0,0,0,0,0,0,0,0,0,0,0,0,0,0,0,0,0,0,0,0,0,0,0,0,0,0,0,0,0,0,0,0,0,0,0,0,0,0,0,0,0,0,0,0,0,0,0,0,0,0,0,0,0,0,0,0,0,0,0,0,0,0,0,0,0,0,0,0,0,0,0,0,0,0,0,0,0,0,0,0,0,0,0,0,0,0,0,0,0,0,0,0,0,0,0,0,0,0,0,
0,0,0,0,0,0,0,0,0,0,0,0,0,0,0,0,0,0,0,0,0,0,0,0,0,0,0,0,0,0,0,0,0,0,0,0,0,0,0,0,0,0,0,0,0,0,0,0,0,0,0,0,0,0,0,0,0,0,0,0,0,0,0,0,0,0,0,0,0,0,0,0,0,0,0,0,0,0,0,0,0,0,0,0,0,0,0,0,0,0,0,0,0,0,0,0,0,0,0,0,
0,0,0,0,0,0,0,0,0,0,0,0,0,0,0,0,0,0,0,0,0,0,0,0,0,0,0,0,0,0,0,0,0,0,0,0,0,0,0,0,0,0,0,0,0,0,0,0,0,0,0,0,0,0,0,0,0,0,0,0,0,0,0,0,0,0,0,0,0,0,0,0,0,0,0,0,0,0,0,0,0,0,0,0,0,0,0,0,0,0,0,0,0,0,0,0,0,0,0,0,
0,0,0,0,0,0,0,0,0,0,0,0,0,0,0,0,0,0,0,0,0,0,0,0,0,0,0,0,0,0,0,0,0,0,0,0,0,0,0,0,0,0,0,0,0,0,0,0,0,0,0,0,0,0,0,0,0,0,0,0,0,0,0,0,0,0,0,0,0,0,0,0,0,0,0,0,0,0,0,0,0,0,0,0,0,0,0,0,0,0,0,0,0,0,0,0,0,0,0,0
</data>
 </layer>
 <layer id="27" name="Buildings2" width="100" height="75">
  <data encoding="csv">
0,0,0,0,0,0,0,0,0,0,0,0,0,0,0,0,0,0,0,0,0,0,0,0,0,0,0,0,0,0,0,0,0,0,0,0,0,0,0,0,0,0,0,0,0,0,0,0,0,0,0,0,0,0,0,0,0,0,0,0,0,0,0,0,0,0,0,0,0,0,0,0,0,0,0,0,0,0,0,0,0,0,0,0,0,0,0,0,0,0,0,0,0,0,0,0,0,0,0,0,
0,0,0,0,0,0,0,0,0,0,0,0,0,0,0,0,0,0,0,0,0,0,0,0,0,0,0,0,0,0,0,0,0,0,0,0,0,0,0,0,0,0,0,0,0,0,0,0,0,0,0,0,0,0,0,0,0,0,0,0,0,0,0,0,0,0,0,0,0,0,0,0,0,0,0,0,0,0,0,0,0,0,0,0,0,0,0,0,0,0,0,0,0,0,0,0,0,0,0,0,
0,0,0,0,0,0,0,0,0,0,0,0,0,0,0,0,0,0,0,0,0,0,0,0,0,0,0,0,0,0,0,0,0,0,0,0,0,0,0,0,0,0,0,0,0,0,0,0,0,0,0,0,0,0,0,0,0,0,0,0,0,0,0,0,0,0,0,0,0,0,0,0,0,0,0,0,0,0,0,0,0,0,0,0,0,0,0,0,0,0,0,0,0,0,0,0,0,0,0,0,
0,0,0,0,0,0,0,0,0,0,0,0,0,0,0,0,0,0,0,0,0,0,0,0,0,0,0,0,0,0,0,0,0,0,0,0,0,0,0,0,0,0,0,0,0,0,0,0,0,0,0,0,0,0,0,0,0,0,0,0,0,0,0,0,0,0,0,0,0,0,0,0,0,0,0,0,0,0,0,0,0,0,0,0,0,0,0,0,0,0,0,0,0,0,0,0,0,0,0,0,
0,0,0,0,0,0,0,0,0,0,0,0,0,0,0,0,0,0,0,0,0,0,0,0,0,0,0,0,0,0,0,0,0,0,0,0,0,0,0,0,0,0,0,0,0,0,0,0,0,0,0,0,0,0,0,0,0,0,0,0,0,0,0,0,0,0,0,0,0,0,0,0,0,0,0,0,0,0,0,0,0,0,0,0,0,0,0,0,0,0,0,0,0,0,0,0,0,0,0,0,
0,0,0,0,0,0,0,0,0,0,0,0,0,0,0,0,0,0,0,0,0,0,0,0,0,0,0,0,0,0,0,0,0,0,0,0,0,0,0,0,0,0,0,0,0,0,0,0,0,0,0,0,0,0,0,0,0,0,0,0,0,0,0,0,0,0,0,0,0,0,0,0,0,0,0,0,0,0,0,0,0,0,0,0,0,0,0,0,0,0,0,0,0,0,0,0,0,0,0,0,
0,0,0,0,0,0,0,0,0,0,0,0,0,0,0,0,0,0,0,0,0,0,0,0,0,0,0,0,0,0,0,0,0,0,0,0,0,0,0,0,0,0,0,0,0,0,0,0,0,0,0,0,0,0,0,0,0,0,0,0,0,0,0,0,0,0,0,0,0,0,0,0,0,0,0,0,0,0,0,0,0,0,0,0,0,0,0,0,0,0,0,0,0,0,0,0,0,0,0,0,
0,0,0,0,0,0,0,0,0,0,0,0,0,0,0,0,0,0,0,0,0,0,0,0,0,0,0,0,0,0,0,0,0,0,0,0,0,0,0,0,0,0,0,0,0,0,0,0,0,0,0,0,0,0,0,0,0,0,0,0,0,0,0,0,0,0,0,0,0,0,0,0,0,0,0,0,0,0,0,0,0,0,0,0,0,0,0,0,0,0,0,0,0,0,0,0,0,0,0,0,
0,0,0,0,0,0,0,0,0,0,0,0,0,0,179,0,0,0,0,0,0,0,0,0,0,0,0,0,0,0,0,0,0,0,0,0,0,0,0,0,0,0,0,0,0,0,0,0,0,0,0,0,0,0,0,0,0,0,0,0,0,0,0,0,0,0,0,0,0,0,0,0,0,0,0,0,0,0,0,0,0,0,0,0,0,0,0,0,0,0,0,0,0,0,0,0,0,0,0,0,
0,0,0,0,0,0,0,0,0,0,0,0,0,0,0,0,0,0,0,0,0,0,0,0,0,0,0,0,0,0,0,0,0,179,0,0,0,0,0,0,0,0,0,0,0,0,0,0,0,0,0,0,0,0,0,0,0,0,0,0,0,0,0,0,0,0,0,0,0,0,0,0,0,0,0,0,0,0,0,0,0,0,0,0,0,0,0,0,0,0,0,0,0,0,0,0,0,0,0,0,
0,0,0,0,0,0,0,0,0,0,0,0,0,0,0,0,0,0,0,0,0,0,0,0,0,0,0,0,0,0,0,0,0,0,0,0,0,0,0,0,0,0,0,0,0,0,0,0,0,0,0,0,0,0,0,0,0,0,0,0,0,0,0,0,0,0,0,0,0,0,0,0,0,0,0,0,0,0,0,0,0,0,0,0,0,0,0,0,0,0,0,0,0,0,0,0,0,0,0,0,
0,0,0,0,0,0,0,0,0,0,0,0,0,0,0,0,0,0,0,0,0,0,0,19280,0,0,0,0,0,0,0,0,0,0,0,0,0,0,0,0,0,0,0,0,0,0,0,0,0,0,0,0,0,0,0,0,0,0,0,0,0,0,0,0,0,0,0,0,0,0,0,0,0,0,0,0,0,0,0,0,0,0,0,0,0,0,0,0,0,0,0,0,0,0,0,0,0,0,0,0,
0,0,0,0,0,0,0,0,0,0,0,0,0,0,0,0,0,0,0,0,0,0,0,19305,0,0,0,0,0,0,0,0,0,0,0,0,0,0,0,0,0,0,0,0,0,0,0,0,0,0,0,0,0,0,0,0,0,0,0,0,0,0,0,0,0,0,0,0,0,0,0,0,0,0,0,0,0,0,0,0,0,0,0,0,0,0,0,0,0,0,0,0,0,0,0,0,0,0,0,0,
0,0,0,0,0,0,0,0,0,0,0,0,0,0,0,0,0,0,0,0,0,0,0,19330,0,0,0,0,0,0,0,0,0,0,0,0,0,0,0,0,0,0,0,0,0,0,0,0,0,0,0,0,0,0,0,0,0,0,0,0,0,0,0,0,0,0,0,0,0,0,0,0,0,0,0,0,0,0,0,0,0,0,0,0,0,0,0,0,0,0,0,0,0,0,0,0,0,0,0,0,
0,0,0,0,0,0,0,0,0,0,0,0,0,0,0,0,0,0,0,0,0,0,0,19355,0,0,0,0,0,0,0,0,0,0,0,0,0,0,0,0,0,0,0,0,0,0,0,0,0,0,0,0,0,0,0,0,0,0,0,0,0,0,0,0,0,0,0,0,0,0,0,0,0,0,0,0,0,0,0,0,0,0,0,0,0,0,0,0,0,0,0,0,0,0,0,0,0,0,0,0,
0,0,0,0,0,0,0,0,0,0,0,0,0,0,0,0,0,0,0,0,0,0,0,0,0,0,0,0,0,0,0,0,0,0,0,0,0,0,0,0,0,0,0,0,0,0,0,0,0,0,0,0,0,0,0,0,0,0,0,0,0,0,0,0,0,0,0,0,0,0,0,0,0,0,0,0,0,0,0,0,0,0,0,0,0,0,0,0,0,0,0,0,0,0,0,0,0,0,0,0,
0,0,0,0,0,0,0,0,0,0,0,0,0,0,0,0,0,0,0,0,0,0,0,0,0,0,0,0,0,0,0,0,0,0,0,0,0,0,0,0,0,0,0,0,0,0,0,0,0,0,0,0,0,0,0,0,0,0,0,0,0,0,0,0,0,0,0,0,0,0,0,0,0,0,0,0,0,0,0,0,0,0,0,0,0,0,0,0,0,0,0,0,0,0,0,0,0,0,0,0,
0,0,0,0,0,0,0,0,0,0,0,0,0,0,0,0,0,0,0,0,0,0,0,0,0,0,0,0,0,0,0,0,0,0,0,0,0,0,0,0,0,0,0,0,0,0,0,0,0,0,0,0,0,0,0,0,0,0,0,0,0,0,0,0,0,0,0,0,0,0,0,0,0,0,0,0,0,0,0,0,0,0,0,0,0,0,0,0,0,0,0,0,0,0,0,0,0,0,0,0,
0,0,0,0,0,0,0,0,0,0,0,0,0,0,0,0,0,0,0,0,0,0,0,0,0,0,0,0,0,0,0,0,0,0,0,0,0,0,0,0,0,0,0,0,0,0,0,0,0,0,0,0,0,0,0,0,0,0,0,0,0,0,0,0,0,0,0,0,0,0,0,0,0,0,0,0,0,0,0,0,0,0,0,0,0,0,0,0,0,0,0,0,0,0,0,0,0,0,0,0,
0,0,0,0,0,0,0,0,0,0,0,0,0,0,0,0,0,0,0,0,0,0,0,0,0,0,0,0,0,0,0,0,0,0,0,0,0,0,0,0,0,0,0,0,0,0,0,0,0,0,0,0,0,0,0,0,0,0,0,0,0,0,0,0,0,0,0,0,0,0,0,0,0,0,0,0,0,0,0,0,0,0,0,0,0,0,0,0,0,0,0,0,0,0,0,0,0,0,0,0,
0,0,0,0,0,0,0,0,0,0,0,0,0,0,0,0,0,0,0,0,0,0,0,0,0,0,0,0,0,0,0,0,0,0,0,0,0,0,0,0,0,0,0,0,0,0,0,0,0,0,0,0,0,0,0,0,0,0,0,0,0,0,0,0,0,0,0,0,0,0,0,0,0,0,0,0,0,0,0,0,0,0,0,0,0,0,0,0,0,0,0,0,0,0,0,0,0,0,0,0,
0,0,0,0,0,0,0,0,0,0,0,0,0,0,0,0,0,0,0,0,0,0,0,0,0,0,0,0,0,0,0,0,0,0,0,0,0,0,0,0,0,0,0,0,0,0,0,0,0,0,0,0,0,0,0,0,0,0,0,0,0,0,0,0,0,0,0,0,0,0,0,0,0,0,0,0,0,0,0,0,0,0,0,0,0,0,0,0,0,0,0,0,0,0,0,0,0,0,0,0,
0,0,0,0,0,0,0,0,0,0,0,0,0,0,0,0,0,0,0,0,0,0,0,0,0,0,0,0,0,0,0,0,0,0,0,0,0,0,0,0,0,0,0,0,0,0,0,0,0,0,0,0,0,0,0,0,0,0,0,0,0,0,0,0,0,0,37,0,0,0,0,0,0,0,0,0,0,0,0,0,0,0,0,0,0,0,0,0,0,0,0,0,0,0,0,0,0,0,0,0,
0,0,0,0,0,0,0,0,0,0,0,0,0,0,0,0,0,0,0,0,0,0,0,0,0,0,0,0,0,0,0,0,0,0,0,0,0,0,0,0,0,0,0,0,0,0,0,0,0,0,0,0,0,0,37,37,37,27,37,0,0,0,0,0,0,0,0,0,0,0,0,0,0,0,0,0,0,0,0,0,0,0,0,0,0,0,0,0,0,0,0,0,0,0,0,0,0,0,0,0,
0,0,0,0,0,0,0,0,0,0,0,0,0,0,0,0,0,0,0,0,0,0,0,0,0,0,0,0,0,0,0,0,0,0,0,0,0,0,0,0,0,0,0,0,0,0,0,0,0,0,0,0,37,27,37,37,0,0,0,0,0,0,0,0,0,0,0,37,0,0,0,0,0,0,0,0,0,0,0,0,0,0,0,0,0,0,0,0,0,0,0,0,0,0,0,0,0,0,0,0,
0,0,0,0,0,0,0,0,0,0,0,0,0,0,0,0,0,0,0,0,0,0,0,0,0,0,0,0,0,0,0,0,0,0,0,0,0,0,0,0,0,0,0,0,0,0,0,0,0,0,0,0,37,37,37,0,0,0,37,0,37,37,0,0,0,0,0,37,0,0,0,0,0,0,0,0,0,0,0,0,0,0,0,0,0,0,0,0,0,0,0,0,0,0,0,0,0,0,0,0,
0,0,0,0,0,0,0,0,0,0,0,0,0,0,0,0,0,0,0,0,0,0,0,0,0,0,0,0,0,0,0,0,0,0,0,0,0,0,0,0,0,0,0,0,0,0,0,0,0,0,0,0,37,37,0,0,0,0,0,0,0,0,37,0,0,0,0,37,0,0,0,0,0,0,0,0,0,0,0,0,0,0,0,0,0,0,0,0,0,0,0,0,0,0,0,0,0,0,0,0,
0,0,0,0,0,0,0,0,0,0,0,0,0,0,0,0,0,0,0,0,0,0,0,0,0,0,0,0,0,0,0,0,0,0,0,0,0,0,0,0,0,0,0,0,0,0,0,0,0,0,0,0,0,0,0,37,0,0,0,0,37,0,0,0,0,0,0,37,0,0,0,0,0,0,0,0,0,0,0,0,0,0,0,0,0,0,0,0,0,0,0,0,0,0,0,0,0,0,0,0,
0,0,0,0,0,0,0,0,0,0,0,0,0,0,0,0,0,0,0,0,0,0,0,0,0,0,0,0,0,0,0,0,0,0,0,0,0,0,0,0,0,0,0,0,0,0,0,0,0,0,0,0,0,0,0,0,0,0,0,0,0,0,0,0,0,0,0,0,37,0,0,0,0,0,0,0,0,0,0,0,0,0,0,0,0,0,0,0,0,0,0,0,0,0,0,0,0,0,0,0,
0,0,0,0,0,0,0,0,0,0,0,0,0,0,0,0,0,0,0,0,0,0,0,0,0,0,0,0,0,0,0,0,0,0,0,0,0,0,0,0,0,0,0,0,0,0,0,0,0,0,0,0,0,0,0,0,0,0,0,0,0,0,0,0,0,0,0,0,37,0,0,0,0,0,0,0,0,0,0,0,0,0,0,0,0,0,0,0,0,0,0,0,0,0,0,0,0,0,0,0,
0,0,0,0,0,0,0,0,0,0,0,0,0,0,0,0,0,0,0,0,0,0,0,0,0,0,0,0,0,0,0,0,0,0,0,0,0,0,0,0,0,0,0,0,0,0,0,0,0,0,0,0,0,0,0,0,0,0,0,0,0,37,0,0,0,0,0,0,0,0,0,0,0,0,0,0,0,0,0,0,0,0,0,0,0,0,0,0,0,0,0,0,0,0,0,0,0,0,0,0,
0,0,0,0,0,0,0,0,0,0,0,0,0,0,0,0,0,0,0,0,0,0,0,0,0,0,0,0,0,0,0,0,0,0,0,0,0,0,0,0,0,0,0,0,0,0,0,0,0,0,0,0,0,0,0,0,37,0,0,0,0,0,0,0,0,0,0,0,37,0,0,0,0,0,0,0,0,0,0,0,0,0,0,0,0,0,0,0,0,0,0,0,0,0,0,0,0,0,0,0,
0,0,0,0,0,0,0,0,0,0,0,0,0,0,0,0,0,0,0,0,0,0,0,0,0,0,0,0,0,0,0,0,0,0,0,0,0,0,0,0,0,0,0,0,0,0,0,0,0,0,0,0,0,0,0,0,0,0,0,0,0,37,0,0,0,0,0,0,0,0,0,0,0,0,0,0,0,0,0,0,0,0,0,0,0,0,0,0,0,0,0,0,0,0,0,0,0,0,0,0,
0,0,0,0,0,0,0,0,0,0,0,0,0,0,0,0,0,0,0,0,0,0,0,0,0,0,0,0,0,0,0,0,0,0,0,0,0,0,0,0,0,0,0,0,0,0,0,0,0,0,0,0,0,0,37,0,0,37,0,0,0,0,0,0,0,0,0,0,0,0,0,0,0,0,0,0,0,0,0,0,0,0,0,0,0,0,0,0,0,0,0,0,0,0,0,0,0,0,0,0,
0,0,0,0,0,0,0,0,0,0,0,0,0,0,0,0,0,0,0,0,0,0,0,0,0,0,0,0,0,0,0,0,0,0,0,0,0,0,0,0,0,0,0,0,0,0,0,0,0,0,0,0,0,0,37,0,0,0,0,0,37,0,0,0,0,0,0,0,0,0,0,0,0,0,0,0,0,0,0,0,0,0,0,0,0,0,0,0,0,0,0,0,0,0,0,0,0,0,0,0,
0,0,0,0,0,0,0,0,0,0,0,0,0,0,0,0,0,0,0,0,0,0,0,0,0,0,0,0,0,0,0,0,0,0,0,0,0,0,0,0,0,0,0,0,0,0,0,0,0,0,0,0,0,0,0,37,37,0,0,0,0,0,0,0,0,0,0,0,0,0,0,0,0,0,0,0,0,0,0,0,0,0,0,0,0,0,0,0,0,0,0,0,0,0,0,0,0,0,0,0,
0,0,0,0,0,0,0,0,0,0,0,0,0,0,0,0,0,0,0,0,0,0,0,0,0,0,0,0,0,0,0,0,0,0,0,0,0,0,0,0,0,0,0,0,0,0,0,0,0,0,0,0,0,0,0,0,0,0,0,0,0,0,0,0,0,0,0,0,27,0,0,0,0,0,0,0,0,0,0,0,0,0,0,0,0,0,0,0,0,0,0,0,0,0,0,0,0,0,0,0,
0,0,0,0,0,0,0,0,0,0,0,0,0,0,0,0,0,0,0,0,0,0,0,0,0,0,0,0,0,0,0,0,0,0,0,0,0,0,0,0,0,0,0,0,0,0,0,0,0,0,0,0,0,0,0,0,0,0,0,0,0,0,0,0,0,27,0,0,0,0,0,0,0,0,0,0,0,0,0,0,0,0,0,0,0,0,0,0,0,0,0,0,0,0,0,0,0,0,0,0,
0,0,0,0,0,0,0,0,0,0,0,0,0,0,0,0,0,0,0,0,0,0,0,0,0,0,0,0,0,0,0,0,0,0,0,0,0,0,0,0,0,0,0,0,0,0,0,0,0,0,0,0,0,0,0,0,0,0,0,0,0,0,0,27,0,0,0,0,0,0,0,0,0,0,0,0,0,0,0,0,0,0,0,0,0,0,0,0,0,0,0,0,0,0,0,0,0,0,0,0,
0,0,0,0,0,0,0,0,0,0,0,0,0,0,0,0,0,0,0,0,0,0,0,0,0,0,0,0,0,0,0,0,0,0,0,0,0,0,0,0,0,0,0,0,0,0,0,0,0,0,0,0,0,0,0,0,0,0,0,0,0,0,0,37,0,0,0,0,0,0,0,0,0,0,0,0,0,0,0,0,0,0,0,0,0,0,0,0,0,0,0,0,0,0,0,0,0,0,0,0,
0,0,0,0,0,0,0,0,0,0,0,0,0,0,0,0,0,0,0,0,0,0,0,0,0,0,0,0,0,0,0,0,0,0,0,0,0,0,0,0,0,0,0,0,0,0,0,0,0,0,0,0,0,0,0,0,0,0,0,0,37,0,0,0,0,37,0,0,0,0,0,0,0,0,0,0,0,0,0,0,0,0,0,0,0,0,0,0,0,0,0,0,0,0,0,0,0,0,0,0,
0,0,0,0,0,0,0,0,0,0,0,0,0,0,0,0,0,0,0,0,0,0,0,0,0,0,0,0,0,0,0,0,0,0,0,0,0,0,0,0,0,0,0,0,0,0,0,0,0,0,0,0,0,0,0,0,0,0,0,0,0,0,0,0,0,0,0,0,0,0,0,0,0,0,0,0,0,0,0,0,0,0,0,0,0,0,0,0,0,0,0,0,0,0,0,0,0,0,0,0,
0,0,0,0,0,0,0,0,0,0,0,0,0,0,0,0,0,0,0,0,0,0,0,0,0,0,0,0,0,0,0,0,0,0,0,0,0,0,0,0,0,0,0,0,0,0,0,0,0,0,0,0,0,0,0,0,0,0,0,0,0,0,27,0,0,0,0,0,0,0,0,0,0,0,0,0,0,0,0,0,0,0,0,0,0,0,0,0,0,0,0,0,0,0,0,0,0,0,0,0,
0,0,0,0,0,0,0,0,0,0,0,0,0,0,0,0,0,0,0,0,0,0,0,0,0,0,0,0,0,0,0,0,0,0,0,0,0,0,0,0,0,0,0,0,0,0,0,0,0,0,0,0,0,0,0,0,0,0,0,0,0,0,0,0,0,0,0,0,0,0,0,0,0,0,0,0,0,0,0,0,0,0,0,0,0,0,0,0,0,0,0,0,0,0,0,0,0,0,0,0,
0,0,0,0,0,0,0,0,0,0,0,0,0,0,0,0,0,0,0,0,0,0,0,0,0,0,0,0,0,0,0,0,0,0,0,0,0,0,0,0,0,0,0,0,0,0,0,0,0,0,0,0,0,0,0,0,0,0,0,0,0,0,0,0,0,0,0,0,0,0,0,0,0,37,0,0,0,0,0,0,0,0,0,0,0,0,0,0,0,0,0,0,0,0,0,0,0,0,0,0,
0,0,0,0,0,0,0,0,0,0,0,0,0,0,0,0,0,0,0,0,0,0,0,0,0,0,0,0,0,0,0,0,0,0,0,0,0,0,0,0,0,0,0,0,0,0,0,0,0,0,0,0,0,0,0,0,0,0,0,0,0,0,0,0,0,0,0,0,0,0,0,0,0,0,0,0,0,0,0,0,0,0,0,0,0,0,0,0,0,0,0,0,0,0,0,0,0,0,0,0,
0,0,0,0,0,0,0,0,0,0,0,0,0,0,0,0,0,0,0,0,0,0,0,0,0,0,0,0,0,0,0,0,0,0,0,0,0,0,0,0,0,0,0,0,0,0,0,0,0,0,0,0,0,0,0,0,0,0,0,0,0,0,0,0,0,0,0,0,0,0,0,0,0,0,0,0,0,0,0,0,0,0,0,0,0,0,0,0,0,0,0,0,0,0,0,0,0,0,0,0,
0,0,0,0,0,0,0,0,0,0,0,0,0,0,0,0,0,0,0,0,0,0,0,0,0,0,0,0,0,0,0,0,0,0,0,0,0,0,0,0,0,0,0,0,0,0,0,0,0,0,0,0,0,0,0,0,0,0,0,0,0,0,0,0,0,0,0,0,0,0,0,0,0,0,0,0,0,0,0,0,0,0,0,0,0,0,0,0,0,0,0,0,0,0,0,0,0,0,0,0,
0,0,0,0,0,0,0,0,0,0,0,0,0,0,0,0,0,0,0,0,0,0,0,0,0,0,0,0,0,0,0,0,0,0,0,0,0,0,0,0,0,0,0,0,0,0,0,0,0,0,0,0,0,0,0,0,0,0,0,0,0,0,0,0,0,0,0,0,0,0,0,0,0,0,0,0,0,0,0,0,0,0,0,0,0,0,0,0,0,0,0,0,0,0,0,0,0,0,0,0,
0,0,0,0,0,0,0,0,0,0,0,0,0,0,0,0,0,0,0,0,0,0,0,0,0,0,0,0,0,0,0,0,0,0,0,0,0,0,0,0,0,0,0,0,0,0,0,0,0,0,0,0,0,0,0,0,0,0,0,0,0,0,0,0,0,0,0,0,0,0,0,0,0,0,0,0,0,0,0,0,0,0,0,0,0,0,0,0,0,0,0,0,0,0,0,0,0,0,0,0,
0,0,0,0,0,0,0,0,0,0,0,0,0,0,0,0,0,0,0,0,0,0,0,0,0,0,0,0,0,0,0,0,0,0,0,0,0,0,0,0,0,0,0,0,0,0,0,0,0,0,0,0,0,0,0,0,0,0,0,0,0,0,0,0,0,0,0,0,0,0,0,0,0,0,0,0,0,0,0,0,0,0,0,0,0,0,0,0,0,0,0,0,0,0,0,0,0,0,0,0,
0,0,0,0,0,0,0,0,0,0,0,0,0,0,0,0,0,0,0,0,0,0,0,0,0,0,0,0,0,0,0,0,0,0,0,0,0,0,0,0,0,0,0,0,0,0,0,0,0,0,0,0,0,0,0,0,0,0,0,0,0,0,0,0,0,0,0,0,0,0,0,0,0,0,0,0,0,0,0,0,0,0,0,0,0,0,0,0,0,0,0,0,0,0,0,0,0,0,0,0,
0,0,0,0,0,0,0,0,0,0,0,0,0,0,0,0,0,0,0,0,0,0,0,0,0,0,0,0,0,0,0,0,0,0,0,0,0,0,0,0,0,0,0,0,0,0,0,0,0,0,0,0,0,0,0,0,0,0,0,0,0,0,0,0,0,0,0,0,0,0,0,0,0,0,0,0,0,0,0,0,0,0,0,0,0,0,0,0,0,0,0,0,0,0,0,0,0,0,0,0,
0,0,0,0,0,0,0,0,0,0,0,0,0,0,0,0,0,0,0,0,0,0,0,0,0,0,0,0,0,0,0,0,0,0,0,0,0,0,0,0,0,0,0,0,0,0,0,0,0,0,0,0,0,0,0,0,0,0,0,0,0,0,0,0,0,0,0,0,0,0,0,0,0,0,0,0,0,0,0,0,0,0,0,0,0,0,0,0,0,0,0,0,0,0,0,0,0,0,0,0,
0,0,0,0,0,0,0,0,0,0,0,0,0,0,0,0,0,0,0,0,0,0,0,0,0,0,0,0,0,0,0,0,0,0,0,0,0,0,0,0,0,0,0,0,0,0,0,0,0,0,0,0,0,0,0,0,0,0,0,0,0,0,0,0,0,0,0,0,0,0,0,0,0,0,0,0,0,0,0,0,0,0,0,0,0,0,0,0,0,0,0,0,0,0,0,0,0,0,0,0,
0,0,0,0,0,0,0,0,0,0,0,0,0,0,0,0,0,0,0,0,0,0,0,0,0,0,0,0,0,0,0,0,0,0,0,0,0,0,0,0,0,0,0,0,0,0,0,0,0,0,0,0,0,0,0,0,0,0,0,0,0,0,0,0,0,0,0,0,0,0,0,0,0,0,0,0,0,0,0,0,0,0,0,0,0,0,0,0,0,0,0,0,0,0,0,0,0,0,0,0,
0,0,0,0,0,0,0,0,0,0,0,0,0,0,0,0,0,0,0,0,0,0,0,0,0,0,0,0,0,0,0,0,0,0,0,0,0,0,0,0,0,0,0,0,0,0,0,0,0,0,0,0,0,0,0,0,0,0,0,0,0,0,0,0,0,0,0,0,0,0,0,0,0,0,0,0,0,0,0,0,0,0,0,0,0,0,0,0,0,0,0,0,0,0,0,0,0,0,0,0,
0,0,0,0,0,0,0,0,0,0,0,0,0,0,0,0,0,0,0,0,0,0,0,0,0,0,0,0,0,0,0,0,0,0,0,0,0,0,0,0,0,0,0,0,0,0,0,0,0,0,0,0,0,0,0,0,0,0,0,0,0,0,0,0,0,0,0,0,0,0,0,0,0,0,0,0,0,0,0,0,0,0,0,0,0,0,0,0,0,0,0,0,0,0,0,0,0,0,0,0,
0,0,0,0,0,0,0,0,0,0,0,0,0,0,0,0,0,0,0,0,0,0,0,0,0,0,0,0,0,0,0,0,0,0,0,0,0,0,0,0,0,0,0,0,0,0,0,0,0,0,0,0,0,0,0,0,0,0,0,0,0,0,0,0,0,0,0,0,0,0,0,0,0,0,0,0,0,0,0,0,0,0,0,0,0,0,0,0,0,0,0,0,0,0,0,0,0,0,0,0,
0,0,0,0,0,0,0,0,0,0,0,0,0,0,0,0,0,0,0,0,0,0,0,0,0,0,0,0,0,0,0,0,0,0,0,0,0,0,0,0,0,0,0,0,0,0,0,0,0,0,0,0,0,0,0,0,0,0,0,0,0,0,0,0,0,0,0,0,0,0,0,0,0,0,0,0,0,0,0,0,0,0,0,0,0,0,0,0,0,0,0,0,0,0,0,0,0,0,0,0,
0,0,0,0,0,0,0,0,0,0,0,0,0,0,0,0,0,0,0,0,0,0,0,0,0,0,0,0,0,0,0,0,0,0,0,0,0,0,0,0,0,0,0,0,0,0,0,0,0,0,0,0,0,0,0,0,0,0,0,0,0,0,0,0,0,0,0,0,0,0,0,0,0,0,0,0,0,0,0,0,0,0,0,0,0,0,0,0,0,0,0,0,0,0,0,0,0,0,0,0,
0,0,0,0,0,0,0,0,0,0,0,0,0,0,0,0,0,0,0,0,0,0,0,0,0,0,0,0,0,0,0,0,0,0,0,0,0,0,0,0,0,0,0,0,0,0,0,0,0,0,0,0,0,0,0,0,0,0,0,0,0,0,0,0,0,0,0,0,0,0,0,0,0,0,0,0,0,0,0,0,0,0,0,0,0,0,0,0,0,0,0,0,0,0,0,0,0,0,0,0,
0,0,0,0,0,0,0,0,0,0,0,0,0,0,0,0,0,0,0,0,0,0,0,0,0,0,0,0,0,0,0,0,0,0,0,0,0,0,0,0,0,0,0,0,0,0,0,0,0,0,0,0,0,0,0,0,0,0,0,0,0,0,0,0,0,0,0,0,0,0,0,0,0,0,0,0,0,0,0,0,0,0,0,0,0,0,0,0,0,0,0,0,0,0,0,0,0,0,0,0,
0,0,0,0,0,0,0,0,0,0,0,0,0,0,0,0,0,0,0,0,0,0,0,0,0,0,0,0,0,0,0,0,0,0,0,0,0,0,0,0,0,0,0,0,0,0,0,0,0,0,0,0,0,0,0,0,0,0,0,0,0,0,0,0,0,0,0,0,0,0,0,0,0,0,0,0,0,0,0,0,0,0,0,0,0,0,0,0,0,0,0,0,0,0,0,0,0,0,0,0,
0,0,0,0,0,0,0,0,0,0,0,0,0,0,0,0,0,0,0,0,0,0,0,0,0,0,0,0,0,0,0,0,0,0,0,0,0,0,0,0,0,0,0,0,0,0,0,0,0,0,0,0,0,0,0,0,0,0,0,0,0,0,0,0,0,0,0,0,0,0,0,0,0,0,0,0,0,0,0,0,0,0,0,0,0,0,0,0,0,0,0,0,0,0,0,0,0,0,0,0,
0,0,0,0,0,0,0,0,0,0,0,0,0,0,0,0,0,0,0,0,0,0,0,0,0,0,0,0,0,0,0,0,0,0,0,0,0,0,0,0,0,0,0,0,0,0,0,0,0,0,0,0,0,0,0,0,0,0,0,0,0,0,0,0,0,0,0,0,0,0,0,0,0,0,0,0,0,0,0,0,0,0,0,0,0,0,0,0,0,0,0,0,0,0,0,0,0,0,0,0,
0,0,0,0,0,0,0,0,0,0,0,0,0,0,0,0,0,0,0,0,0,0,0,0,0,0,0,0,0,0,0,0,0,0,0,0,0,0,0,0,0,0,0,0,0,0,0,0,0,0,0,0,0,0,0,0,0,0,0,0,0,0,0,0,0,0,0,0,0,0,0,0,0,0,0,0,0,0,0,0,0,0,0,0,0,0,0,0,0,0,0,0,0,0,0,0,0,0,0,0,
0,0,0,0,0,0,0,0,0,0,0,0,0,0,0,0,0,0,0,0,0,0,0,0,0,0,0,0,0,0,0,0,0,0,0,0,0,0,0,0,0,0,0,0,0,0,0,0,0,0,0,0,0,0,0,0,0,0,0,0,0,0,0,0,0,0,0,0,0,0,0,0,0,0,0,0,0,0,0,0,0,0,0,0,0,0,0,0,0,0,0,0,0,0,0,0,0,0,0,0,
0,0,0,0,0,0,0,0,0,0,0,0,0,0,0,0,0,0,0,0,0,0,0,0,0,0,0,0,0,0,0,0,0,0,0,0,0,0,0,0,0,0,0,0,0,0,0,0,0,0,0,0,0,0,0,0,0,0,0,0,0,0,0,0,0,0,0,0,0,0,0,0,0,0,0,0,0,0,0,0,0,0,0,0,0,0,0,0,0,0,0,0,0,0,0,0,0,0,0,0,
0,0,0,0,0,0,0,0,0,0,0,0,0,0,0,0,0,0,0,0,0,0,0,0,0,0,0,0,0,0,0,0,0,0,0,0,0,0,0,0,0,0,0,0,0,0,0,0,0,0,0,0,0,0,0,0,0,0,0,0,0,0,0,0,0,0,0,0,0,0,0,0,0,0,0,0,0,0,0,0,0,0,0,0,0,0,0,0,0,0,0,0,0,0,0,0,0,0,0,0,
0,0,0,0,0,0,0,0,0,0,0,0,0,0,0,0,0,0,0,0,0,0,0,0,0,0,0,0,0,0,0,0,0,0,0,0,0,0,0,0,0,0,0,0,0,0,0,0,0,0,0,0,0,0,0,0,0,0,0,0,0,0,0,0,0,0,0,0,0,0,0,0,0,0,0,0,0,0,0,0,0,0,0,0,0,0,0,0,0,0,0,0,0,0,0,0,0,0,0,0,
0,0,0,0,0,0,0,0,0,0,0,0,0,0,0,0,0,0,0,0,0,0,0,0,0,0,0,0,0,0,0,0,0,0,0,0,0,0,0,0,0,0,0,0,0,0,0,0,0,0,0,0,0,0,0,0,0,0,0,0,0,0,0,0,0,0,0,0,0,0,0,0,0,0,0,0,0,0,0,0,0,0,0,0,0,0,0,0,0,0,0,0,0,0,0,0,0,0,0,0,
0,0,0,0,0,0,0,0,0,0,0,0,0,0,0,0,0,0,0,0,0,0,0,0,0,0,0,0,0,0,0,0,0,0,0,0,0,0,0,0,0,0,0,0,0,0,0,0,0,0,0,0,0,0,0,0,0,0,0,0,0,0,0,0,0,0,0,0,0,0,0,0,0,0,0,0,0,0,0,0,0,0,0,0,0,0,0,0,0,0,0,0,0,0,0,0,0,0,0,0,
0,0,0,0,0,0,0,0,0,0,0,0,0,0,0,0,0,0,0,0,0,0,0,0,0,0,0,0,0,0,0,0,0,0,0,0,0,0,0,0,0,0,0,0,0,0,0,0,0,0,0,0,0,0,0,0,0,0,0,0,0,0,0,0,0,0,0,0,0,0,0,0,0,0,0,0,0,0,0,0,0,0,0,0,0,0,0,0,0,0,0,0,0,0,0,0,0,0,0,0,
0,0,0,0,0,0,0,0,0,0,0,0,0,0,0,0,0,0,0,0,0,0,0,0,0,0,0,0,0,0,0,0,0,0,0,0,0,0,0,0,0,0,0,0,0,0,0,0,0,0,0,0,0,0,0,0,0,0,0,0,0,0,0,0,0,0,0,0,0,0,0,0,0,0,0,0,0,0,0,0,0,0,0,0,0,0,0,0,0,0,0,0,0,0,0,0,0,0,0,0
</data>
 </layer>
 <layer id="5" name="Front" width="100" height="75">
  <data encoding="csv">
0,75,76,77,0,0,0,0,0,0,0,0,0,2147488145,0,0,0,0,0,0,0,0,0,0,0,0,0,0,0,0,0,0,0,0,0,0,0,0,0,0,0,2147488156,6223,0,0,0,0,0,0,0,0,0,0,0,0,140,141,142,0,4380,4381,4382,4383,4384,4385,106,107,108,109,110,111,0,0,0,0,0,0,0,0,0,0,0,0,0,0,0,0,0,0,0,0,0,0,0,0,0,0,0,0,0,
0,100,101,102,0,0,0,0,0,0,0,0,0,0,0,0,0,0,0,0,0,0,0,0,0,0,0,0,0,0,0,0,0,0,0,0,0,0,0,0,0,2147488172,6255,0,0,0,0,0,0,0,0,0,0,0,0,0,166,78,79,80,4397,4398,4399,4400,4401,131,132,133,134,135,136,0,0,0,0,0,0,0,0,0,0,0,0,0,0,0,0,0,0,0,0,0,0,0,0,0,0,0,0,0,
0,125,126,127,0,0,0,0,0,0,0,0,0,0,0,0,0,0,0,0,0,0,0,0,0,0,0,0,0,0,0,0,0,0,0,0,0,0,0,0,0,0,0,0,0,0,0,0,0,0,4497,0,0,0,0,0,0,103,104,105,4413,0,0,0,0,156,157,158,159,160,161,0,0,0,0,0,0,0,0,0,0,0,0,0,0,0,0,0,0,0,0,0,0,0,0,0,0,0,0,0,
102,150,151,152,0,0,0,0,0,0,0,0,0,0,0,0,1062,0,0,0,0,0,0,0,0,0,0,0,0,0,0,0,0,0,0,0,0,0,0,0,0,0,0,0,0,0,0,0,0,0,0,4514,0,4224,0,0,0,0,0,0,6222,6223,0,0,0,0,0,0,0,0,0,0,0,0,0,0,0,0,0,0,0,0,0,0,0,0,0,0,0,0,0,0,0,0,0,0,0,108,109,110,
127,0,176,0,0,0,0,0,0,0,0,0,0,0,0,0,1112,0,0,0,0,0,0,0,0,0,0,0,0,0,0,0,0,0,0,0,0,0,0,0,0,0,0,0,0,0,0,0,0,0,0,4530,0,0,0,0,0,0,0,0,0,0,0,0,0,0,0,0,0,0,0,0,0,0,0,0,0,0,0,0,0,0,153,154,0,0,0,0,0,0,0,0,0,0,0,0,0,133,134,135,
152,0,0,0,0,0,153,154,1155,1156,0,0,0,0,0,0,0,0,0,0,0,0,0,0,0,0,0,0,0,0,0,0,0,0,0,0,0,0,0,0,0,0,153,154,0,0,0,0,0,0,0,0,0,0,0,0,0,0,0,0,0,0,0,0,0,0,0,0,0,0,0,0,0,0,0,0,0,0,0,0,0,0,0,0,0,0,0,0,0,0,0,0,0,0,0,0,0,158,159,160,
0,0,0,0,0,0,0,0,1180,1181,0,0,0,0,0,0,0,0,0,0,0,0,0,0,0,0,0,0,0,0,0,0,0,0,0,0,0,0,0,0,0,0,0,0,0,0,0,0,0,0,0,0,0,0,0,0,0,0,0,0,0,0,0,0,0,0,0,0,0,0,0,0,0,0,0,0,0,0,0,0,0,0,0,0,0,0,0,0,0,0,0,0,0,0,0,0,0,183,184,66,
0,0,0,0,153,154,0,0,0,0,0,0,0,153,154,0,0,0,0,78,79,80,0,0,0,0,0,0,0,0,0,0,0,0,0,0,0,0,0,0,0,0,0,0,0,0,0,0,0,0,0,0,0,0,0,0,0,0,0,0,0,0,0,0,0,0,0,0,4224,0,0,0,0,0,0,0,0,0,0,0,0,0,0,0,0,0,0,0,0,0,0,0,0,0,0,0,0,0,90,91,
0,0,0,0,423,474,425,1086,0,0,1086,423,424,425,79,80,0,0,0,103,104,105,0,0,0,0,0,0,0,0,0,0,153,154,0,0,0,0,0,0,0,0,0,0,0,0,0,0,0,0,0,0,0,0,0,0,0,0,0,0,0,0,0,0,0,0,0,0,0,0,0,0,0,0,0,0,0,0,0,0,0,0,0,0,0,0,0,0,0,0,0,0,0,0,0,0,0,0,115,116,
0,0,0,0,0,153,154,503,0,0,504,0,0,103,104,105,0,0,153,154,0,0,0,0,0,0,0,0,0,0,0,0,0,0,0,0,0,0,0,0,0,0,0,0,0,0,0,0,0,0,0,0,0,0,0,0,0,0,0,0,0,0,0,0,0,0,0,0,0,0,0,0,0,0,0,0,0,0,0,0,0,0,0,0,0,0,0,0,0,0,0,0,0,0,0,0,0,0,140,141,
176,76,77,0,0,0,0,0,0,0,0,0,0,0,0,0,0,0,0,0,0,0,0,0,0,0,0,0,0,0,0,0,0,0,0,0,0,0,0,0,0,0,0,0,0,0,0,0,0,0,0,0,0,0,0,0,0,0,0,0,0,0,0,0,0,0,0,0,0,0,0,0,0,0,0,0,0,0,0,0,0,0,0,0,0,0,0,0,0,0,0,0,0,0,0,0,0,69,70,0,
100,101,102,0,0,0,0,0,0,0,0,0,0,0,2147484734,0,0,0,0,0,0,0,0,0,0,0,0,0,0,0,0,0,0,0,0,0,0,0,0,0,0,0,0,0,0,0,0,0,0,0,0,0,0,0,0,0,0,0,0,0,0,0,0,0,0,0,0,0,0,0,0,0,0,0,0,0,0,0,0,0,0,0,0,0,0,0,0,0,0,0,0,0,0,0,0,0,0,94,95,79,
125,126,127,0,0,0,0,0,0,0,0,0,0,0,2147484759,0,0,0,0,1086,0,0,0,0,0,0,0,0,0,0,0,0,2147484734,0,0,0,0,0,0,0,0,0,0,0,0,0,0,0,0,0,0,0,0,0,0,0,0,0,0,0,0,0,0,0,0,0,0,0,0,0,0,0,0,0,0,0,0,0,0,0,0,0,0,0,0,0,0,0,0,0,0,0,0,0,0,0,0,119,120,0,
150,151,152,0,0,0,0,0,0,0,0,0,0,0,0,0,0,0,0,1111,0,0,0,0,0,0,0,0,0,0,0,0,0,0,0,0,1086,0,0,0,0,0,0,0,0,0,0,0,0,0,0,0,0,0,0,0,0,0,0,0,0,0,0,0,0,0,0,0,0,0,0,0,0,0,0,0,0,0,0,0,0,0,0,0,0,0,0,0,0,0,0,0,0,0,0,0,0,144,145,66,
102,176,0,0,0,0,0,0,0,0,0,0,0,0,0,0,0,0,0,0,0,0,0,0,0,0,0,0,0,0,0,0,0,0,0,0,0,0,0,0,0,0,0,0,0,0,0,0,0,0,0,0,0,0,0,0,0,0,0,0,0,0,0,0,0,0,0,0,0,0,0,0,0,0,0,0,0,0,0,0,0,0,0,0,0,0,0,0,0,0,0,0,0,0,0,0,0,0,90,91,
127,75,76,77,0,0,0,0,0,0,0,0,0,0,0,0,0,0,0,0,0,0,0,0,0,0,0,0,0,0,0,0,0,0,0,0,0,0,0,0,0,0,0,0,0,0,0,0,0,0,0,0,0,0,0,0,0,0,0,0,0,0,0,0,0,0,0,0,0,0,0,0,0,0,0,0,0,0,0,0,0,0,0,0,0,0,0,0,0,0,0,0,0,0,0,0,0,0,115,116,
152,100,101,102,0,0,0,0,0,0,0,0,153,154,0,0,0,0,0,0,0,0,0,0,0,0,0,0,0,0,0,0,0,0,0,0,0,0,0,0,0,0,0,0,0,0,0,0,0,0,0,0,0,0,0,0,0,0,0,0,0,0,0,0,0,0,0,0,0,0,0,0,0,0,0,0,0,0,0,0,0,0,0,0,0,0,0,0,0,0,0,0,0,0,0,0,0,0,140,141,
0,125,126,127,0,0,0,0,0,0,0,0,0,0,0,0,0,0,0,0,0,0,0,0,0,0,0,0,0,0,0,0,0,0,0,0,0,0,0,0,0,0,0,0,0,0,0,0,0,0,0,0,0,0,0,0,0,0,0,0,0,0,0,0,0,0,0,0,0,0,0,0,0,0,0,0,0,0,0,0,0,0,0,0,0,0,0,0,0,0,0,0,0,0,0,0,0,0,91,92,
0,79,80,152,0,0,0,0,0,0,0,0,0,0,0,0,0,0,0,0,0,0,0,0,0,0,0,0,0,0,0,0,0,0,0,0,0,0,0,0,0,0,0,0,0,0,0,0,0,0,0,0,0,0,0,0,0,0,0,0,0,0,0,0,0,0,0,0,0,0,0,0,0,0,0,0,0,0,0,0,0,0,0,0,0,0,0,0,0,0,0,0,0,0,0,0,0,0,116,117,
153,104,105,0,0,0,0,0,0,0,0,0,0,0,0,0,0,0,0,0,0,0,0,0,0,0,0,0,0,0,0,0,0,0,0,0,0,0,0,0,0,0,0,0,0,0,0,0,0,0,0,0,0,0,0,0,0,0,0,0,0,0,0,0,0,0,0,0,0,0,0,0,0,0,0,0,0,0,0,0,0,0,0,0,0,0,0,0,0,0,0,0,0,0,0,0,0,0,141,142,
76,77,0,0,0,0,0,0,0,0,0,0,0,0,0,0,0,0,0,0,0,0,0,0,0,0,0,0,0,0,0,0,0,0,0,0,0,0,0,0,0,0,0,0,0,0,0,0,0,0,0,0,0,0,0,0,0,0,0,0,0,0,0,0,0,0,0,0,0,0,0,0,0,0,0,0,0,0,0,0,0,0,0,0,0,0,0,0,0,0,0,0,0,0,0,0,0,0,68,69,
101,102,0,0,0,0,0,0,0,0,0,0,0,0,0,0,0,0,0,0,0,0,0,0,0,0,0,0,0,0,0,0,0,0,0,0,0,0,0,0,0,0,0,0,0,0,0,0,0,0,0,0,0,0,0,0,0,0,0,0,0,0,0,0,0,0,0,0,0,0,0,0,0,0,0,0,0,0,0,0,0,0,0,0,0,0,0,0,0,0,0,0,0,0,0,0,0,0,93,94,
126,127,0,0,0,0,0,0,0,0,0,0,0,0,0,0,0,0,0,0,0,0,0,0,0,0,0,0,0,0,0,0,0,0,0,0,0,0,0,0,0,0,0,0,0,0,0,0,0,0,0,0,0,0,0,0,0,0,0,0,0,0,0,0,0,0,0,0,0,0,0,0,0,0,0,0,0,0,0,0,0,0,0,0,0,0,0,0,0,0,0,0,0,0,0,0,0,0,118,119,
151,152,0,0,0,0,0,0,0,0,0,0,0,0,0,0,0,0,0,0,0,0,0,0,0,0,0,0,0,0,0,0,0,0,0,0,0,0,0,0,0,0,0,0,0,0,0,0,0,0,0,0,0,0,0,0,0,0,0,0,0,0,0,0,0,0,0,0,0,0,0,0,0,0,0,0,0,0,0,0,0,0,0,0,0,0,0,0,0,0,0,0,0,0,0,0,0,0,143,144,
176,0,0,0,0,0,0,0,0,0,0,0,0,0,0,0,0,0,0,0,0,0,0,0,0,0,0,0,0,0,0,0,0,0,0,0,0,0,0,0,0,0,0,0,0,0,0,0,0,0,0,0,0,0,0,0,0,0,0,0,0,0,0,0,0,0,0,0,0,0,0,0,0,0,0,0,0,0,0,0,0,0,0,0,0,0,0,0,0,0,0,0,0,0,0,0,0,0,4335,4336,
75,76,77,0,0,0,0,0,0,0,0,0,0,0,0,0,0,0,0,0,0,0,0,0,0,0,0,0,0,0,0,0,0,0,0,0,0,0,0,0,0,0,0,0,0,0,0,0,0,0,0,0,0,0,0,0,0,0,0,0,0,0,0,0,0,0,0,0,0,0,0,0,0,0,0,0,0,0,0,0,0,0,0,0,0,0,0,0,0,0,0,0,0,0,0,0,4349,4350,4351,4352,
100,101,102,0,0,0,0,0,0,0,0,0,0,0,0,0,0,0,0,0,0,0,0,0,0,0,0,0,0,0,0,0,0,0,0,0,0,0,0,0,0,0,0,0,0,0,0,0,0,0,0,0,0,0,0,0,1086,0,0,0,0,0,0,0,0,0,0,0,0,0,0,0,0,0,0,0,0,0,0,0,0,0,0,0,0,0,0,0,0,0,0,0,0,0,0,0,4365,4366,4367,4368,
125,126,127,0,0,0,0,0,0,0,0,0,0,0,0,0,0,0,0,0,0,0,0,0,0,0,0,0,0,0,0,0,0,0,0,0,0,0,0,0,0,0,0,0,0,0,0,0,0,0,0,0,0,0,0,0,0,0,0,0,0,0,0,0,0,0,0,0,0,0,0,0,0,0,0,0,0,0,0,0,0,0,0,0,0,0,0,0,0,0,0,0,0,0,0,0,4381,4382,4383,4384,
150,151,152,0,0,0,0,0,0,0,0,0,0,0,0,0,0,0,0,0,0,0,0,0,0,0,0,0,0,0,0,0,0,0,0,0,0,0,0,0,0,0,0,0,0,0,0,0,0,0,0,0,0,0,0,0,0,0,0,0,0,0,0,0,0,0,0,0,0,0,0,0,0,0,0,0,0,0,0,0,0,0,0,0,0,0,0,0,0,0,0,0,0,0,0,0,0,4398,4399,4400,
0,176,0,0,0,0,0,0,0,0,0,0,4224,0,0,0,0,0,0,0,0,0,0,0,0,0,0,0,0,0,0,0,0,0,0,0,0,0,0,0,0,0,0,0,0,0,0,0,0,0,0,0,0,0,0,0,0,0,0,0,0,0,0,0,0,0,0,0,0,0,0,0,0,0,0,0,0,0,0,0,0,0,0,0,0,0,0,0,0,0,0,0,0,0,0,0,0,0,0,0,
77,153,154,0,0,0,0,0,0,0,0,0,0,0,0,0,0,0,0,0,0,0,0,0,0,0,0,0,0,0,0,0,0,0,0,0,0,0,0,0,0,0,0,0,0,0,0,0,0,0,0,0,0,0,0,0,0,0,0,0,0,0,0,0,0,0,0,0,0,0,0,0,0,0,0,0,0,0,0,0,0,0,0,0,0,0,0,0,0,0,0,0,0,0,0,0,0,0,78,79,
102,0,0,0,0,0,0,0,0,0,0,0,0,0,0,0,0,0,0,0,0,0,0,0,0,0,0,0,0,0,0,0,0,0,0,0,0,0,0,0,0,0,0,0,0,0,0,0,0,0,0,0,0,0,0,0,0,0,0,0,0,0,0,0,0,0,0,0,0,0,0,0,0,0,0,0,0,0,0,0,0,0,0,0,0,0,0,0,0,0,0,0,0,0,0,0,0,0,103,104,
127,75,76,77,0,0,0,0,0,0,0,0,0,0,0,0,0,0,0,0,0,0,0,0,0,0,0,0,0,0,0,0,0,0,0,0,0,0,0,0,0,0,0,0,0,0,0,0,0,0,0,0,0,0,0,0,0,0,0,0,0,0,0,0,0,0,0,0,0,0,0,0,0,0,0,0,0,0,0,0,0,0,0,0,0,0,0,0,0,0,0,0,0,0,0,0,0,0,0,0,
152,100,101,102,0,0,0,0,0,0,0,0,0,0,0,0,0,0,0,0,0,0,0,0,0,0,0,0,0,0,0,0,0,0,0,0,0,0,0,0,0,0,0,0,0,0,6222,6223,0,0,0,0,0,0,0,0,0,0,0,0,0,0,0,0,0,0,0,0,0,0,0,0,0,0,0,0,0,0,0,0,0,0,0,0,0,0,0,0,0,0,0,0,0,0,0,0,0,0,0,0,
0,125,126,127,0,0,0,0,0,0,0,0,0,0,0,0,0,0,0,0,0,0,0,0,0,0,0,0,0,0,0,0,0,0,16560,16561,16562,16341,0,0,16536,16537,0,0,0,0,0,0,0,0,0,0,0,0,0,0,0,0,0,0,0,0,0,0,0,0,0,0,0,0,0,0,0,0,0,0,0,0,0,0,0,0,0,0,0,0,0,0,0,0,0,0,0,0,0,0,0,0,0,0,
0,150,151,152,0,0,0,0,0,0,0,0,0,0,0,0,0,0,0,0,0,0,0,0,0,0,0,0,0,0,0,0,0,0,0,0,0,16340,0,16560,16561,16562,0,16560,16561,16562,16341,0,0,16536,16537,0,0,0,0,0,0,0,0,0,0,0,0,0,0,0,0,0,16342,16341,0,0,0,0,0,0,0,0,0,0,0,0,0,0,0,0,0,0,0,0,0,0,0,0,0,0,0,0,0,0,
76,77,176,0,0,0,0,0,0,0,0,0,0,0,0,0,0,0,0,0,0,0,0,0,0,0,0,0,0,0,0,0,0,0,0,0,0,0,0,0,0,0,0,0,0,0,16340,0,16560,16561,16562,0,0,0,0,0,0,0,0,0,0,0,0,0,0,0,0,0,0,0,0,0,0,0,0,0,0,0,0,0,0,0,0,0,0,0,0,0,0,0,0,0,0,0,0,0,0,0,0,0,
101,102,0,0,0,0,0,0,0,0,0,0,0,0,0,0,0,0,0,0,0,0,0,0,0,0,0,0,0,0,0,0,0,0,0,0,0,0,0,0,0,0,0,0,0,0,0,0,0,0,0,0,0,0,0,0,0,0,0,0,0,0,0,0,0,0,0,0,0,0,0,0,16560,16561,16562,0,0,0,0,0,0,0,0,0,0,0,0,0,0,0,0,0,0,0,0,0,0,0,0,0,
126,127,0,0,0,0,0,0,0,0,0,0,0,0,0,0,0,0,0,0,0,0,0,0,0,0,0,0,0,0,0,0,0,0,16342,16560,16561,16562,0,0,0,0,0,0,0,0,0,0,0,0,0,6222,6223,0,0,0,0,0,0,0,0,0,0,0,6222,6223,0,0,0,0,0,0,0,0,0,0,0,0,0,0,0,0,0,0,0,0,0,0,0,0,0,0,0,0,0,0,0,0,0,0,
151,152,0,0,0,0,0,0,0,0,0,0,0,0,0,0,0,0,0,0,0,0,0,0,0,0,0,0,0,0,0,0,0,0,16343,0,0,0,16342,16341,0,0,0,16342,16560,16561,16562,0,0,0,0,0,0,0,0,0,0,0,0,0,0,0,0,0,0,0,0,0,0,0,0,0,0,0,0,0,0,0,0,0,0,0,0,0,0,0,0,0,0,0,0,0,0,0,0,0,0,0,0,0,
176,0,0,0,0,0,0,0,0,0,0,0,0,0,0,0,0,0,0,0,0,0,0,0,0,0,0,0,0,0,0,0,0,0,0,0,0,0,0,0,0,0,0,16343,0,0,0,16342,16341,0,0,16560,16561,16562,16341,0,0,0,0,0,0,0,6222,6223,0,0,0,16342,16341,0,0,0,0,0,0,0,0,0,0,0,0,0,0,0,0,0,0,0,0,0,0,0,0,0,0,0,0,0,0,0,
75,76,77,0,0,0,0,0,0,0,0,0,0,0,0,0,0,0,0,0,0,0,0,0,0,0,0,0,0,0,0,0,0,0,0,0,0,0,0,0,0,0,0,0,0,0,0,0,0,0,0,0,0,0,16342,0,0,0,0,16585,16586,16587,0,16343,16585,16586,16587,0,0,0,0,0,0,0,0,0,0,0,0,0,0,0,0,0,0,0,0,0,0,0,0,0,0,0,0,0,0,0,0,0,
100,101,102,0,0,0,0,0,0,0,0,0,0,0,0,0,0,0,0,0,0,0,0,0,0,0,0,0,0,0,0,0,0,0,0,0,0,0,0,0,0,0,0,0,0,0,0,0,0,0,0,0,0,0,0,0,0,0,0,0,0,0,0,0,0,0,0,0,0,0,0,0,0,0,0,0,16560,16561,16562,0,0,0,0,0,0,0,0,0,0,0,0,0,0,0,0,0,0,0,0,0,
125,126,127,0,0,0,0,0,0,0,0,0,0,0,0,0,0,0,0,0,0,0,0,0,0,0,0,0,0,0,0,0,0,0,0,0,0,0,0,0,0,0,0,0,0,0,0,0,0,0,0,0,0,0,0,0,0,0,0,0,0,0,0,0,0,0,0,0,0,0,0,0,0,0,0,0,0,0,0,0,0,0,0,0,0,0,0,0,0,0,0,0,0,0,0,0,0,0,0,0,
150,151,152,0,0,0,0,0,0,0,0,0,0,0,0,0,0,0,0,0,0,0,0,0,0,0,0,0,0,0,0,0,0,0,0,0,0,0,0,0,4223,0,0,0,0,0,0,0,0,0,0,0,0,0,0,0,0,0,0,0,0,0,0,0,0,0,0,0,0,0,0,0,16560,16561,16562,0,0,0,0,0,0,0,0,0,0,0,0,0,0,0,0,0,0,0,0,0,0,0,0,0,
80,176,0,0,0,0,0,0,0,0,0,0,0,0,0,0,0,0,0,0,0,0,0,0,0,0,0,0,0,0,0,0,0,0,0,0,0,0,0,0,0,0,0,356,0,0,0,0,0,0,0,0,0,0,0,0,0,0,0,0,0,0,0,0,0,0,0,0,0,0,0,0,16585,16586,16587,16342,16341,0,0,0,0,0,0,0,0,0,0,0,0,0,0,0,0,0,0,0,0,0,0,0,
105,0,0,0,0,0,0,0,0,0,0,0,0,0,0,0,0,0,0,0,0,0,0,0,0,0,0,0,0,0,0,0,0,0,0,0,0,0,0,0,0,0,0,506,0,0,0,0,0,0,0,0,0,0,0,0,16342,16341,0,0,0,0,0,0,0,16342,16341,0,0,0,0,0,0,0,0,0,0,0,0,0,0,0,0,0,0,0,0,0,0,0,0,0,0,0,0,0,0,0,140,141,
0,0,0,0,0,0,0,0,0,0,0,0,0,0,0,0,0,0,0,4610,0,0,0,0,0,0,4593,0,0,0,0,0,0,0,0,0,0,0,0,0,0,0,0,0,0,0,0,0,0,0,0,0,0,0,0,0,0,0,0,0,0,0,0,0,0,0,0,0,0,0,0,0,0,0,0,0,0,0,0,0,0,0,0,0,0,0,0,0,0,0,0,0,0,0,0,0,0,0,91,92,
0,0,0,0,0,0,0,0,0,0,0,0,0,0,0,0,0,0,0,4591,0,0,0,0,0,0,4588,0,0,0,0,0,0,0,0,0,0,0,0,0,0,0,0,0,0,0,0,356,0,0,0,0,359,0,0,0,0,0,0,0,0,0,0,0,4223,0,0,0,0,0,0,0,0,0,0,0,0,0,0,0,0,0,0,0,0,0,0,0,0,0,0,0,0,0,0,0,0,0,116,117,
0,0,0,0,0,0,0,0,0,0,0,0,0,0,0,0,0,0,0,0,0,0,0,0,0,0,0,0,0,0,0,0,0,0,0,0,0,0,0,0,0,0,0,0,0,0,0,506,0,0,0,0,509,0,0,0,16560,16561,16562,0,0,0,0,0,0,0,0,356,0,0,0,0,0,0,0,0,0,0,0,0,0,0,0,0,0,0,0,0,0,0,0,0,0,0,0,0,0,0,141,142,
0,0,0,0,0,0,0,0,0,0,0,0,0,0,0,0,0,4224,0,0,0,0,0,0,0,0,0,0,0,0,0,0,0,0,0,0,0,0,0,0,0,0,0,0,0,0,0,531,0,0,0,4224,534,0,0,0,0,0,0,0,0,0,0,0,0,0,0,506,0,0,0,0,0,0,0,0,0,0,0,0,0,0,0,0,0,0,0,0,0,0,0,0,0,0,0,0,0,0,68,69,
0,0,0,0,0,0,0,0,0,0,0,0,0,0,0,0,0,0,0,0,0,0,0,0,0,0,0,0,0,0,0,0,0,0,0,0,0,0,0,0,0,0,0,0,0,0,0,556,0,0,0,0,559,0,0,0,0,0,0,0,0,0,0,0,0,0,0,0,0,0,0,0,0,0,0,0,0,0,0,0,0,0,0,0,0,0,0,0,0,0,0,0,0,0,0,0,0,0,93,94,
0,0,0,0,0,0,0,0,0,0,0,0,0,0,0,0,0,0,508,0,0,0,0,0,0,0,0,0,0,0,0,0,0,0,0,0,0,0,0,0,0,0,0,4593,0,0,0,581,0,0,0,0,584,0,0,0,0,0,0,0,0,0,0,0,0,0,0,0,0,0,0,356,0,0,0,0,359,0,0,0,0,0,0,0,0,0,0,0,0,0,0,0,0,0,0,0,0,0,118,119,
0,0,0,0,0,0,0,0,0,0,0,0,0,0,4766,4765,4766,4771,2914,0,0,0,0,0,0,0,0,0,0,0,0,0,0,0,0,0,0,0,0,0,0,0,0,4588,0,0,0,1073746931,1882,3466,3467,1885,1073746930,0,0,0,0,0,0,0,0,0,0,0,0,0,0,0,0,0,0,506,0,0,0,0,509,0,0,0,0,0,0,0,0,0,0,0,0,0,0,0,0,0,0,0,0,0,143,144,
0,0,0,0,0,0,0,0,0,0,0,0,0,0,0,0,0,0,0,0,0,0,0,0,0,0,0,0,0,0,0,0,0,0,0,0,0,0,0,0,0,0,0,0,0,0,0,0,3221226081,3221226078,1073742430,1073742433,534,0,0,4223,0,0,0,0,0,0,0,0,0,0,0,0,0,0,0,531,0,0,0,4224,534,0,0,0,0,0,0,0,0,0,0,0,0,0,0,0,0,0,0,0,0,0,4335,4336,
0,0,0,0,0,0,0,0,0,0,0,0,0,0,0,0,0,0,0,0,0,0,0,0,0,0,0,0,0,0,0,0,0,0,0,0,0,0,0,0,0,0,0,0,0,0,0,556,0,0,0,0,559,0,0,0,0,0,0,0,0,0,0,0,0,0,0,0,0,0,0,556,0,0,0,0,559,0,0,0,0,0,0,0,0,0,0,0,0,0,0,0,0,0,0,0,4349,4350,4351,4352,
0,0,0,0,0,0,0,0,0,0,0,0,0,0,0,0,0,0,0,0,0,0,0,0,0,0,0,0,0,0,0,0,0,0,0,0,0,0,0,0,0,0,0,0,0,0,0,581,0,0,0,0,584,0,0,0,0,0,0,0,0,0,0,0,0,0,0,4593,0,0,0,581,0,0,0,0,584,0,0,0,0,0,0,0,0,0,0,0,0,0,0,0,0,0,0,456,4365,4366,4367,4368,
0,0,0,0,0,0,0,0,0,0,0,0,0,0,0,0,0,0,0,0,0,0,0,0,0,0,0,0,0,0,0,0,0,0,0,0,0,0,0,0,0,0,0,0,0,0,0,606,4716,0,0,4719,609,0,0,0,0,0,0,0,0,0,0,0,0,0,0,4588,0,0,0,1073746931,1882,3466,3467,1885,1073746930,0,0,0,0,0,0,0,0,0,0,0,0,0,0,0,0,0,0,481,4381,4382,4383,4384,
0,0,0,0,0,0,0,0,0,0,0,0,0,0,0,0,0,0,0,0,0,0,0,0,0,0,0,0,0,0,0,0,0,0,0,0,0,0,0,0,0,0,0,0,0,0,0,0,0,0,0,0,0,0,0,0,0,0,0,0,0,0,0,0,0,0,0,0,0,0,0,0,3221226081,3221226078,1073742430,1073742433,534,0,0,4223,0,4223,0,0,0,0,4223,0,0,0,0,0,0,0,0,456,0,4398,4399,4400,
0,0,0,0,0,0,0,0,0,0,0,0,0,0,0,0,0,0,0,0,0,0,0,0,0,0,0,0,0,0,0,0,0,0,0,0,0,0,0,0,0,0,0,0,0,0,0,3608,3609,3610,3611,3612,3613,0,0,0,0,0,0,0,0,0,0,0,0,0,0,0,0,0,0,556,0,0,0,0,559,0,0,0,0,0,0,0,0,0,0,0,0,0,0,0,0,0,0,0,0,0,0,0,
0,0,0,0,0,0,0,0,0,0,0,0,0,0,0,0,0,0,0,0,0,0,0,0,0,0,0,0,0,0,0,0,0,0,0,0,0,0,0,0,0,0,0,0,0,0,0,3644,3645,3646,3647,3648,3649,0,0,0,0,0,0,0,0,0,0,0,0,0,0,0,0,0,0,581,0,0,0,0,584,0,0,0,0,0,0,0,0,0,0,0,0,0,0,0,0,0,0,0,0,0,78,79,
0,0,0,0,0,0,0,0,0,0,0,0,0,0,0,0,0,0,0,0,0,0,0,0,0,0,0,0,0,0,0,0,0,0,0,0,0,0,0,0,0,0,0,0,0,0,0,3680,3681,3682,3683,3684,3685,0,0,0,0,0,0,0,0,0,0,0,0,0,0,0,0,0,0,606,4716,0,0,4719,609,0,0,0,0,0,0,0,0,0,0,0,0,0,0,0,0,0,0,0,0,0,103,104,
0,0,0,0,0,0,0,0,0,0,0,0,0,0,0,0,0,0,0,0,0,0,0,0,0,0,0,0,0,0,0,0,0,0,0,0,0,0,0,0,0,0,0,0,0,0,0,0,0,0,0,0,0,0,0,0,0,0,0,0,0,0,0,0,0,0,0,0,0,0,0,0,0,0,0,0,0,0,0,0,0,0,0,0,0,0,0,0,0,0,0,0,0,0,0,0,0,0,0,0,
0,0,0,0,0,0,0,0,0,0,0,0,0,0,0,0,0,0,0,0,0,0,0,0,0,0,0,0,0,0,0,0,0,0,0,0,0,0,0,0,0,0,0,0,0,0,0,0,0,0,0,0,0,0,0,0,0,0,0,0,0,0,0,0,0,0,0,0,0,0,0,3608,3609,3610,3611,3612,3613,0,0,0,0,0,0,0,0,0,0,0,0,0,0,0,0,0,0,0,0,0,0,0,
0,0,0,0,0,0,0,0,0,0,0,0,0,0,0,0,0,0,0,0,0,0,0,0,0,0,0,0,0,0,0,0,0,0,0,0,0,0,0,0,0,0,0,0,0,0,0,0,0,0,0,0,0,0,0,0,0,0,0,0,0,0,0,0,0,0,0,0,0,0,0,3644,3645,3646,3647,3648,3649,0,0,0,0,0,0,0,0,0,0,0,0,0,0,0,0,0,0,0,0,0,0,0,
0,0,0,0,0,0,0,0,0,0,0,0,0,0,0,0,0,0,0,0,0,0,0,0,0,0,0,0,0,0,0,0,0,0,0,0,0,0,0,0,0,0,0,0,0,0,0,0,0,0,0,0,0,0,0,0,0,0,0,0,0,0,0,0,0,0,0,0,0,0,0,3680,3681,3682,3683,3684,3685,0,0,0,0,0,0,0,0,0,0,0,0,0,0,0,0,0,0,0,0,0,0,0,
0,0,0,0,0,0,0,0,0,0,0,0,0,0,0,0,0,0,0,0,0,0,0,0,0,0,0,0,0,0,0,0,0,0,0,0,0,0,0,0,0,0,0,0,0,0,0,0,0,0,0,0,0,0,0,0,0,0,0,0,0,0,0,0,0,0,0,0,0,0,0,0,0,0,0,0,0,0,0,0,0,0,0,0,0,0,0,0,0,0,0,0,0,0,0,606,607,0,0,0,
0,0,0,0,0,0,0,0,0,0,0,0,0,0,0,0,0,0,0,0,0,0,0,0,0,0,0,0,0,0,0,0,0,0,0,0,0,0,0,0,0,0,0,0,0,0,0,0,0,0,0,0,0,0,0,0,0,0,0,0,0,0,0,0,0,0,0,0,0,0,0,0,0,0,0,0,0,0,0,0,0,0,0,0,0,0,0,0,0,0,0,0,0,0,0,0,0,4764,4765,4766,
0,0,0,0,0,0,0,0,0,0,0,0,0,0,0,0,0,0,0,0,0,0,0,0,0,0,0,0,0,0,0,0,0,0,0,0,0,0,0,0,0,0,0,0,0,0,0,0,0,0,0,0,0,0,0,0,0,0,0,0,0,0,0,0,0,0,0,0,0,0,0,0,0,0,0,0,0,0,0,0,0,0,0,0,0,0,0,0,0,0,0,0,0,0,0,0,0,0,0,0,
0,0,0,0,0,0,0,0,0,0,0,0,0,0,0,0,0,0,0,0,0,0,0,0,0,0,0,0,0,0,0,0,0,0,0,0,0,0,0,0,0,0,0,0,0,0,0,0,0,0,0,0,0,0,0,0,0,0,0,0,0,0,0,0,0,0,0,0,0,0,0,0,0,0,0,0,0,0,0,0,0,0,0,0,0,0,0,0,0,0,0,0,0,0,0,0,0,0,0,0,
0,0,0,0,0,0,0,0,0,0,0,0,0,0,0,0,0,0,0,0,0,0,0,0,0,0,0,0,0,0,0,0,0,0,0,0,0,0,0,0,0,0,0,0,0,0,0,0,0,0,0,0,0,0,0,0,0,0,0,0,0,0,0,0,0,0,0,0,0,0,0,0,0,0,0,0,0,0,0,0,0,0,0,0,0,0,0,0,0,0,0,0,0,0,0,0,0,0,0,0,
0,0,0,0,0,0,0,0,0,0,0,0,0,0,0,0,0,0,0,0,0,0,0,0,0,0,0,0,0,0,0,0,0,0,0,0,0,0,0,0,0,0,0,0,0,0,0,0,0,0,0,0,0,0,0,0,0,0,0,0,0,0,0,0,0,0,0,0,0,0,0,0,0,0,0,0,0,0,0,0,0,0,0,0,0,0,0,0,0,0,0,0,0,0,0,0,0,0,0,0,
0,0,0,0,0,0,0,0,0,0,0,0,0,0,0,0,0,0,0,0,0,0,0,0,0,0,0,0,0,0,0,0,0,0,0,0,0,0,0,0,0,0,0,0,0,0,0,0,0,0,0,0,0,0,0,0,0,0,0,0,0,0,0,0,0,0,0,0,0,0,0,0,0,0,0,0,0,0,0,0,0,0,0,0,0,0,0,0,0,0,0,0,0,0,0,0,0,0,0,0,
0,0,0,0,0,0,0,0,0,0,0,0,0,0,0,0,0,0,0,0,0,0,0,0,0,0,0,0,0,0,0,0,0,0,0,0,0,0,0,0,0,0,0,0,0,0,0,0,0,0,0,0,0,0,0,0,0,0,0,0,0,0,0,0,0,0,0,0,0,0,0,0,0,0,0,0,0,0,0,0,0,0,0,0,0,0,0,0,0,0,0,0,0,0,0,0,0,0,0,0,
0,0,0,0,0,0,0,0,0,0,0,0,0,0,0,0,0,0,0,0,0,0,0,0,0,0,0,0,0,0,0,0,0,0,0,0,0,0,0,0,0,0,0,0,0,0,0,0,0,0,0,0,0,0,0,0,0,0,0,0,0,0,0,0,0,0,0,0,0,0,0,0,0,0,0,0,0,0,0,0,0,0,0,0,0,0,0,0,0,0,0,0,0,0,0,0,0,0,0,0
</data>
 </layer>
 <layer id="23" name="Front2" width="100" height="75">
  <data encoding="csv">
0,0,0,0,0,0,0,0,0,0,0,0,0,0,0,0,0,0,0,0,0,0,0,0,0,0,0,0,0,0,0,0,0,0,0,0,0,0,0,0,0,0,0,0,0,0,0,0,0,0,0,0,0,0,0,0,0,0,0,0,0,0,0,0,0,4386,0,0,0,0,0,0,0,0,0,0,0,0,0,0,0,0,0,0,0,0,0,0,0,0,0,0,0,0,0,0,0,0,0,0,
0,0,0,0,0,0,0,0,0,0,0,0,0,0,0,0,0,0,0,0,0,0,0,0,0,0,0,0,0,0,0,0,0,0,0,0,0,0,0,0,0,0,0,0,0,0,0,0,0,0,0,0,0,0,0,0,0,0,0,0,0,0,0,0,0,4402,0,0,0,0,0,0,0,0,0,0,0,0,0,0,0,0,0,0,0,0,0,0,0,0,0,0,0,0,0,0,0,0,0,0,
0,0,0,0,0,0,0,0,0,0,0,0,0,0,0,0,0,0,0,0,0,0,0,0,0,0,0,0,0,0,0,0,0,0,0,0,0,0,0,0,0,0,0,0,0,0,0,0,0,0,0,0,0,0,0,0,0,0,0,0,0,0,0,0,0,0,0,0,0,0,0,0,0,0,0,0,0,0,0,0,0,0,0,0,0,0,0,0,0,0,0,0,0,0,0,0,0,0,0,0,
0,0,0,0,0,0,0,0,0,0,0,0,0,0,0,0,0,0,0,0,0,0,0,0,0,0,0,0,0,0,0,0,0,0,0,0,0,0,0,0,0,0,0,0,0,0,0,0,0,0,0,0,0,0,0,0,0,0,0,0,0,0,0,0,0,0,0,0,0,0,0,0,0,0,0,0,0,0,0,0,0,0,0,0,0,0,0,0,0,0,0,0,0,0,0,0,0,0,0,0,
0,0,0,0,0,0,0,0,0,0,0,0,0,0,0,0,0,0,0,0,0,0,0,0,0,0,0,0,0,0,0,0,0,0,0,0,0,0,0,0,0,0,0,0,0,0,0,0,0,0,0,0,0,0,0,0,0,0,0,0,0,0,0,0,0,0,0,0,0,0,0,0,0,0,0,0,0,0,0,0,0,0,0,0,0,0,0,0,0,0,0,0,0,0,0,0,0,0,0,0,
0,0,0,0,0,0,0,0,0,0,0,0,0,0,0,0,0,0,0,0,0,0,0,0,0,0,0,0,0,0,0,0,0,0,0,0,0,0,0,0,0,0,0,0,0,0,0,0,0,0,0,0,0,0,0,0,0,0,0,0,0,0,0,0,0,0,0,0,0,0,0,0,0,0,0,0,0,0,0,0,0,0,0,0,0,0,0,0,0,0,0,0,0,0,0,0,0,0,0,0,
0,0,0,0,0,0,0,0,0,0,0,0,0,0,0,0,0,0,0,0,0,0,0,0,0,0,0,0,0,0,0,0,0,0,0,0,0,0,0,0,0,0,0,0,0,0,0,0,0,0,0,0,0,0,0,0,0,0,0,0,0,0,0,0,0,0,0,0,0,0,0,0,0,0,0,0,0,0,0,0,0,0,0,0,0,0,0,0,0,0,0,0,0,0,0,0,0,0,65,66,
0,0,0,0,0,0,0,0,0,0,0,0,0,0,0,0,0,0,0,0,0,0,0,0,0,0,0,0,0,0,0,0,0,0,0,0,0,0,0,0,0,0,0,0,0,0,0,0,0,0,0,0,0,0,0,0,0,0,0,0,0,0,0,0,0,0,0,0,0,0,0,0,0,0,0,0,0,0,0,0,0,0,0,0,0,0,0,0,0,0,0,0,0,0,0,0,0,0,90,91,
0,0,0,0,0,0,0,0,0,0,0,0,0,0,0,0,0,0,0,0,0,0,0,0,0,0,0,0,0,0,0,0,0,0,0,0,0,0,0,0,0,0,0,0,0,0,0,0,0,0,0,0,0,0,0,0,0,0,0,0,0,0,0,0,0,0,0,0,0,0,0,0,0,0,0,0,0,0,0,0,0,0,0,0,0,0,0,0,0,0,0,0,0,0,0,0,0,0,115,116,
0,0,0,0,0,0,0,0,0,0,0,0,0,0,0,0,0,0,0,0,0,0,0,0,0,0,0,0,0,0,0,0,0,0,0,0,0,0,0,0,0,0,0,0,0,0,0,0,0,0,0,0,0,0,0,0,0,0,0,0,0,0,0,0,0,0,0,0,0,0,0,0,0,0,0,0,0,0,0,0,0,0,0,0,0,0,0,0,0,0,0,0,0,0,0,0,0,0,140,141,
75,76,0,0,0,0,0,0,0,0,0,0,0,0,0,0,0,0,0,0,0,0,0,0,0,0,0,0,0,0,0,0,0,0,0,0,0,0,0,0,0,0,0,0,0,0,0,0,0,0,0,0,0,0,0,0,0,0,0,0,0,0,0,0,0,0,0,0,0,0,0,0,0,0,0,0,0,0,0,0,0,0,0,0,0,0,0,0,0,0,0,0,0,0,0,0,0,0,0,0,
0,0,0,0,0,0,0,0,0,0,0,0,0,0,0,0,0,0,0,0,0,0,0,0,0,0,0,0,0,0,0,0,0,0,0,0,0,0,0,0,0,0,0,0,0,0,0,0,0,0,0,0,0,0,0,0,0,0,0,0,0,0,0,0,0,0,0,0,0,0,0,0,0,0,0,0,0,0,0,0,0,0,0,0,0,0,0,0,0,0,0,0,0,0,0,0,0,0,0,0,
0,0,0,0,0,0,0,0,0,0,0,0,0,0,0,0,0,0,0,0,0,0,0,0,0,0,0,0,0,0,0,0,0,0,0,0,0,0,0,0,0,0,0,0,0,0,0,0,0,0,0,0,0,0,0,0,0,0,0,0,0,0,0,0,0,0,0,0,0,0,0,0,0,0,0,0,0,0,0,0,0,0,0,0,0,0,0,0,0,0,0,0,0,0,0,0,0,0,0,0,
77,0,0,0,0,0,0,0,0,0,0,0,0,0,0,0,0,0,0,0,0,0,0,0,0,0,0,0,0,0,0,0,0,0,0,0,0,0,0,0,0,0,0,0,0,0,0,0,0,0,0,0,0,0,0,0,0,0,0,0,0,0,0,0,0,0,0,0,0,0,0,0,0,0,0,0,0,0,0,0,0,0,0,0,0,0,0,0,0,0,0,0,0,0,0,0,0,0,65,0,
0,0,0,0,0,0,0,0,0,0,0,0,0,0,0,0,0,0,0,0,0,0,0,0,0,0,0,0,0,0,0,0,0,0,0,0,0,0,0,0,0,0,0,0,0,0,0,0,0,0,0,0,0,0,0,0,0,0,0,0,0,0,0,0,0,0,0,0,0,0,0,0,0,0,0,0,0,0,0,0,0,0,0,0,0,0,0,0,0,0,0,0,0,0,0,0,0,0,0,0,
0,0,0,0,0,0,0,0,0,0,0,0,0,0,0,0,0,0,0,0,0,0,0,0,0,0,0,0,0,0,0,0,0,0,0,0,0,0,0,0,0,0,0,0,0,0,0,0,0,0,0,0,0,0,0,0,0,0,0,0,0,0,0,0,0,0,0,0,0,0,0,0,0,0,0,0,0,0,0,0,0,0,0,0,0,0,0,0,0,0,0,0,0,0,0,0,0,0,0,0,
0,0,0,0,0,0,0,0,0,0,0,0,0,0,0,0,0,0,0,0,0,0,0,0,0,0,0,0,0,0,0,0,0,0,0,0,0,0,0,0,0,0,0,0,0,0,0,0,0,0,0,0,0,0,0,0,0,0,0,0,0,0,0,0,0,0,0,0,0,0,0,0,0,0,0,0,0,0,0,0,0,0,0,0,0,0,0,0,0,0,0,0,0,0,0,0,0,0,66,67,
0,0,0,0,0,0,0,0,0,0,0,0,0,0,0,0,0,0,0,0,0,0,0,0,0,0,0,0,0,0,0,0,0,0,0,0,0,0,0,0,0,0,0,0,0,0,0,0,0,0,0,0,0,0,0,0,0,0,0,0,0,0,0,0,0,0,0,0,0,0,0,0,0,0,0,0,0,0,0,0,0,0,0,0,0,0,0,0,0,0,0,0,0,0,0,0,0,0,91,92,
0,0,0,0,0,0,0,0,0,0,0,0,0,0,0,0,0,0,0,0,0,0,0,0,0,0,0,0,0,0,0,0,0,0,0,0,0,0,0,0,0,0,0,0,0,0,0,0,0,0,0,0,0,0,0,0,0,0,0,0,0,0,0,0,0,0,0,0,0,0,0,0,0,0,0,0,0,0,0,0,0,0,0,0,0,0,0,0,0,0,0,0,0,0,0,0,0,0,116,117,
0,0,0,0,0,0,0,0,0,0,0,0,0,0,0,0,0,0,0,0,0,0,0,0,0,0,0,0,0,0,0,0,0,0,0,0,0,0,0,0,0,0,0,0,0,0,0,0,0,0,0,0,0,0,0,0,0,0,0,0,0,0,0,0,0,0,0,0,0,0,0,0,0,0,0,0,0,0,0,0,0,0,0,0,0,0,0,0,0,0,0,0,0,0,0,0,0,0,141,142,
0,0,0,0,0,0,0,0,0,0,0,0,0,0,0,0,0,0,0,0,0,0,0,0,0,0,0,0,0,0,0,0,0,0,0,0,0,0,0,0,0,0,0,0,0,0,0,0,0,0,0,0,0,0,0,0,0,0,0,0,0,0,0,0,0,0,0,0,0,0,0,0,0,0,0,0,0,0,0,0,0,0,0,0,0,0,0,0,0,0,0,0,0,0,0,0,0,0,0,0,
0,0,0,0,0,0,0,0,0,0,0,0,0,0,0,0,0,0,0,0,0,0,0,0,0,0,0,0,0,0,0,0,0,0,0,0,0,0,0,0,0,0,0,0,0,0,0,0,0,0,0,1011,1061,1005,1006,1007,1008,1007,1008,1011,1011,1010,1011,1011,1036,1080,1081,0,0,0,0,0,0,0,0,0,0,0,0,0,0,0,0,0,0,0,0,0,0,0,0,0,0,0,0,0,0,0,0,0,
0,0,0,0,0,0,0,0,0,0,0,0,0,0,0,0,0,0,0,0,0,0,0,0,0,0,0,0,0,0,0,0,0,0,0,0,0,0,0,0,0,0,0,0,0,0,0,0,0,0,0,1005,1006,1007,1006,1031,1033,1032,1034,1009,1010,1011,1011,1011,1011,1105,1106,1082,0,0,0,0,0,0,0,0,0,0,0,0,0,0,0,0,0,0,0,0,0,0,0,0,0,0,0,0,0,0,0,0,
0,0,0,0,0,0,0,0,0,0,0,0,0,0,0,0,0,0,0,0,0,0,0,0,0,0,0,0,0,0,0,0,0,0,0,0,0,0,0,0,0,0,0,0,0,0,0,0,0,0,0,1030,1031,1032,1033,1057,0,0,1058,1034,1035,1009,1010,1061,1011,1130,1055,1081,0,0,0,0,0,0,0,0,0,0,0,0,0,0,0,0,0,0,0,0,0,0,0,0,0,0,0,0,0,0,0,0,
0,0,0,0,0,0,0,0,0,0,0,0,0,0,0,0,0,0,0,0,0,0,0,0,0,0,0,0,0,0,0,0,0,0,0,0,0,0,0,0,0,0,0,0,0,0,0,0,0,0,0,1055,1056,0,0,0,0,0,0,0,1058,1034,1035,1009,1010,1011,1055,1056,0,0,0,0,0,0,0,0,0,0,0,0,0,0,0,0,0,0,0,0,0,0,0,0,0,0,0,0,0,0,0,0,
0,0,0,0,0,0,0,0,0,0,0,0,0,0,0,0,0,0,0,0,0,0,0,0,0,0,0,0,0,0,0,0,0,0,0,0,0,0,0,0,0,0,0,0,0,0,0,0,0,0,0,1080,1081,0,0,0,0,0,0,0,0,0,1058,1034,1035,1011,1080,1081,0,0,0,0,0,0,0,0,0,0,0,0,0,0,0,0,0,0,0,0,0,0,0,0,0,0,0,0,0,0,0,0,
0,0,0,0,0,0,0,0,0,0,0,0,0,0,0,0,0,0,0,0,0,0,0,0,0,0,0,0,0,0,0,0,0,0,0,0,0,0,0,0,0,0,0,0,0,0,0,0,0,0,1011,1055,1081,0,0,0,0,0,0,0,0,0,0,1058,1034,1011,1105,1106,1082,0,0,0,0,0,0,0,0,0,0,0,0,0,0,0,0,0,0,0,0,0,0,0,0,0,0,0,0,0,0,0,
0,0,0,0,0,0,0,0,0,0,0,0,0,0,0,0,0,0,0,0,0,0,0,0,0,0,0,0,0,0,0,0,0,0,0,0,0,0,0,0,0,0,0,0,0,0,0,0,0,0,1061,1055,1081,0,0,0,0,0,0,0,0,0,0,0,1059,1011,1130,1055,1081,0,0,0,0,0,0,0,0,0,0,0,0,0,0,0,0,0,0,0,0,0,0,0,0,0,0,0,0,0,0,0,
0,0,0,0,0,0,0,0,0,0,0,0,0,0,0,0,0,0,0,0,0,0,0,0,0,0,0,0,0,0,0,0,0,0,0,0,0,0,0,0,0,0,0,0,0,0,0,0,0,0,1011,1080,1106,0,0,0,0,0,0,0,0,0,0,0,1084,1005,1011,1055,1056,0,0,0,0,0,0,0,0,0,0,0,0,0,0,0,0,0,0,0,0,0,0,0,0,0,0,0,0,0,0,0,
0,0,0,0,0,0,0,0,0,0,0,0,0,0,0,0,0,0,0,0,0,0,0,0,0,0,0,0,0,0,0,0,0,0,0,0,0,0,0,0,0,0,0,0,0,0,0,1011,1011,1011,1011,1011,1055,1056,0,0,0,0,0,0,0,0,0,0,1059,1060,1011,1080,1081,0,0,0,0,0,0,0,0,0,0,0,0,0,0,0,0,0,0,0,0,0,0,0,0,0,0,0,0,0,0,0,
0,0,0,0,0,0,0,0,0,0,0,0,0,0,0,0,0,0,0,0,0,0,0,0,0,0,0,0,0,0,0,0,0,0,0,0,0,0,0,0,0,0,0,0,0,0,0,1011,1011,1061,1011,1011,1080,1106,1082,0,0,0,0,0,0,0,0,0,1084,1085,1011,1055,1056,0,0,0,0,0,0,0,0,0,0,0,0,0,0,0,0,0,0,0,0,0,0,0,0,0,0,0,0,0,0,0,
0,0,0,0,0,0,0,0,0,0,0,0,0,0,0,0,0,0,0,0,0,0,0,0,0,0,0,0,0,0,0,0,0,0,0,0,0,0,0,0,0,0,0,0,0,0,0,1061,1011,0,0,1011,1011,1080,1056,0,0,0,0,0,0,1083,1107,1108,1109,1110,1011,1080,1081,0,0,0,0,0,0,0,0,0,0,0,0,0,0,0,0,0,0,0,0,0,0,0,0,0,0,0,0,0,0,0,
0,0,0,0,0,0,0,0,0,0,0,0,0,0,0,0,0,0,0,0,0,0,0,0,0,0,0,0,0,0,0,0,0,0,0,0,0,0,0,0,0,0,0,0,0,0,0,0,0,0,0,1061,1011,1080,1081,0,0,0,0,0,1083,1109,1035,1133,1134,1135,1005,1006,1056,0,0,0,0,0,0,0,0,0,0,0,0,0,0,0,0,0,0,0,0,0,0,0,0,0,0,0,0,0,0,0,
0,0,0,0,0,0,0,0,0,0,0,0,0,0,0,0,0,0,0,0,0,0,0,0,0,0,0,0,0,0,0,0,0,0,0,0,0,0,0,0,0,0,0,0,0,0,0,0,0,0,0,1011,1011,1055,1056,0,0,0,0,0,1059,1035,1060,1011,1011,1011,0,0,0,0,0,0,0,0,0,0,0,0,0,0,0,0,0,0,0,0,0,0,0,0,0,0,0,0,0,0,0,0,0,0,
0,0,0,0,0,0,0,0,0,0,0,0,0,0,0,0,0,0,0,0,0,0,0,0,0,0,0,0,0,0,0,0,0,0,0,0,0,0,0,0,0,0,0,0,0,0,0,0,0,0,0,1011,1011,1080,1081,0,0,0,0,1083,1109,1060,1011,1011,1011,1011,0,0,0,0,0,0,0,0,0,0,0,0,0,0,0,0,0,0,0,0,0,0,0,0,0,0,0,0,0,0,0,0,0,0,
0,0,0,0,0,0,0,0,0,0,0,0,0,0,0,0,0,0,0,0,0,0,0,0,0,0,0,0,0,0,0,0,0,0,0,0,0,0,0,0,0,0,0,0,0,0,0,0,0,0,0,1011,1011,1105,1106,1108,1107,1108,1108,1109,1035,1011,1011,1061,1135,1011,0,0,0,0,0,0,0,0,0,0,0,0,0,0,0,0,0,0,0,0,0,0,0,0,0,0,0,0,0,0,0,0,0,0,
0,0,0,0,0,0,0,0,0,0,0,0,0,0,0,0,0,0,0,0,0,0,0,0,0,0,0,0,0,0,0,0,0,0,0,0,0,0,0,0,0,0,0,0,0,0,0,0,0,0,0,1011,1011,1130,1131,1132,1133,1132,1133,1134,1135,1011,1011,1011,1011,1011,0,0,0,0,0,0,0,0,0,0,0,0,0,0,0,0,0,0,0,0,0,0,0,0,0,0,0,0,0,0,0,0,0,0,
0,0,0,0,0,0,0,0,0,0,0,0,0,0,0,0,0,0,0,0,0,0,0,0,0,0,0,0,0,0,0,0,0,0,0,0,0,0,0,0,0,0,0,0,0,0,0,0,0,0,0,0,0,0,0,0,0,0,0,0,0,0,1030,1031,1057,0,0,0,0,0,0,0,0,0,0,0,0,0,0,0,0,0,0,0,0,0,0,0,0,0,0,0,0,0,0,0,0,0,0,0,
0,0,0,0,0,0,0,0,0,0,0,0,0,0,0,0,0,0,0,0,0,0,0,0,0,0,0,0,0,0,0,0,0,0,0,0,0,0,0,0,0,0,0,0,0,0,0,0,0,0,0,0,0,0,0,0,0,0,0,0,0,0,1055,1056,0,0,0,0,0,0,0,0,0,0,0,0,0,0,0,0,0,0,0,0,0,0,0,0,0,0,0,0,0,0,0,0,0,0,0,0,
0,0,0,0,0,0,0,0,0,0,0,0,0,0,0,0,0,0,0,0,0,0,0,0,0,0,0,0,0,0,0,0,0,0,0,0,0,0,0,0,0,0,0,0,0,0,0,0,0,0,0,0,0,0,0,0,0,0,0,0,0,0,1007,1081,16535,16536,16537,0,0,0,0,0,0,0,0,0,0,0,0,0,0,0,0,0,0,0,0,0,0,0,0,0,0,0,0,0,0,0,0,0,
0,0,0,0,0,0,0,0,0,0,0,0,0,0,0,0,0,0,0,0,0,0,0,0,0,0,0,0,0,0,0,0,0,0,0,0,0,0,0,0,0,0,0,0,0,0,0,0,0,0,0,0,0,0,0,0,0,0,0,16560,16561,16562,1032,1057,16560,16561,16562,0,0,0,0,0,0,0,0,0,0,0,0,0,0,0,0,0,0,0,0,0,0,0,0,0,0,0,0,0,0,0,0,0,
0,0,0,0,0,0,0,0,0,0,0,0,0,0,0,0,0,0,0,0,0,0,0,0,0,0,0,0,0,0,0,0,0,0,0,0,0,0,0,0,0,0,0,0,0,0,0,0,0,0,0,0,0,0,0,0,0,0,0,0,0,0,0,0,0,0,0,0,0,0,0,0,0,0,0,0,0,0,0,0,0,0,0,0,0,0,0,0,0,0,0,0,0,0,0,0,0,0,0,0,
0,0,0,0,0,0,0,0,0,0,0,0,0,0,0,0,0,0,0,0,0,0,0,0,0,0,0,0,0,0,0,0,0,0,0,0,0,0,0,0,0,0,0,0,0,0,0,0,0,0,0,0,0,0,0,0,0,0,0,0,0,0,0,0,0,0,0,0,0,0,0,0,0,0,0,0,0,0,0,0,0,0,0,0,0,0,0,0,0,0,0,0,0,0,0,0,0,0,0,0,
0,0,0,0,0,0,0,0,0,0,0,0,0,0,0,0,0,0,0,0,0,0,0,0,0,0,0,0,0,0,0,0,0,0,0,0,0,0,0,0,0,0,0,0,0,0,0,0,0,0,0,0,0,0,0,0,0,0,0,0,0,0,0,0,0,0,0,0,0,0,0,0,16535,16536,16537,0,0,0,0,0,0,0,0,0,0,0,0,0,0,0,0,0,0,0,0,0,0,0,0,0,
0,0,0,0,0,0,0,0,0,0,0,0,0,0,0,0,0,0,0,0,0,0,0,0,0,0,0,0,0,0,0,0,0,0,0,0,0,0,0,0,0,0,0,0,0,0,0,0,0,0,0,0,0,0,0,0,0,0,0,0,0,0,0,0,0,0,0,0,0,0,0,0,16560,16561,16562,0,0,0,0,0,0,0,0,0,0,0,0,0,0,0,0,0,0,0,0,0,0,0,0,0,
0,0,0,0,0,0,0,0,0,0,0,0,0,0,0,0,0,0,0,0,0,0,0,0,0,0,0,0,0,0,0,0,0,0,0,0,0,0,0,0,0,0,0,0,0,0,0,0,0,0,0,0,0,0,0,0,0,0,0,0,0,0,0,0,0,0,0,0,0,0,0,0,0,0,0,0,0,0,0,0,0,0,0,0,0,0,0,0,0,0,0,0,0,0,0,0,0,0,0,0,
0,0,0,0,0,0,0,0,0,0,0,0,0,0,0,0,0,0,0,0,0,0,0,0,0,0,0,0,0,0,0,0,0,0,0,0,0,0,0,0,0,0,0,0,0,0,0,0,0,0,0,0,0,0,0,0,0,0,0,0,0,0,0,0,0,0,0,0,0,0,0,0,0,0,0,0,0,0,0,0,0,0,0,0,0,0,0,0,0,0,0,0,0,0,0,0,0,0,66,67,
0,0,0,0,0,0,0,0,0,0,0,0,0,0,0,0,0,0,0,0,0,0,0,0,0,0,0,0,0,0,0,0,0,0,0,0,0,0,0,0,0,0,0,0,0,0,0,0,0,0,0,0,0,0,0,0,0,0,0,0,0,0,0,0,0,0,0,0,0,0,0,0,0,0,0,0,0,0,0,0,0,0,0,0,0,0,0,0,0,0,0,0,0,0,0,0,0,0,91,92,
0,0,0,0,0,0,0,0,0,0,0,0,0,0,0,0,0,0,0,0,0,0,0,0,0,0,0,0,0,0,0,0,0,0,0,0,0,0,0,0,0,0,0,0,0,0,0,0,0,0,0,0,0,0,0,0,0,0,0,0,0,0,0,0,0,0,0,0,0,0,0,0,0,0,0,0,0,0,0,0,0,0,0,0,0,0,0,0,0,0,0,0,0,0,0,0,0,0,116,117,
0,0,0,0,0,0,0,0,0,0,0,0,0,0,0,0,0,0,0,0,0,0,0,0,0,0,0,0,0,0,0,0,0,0,0,0,0,0,0,0,0,0,0,0,0,0,0,0,0,0,0,0,0,0,0,0,0,0,0,0,0,0,0,0,0,0,0,0,0,0,0,0,0,0,0,0,0,0,0,0,0,0,0,0,0,0,0,0,0,0,0,0,0,0,0,0,0,0,141,142,
0,0,0,0,0,0,0,0,0,0,0,0,0,0,0,0,0,0,0,0,0,0,0,0,0,0,0,0,0,0,0,0,0,0,0,0,0,0,0,0,0,0,0,0,0,0,0,0,0,0,0,0,0,0,0,0,0,0,0,0,0,0,0,0,0,0,0,0,0,0,0,0,0,0,0,0,0,0,0,0,0,0,0,0,0,0,0,0,0,0,0,0,0,0,0,0,0,0,0,0,
0,0,0,0,0,0,0,0,0,0,0,0,0,0,0,0,0,0,0,0,0,0,0,0,0,0,0,0,0,0,0,0,0,0,0,0,0,0,0,0,0,0,0,0,0,0,0,0,0,0,0,0,0,0,0,0,0,0,0,0,0,0,0,0,0,0,0,0,0,0,0,0,0,0,0,0,0,0,0,0,0,0,0,0,0,0,0,0,0,0,0,0,0,0,0,0,0,0,0,0,
0,0,0,0,0,0,0,0,0,0,0,0,0,0,0,0,0,0,0,0,0,0,0,0,0,0,0,0,0,0,0,0,0,0,0,0,0,0,0,0,0,0,0,0,0,0,0,0,0,0,0,0,0,0,0,0,0,0,0,0,0,0,0,0,0,0,0,0,0,0,0,0,0,0,0,0,0,0,0,0,0,0,0,0,0,0,0,0,0,0,0,0,0,0,0,0,0,0,0,0,
0,0,0,0,0,0,0,0,0,0,0,0,0,0,0,0,0,0,0,0,0,0,0,0,0,0,0,0,0,0,0,0,0,0,0,0,0,0,0,0,0,0,0,0,0,0,0,606,0,0,0,0,609,0,0,0,0,0,0,0,0,0,0,0,0,0,0,0,0,0,0,0,0,0,0,0,0,0,0,0,0,0,0,0,0,0,0,0,0,0,0,0,0,0,0,0,0,0,0,0,
0,0,0,0,0,0,0,0,0,0,0,0,0,0,0,0,0,0,0,0,0,0,0,0,0,0,0,0,0,0,0,0,0,0,0,0,0,0,0,0,0,0,0,0,0,0,0,0,3501,3502,3503,3504,0,0,0,0,0,0,0,0,0,0,0,0,0,0,0,0,0,0,0,0,0,0,0,0,0,0,0,0,0,0,0,0,0,0,0,0,0,0,0,0,0,0,0,0,0,0,0,0,
0,0,0,0,0,0,0,0,0,0,0,0,0,0,0,0,0,0,0,0,0,0,0,0,0,0,0,0,0,0,0,0,0,0,0,0,0,0,0,0,0,0,0,0,0,0,0,0,0,0,0,0,0,0,0,0,0,0,0,0,0,0,0,0,0,0,0,0,0,0,0,0,0,0,0,0,0,0,0,0,0,0,0,0,0,0,0,0,0,0,0,0,0,0,0,0,0,0,0,0,
0,0,0,0,0,0,0,0,0,0,0,0,0,0,0,0,0,0,0,0,0,0,0,0,0,0,0,0,0,0,0,0,0,0,0,0,0,0,0,0,0,0,0,0,0,0,0,0,0,0,0,0,0,0,0,0,0,0,0,0,0,0,0,0,0,0,0,0,0,0,0,0,0,0,0,0,0,0,0,0,0,0,0,0,0,0,0,0,0,0,0,0,0,0,0,0,0,0,0,0,
0,0,0,0,0,0,0,0,0,0,0,0,0,0,0,0,0,0,0,0,0,0,0,0,0,0,0,0,0,0,0,0,0,0,0,0,0,0,0,0,0,0,0,0,0,0,0,0,0,0,0,0,0,0,0,0,0,0,0,0,0,0,0,0,0,0,0,0,0,0,0,606,0,0,0,0,609,0,0,0,0,0,0,0,0,0,0,0,0,0,0,0,0,0,0,0,0,0,0,0,
0,0,0,0,0,0,0,0,0,0,0,0,0,0,0,0,0,0,0,0,0,0,0,0,0,0,0,0,0,0,0,0,0,0,0,0,0,0,0,0,0,0,0,0,0,0,0,0,0,0,0,0,0,0,0,0,0,0,0,0,0,0,0,0,0,0,0,0,0,0,0,0,3501,3502,3503,3504,0,0,0,0,0,0,0,0,0,0,0,0,0,0,0,0,0,0,0,0,0,0,0,0,
0,0,0,0,0,0,0,0,0,0,0,0,0,0,0,0,0,0,0,0,0,0,0,0,0,0,0,0,0,0,0,0,0,0,0,0,0,0,0,0,0,0,0,0,0,0,0,0,0,0,0,0,0,0,0,0,0,0,0,0,0,0,0,0,0,0,0,0,0,0,0,0,0,0,0,0,0,0,0,0,0,0,0,0,0,0,0,0,0,0,0,0,0,0,0,0,0,0,0,0,
0,0,0,0,0,0,0,0,0,0,0,0,0,0,0,0,0,0,0,0,0,0,0,0,0,0,0,0,0,0,0,0,0,0,0,0,0,0,0,0,0,0,0,0,0,0,0,0,0,0,0,0,0,0,0,0,0,0,0,0,0,0,0,0,0,0,0,0,0,0,0,0,0,0,0,0,0,0,0,0,0,0,0,0,0,0,0,0,0,0,0,0,0,0,0,0,0,0,0,0,
0,0,0,0,0,0,0,0,0,0,0,0,0,0,0,0,0,0,0,0,0,0,0,0,0,0,0,0,0,0,0,0,0,0,0,0,0,0,0,0,0,0,0,0,0,0,0,0,0,0,0,0,0,0,0,0,0,0,0,0,0,0,0,0,0,0,0,0,0,0,0,0,0,0,0,0,0,0,0,0,0,0,0,0,0,0,0,0,0,0,0,0,0,0,0,0,0,0,0,0,
0,0,0,0,0,0,0,0,0,0,0,0,0,0,0,0,0,0,0,0,0,0,0,0,0,0,0,0,0,0,0,0,0,0,0,0,0,0,0,0,0,0,0,0,0,0,0,0,0,0,0,0,0,0,0,0,0,0,0,0,0,0,0,0,0,0,0,0,0,0,0,0,0,0,0,0,0,0,0,0,0,0,0,0,0,0,0,0,0,0,0,0,0,0,0,0,0,0,0,0,
0,0,0,0,0,0,0,0,0,0,0,0,0,0,0,0,0,0,0,0,0,0,0,0,0,0,0,0,0,0,0,0,0,0,0,0,0,0,0,0,0,0,0,0,0,0,0,0,0,0,0,0,0,0,0,0,0,0,0,0,0,0,0,0,0,0,0,0,0,0,0,0,0,0,0,0,0,0,0,0,0,0,0,0,0,0,0,0,0,0,0,0,0,0,0,0,0,0,0,0,
0,0,0,0,0,0,0,0,0,0,0,0,0,0,0,0,0,0,0,0,0,0,0,0,0,0,0,0,0,0,0,0,0,0,0,0,0,0,0,0,0,0,0,0,0,0,0,0,0,0,0,0,0,0,0,0,0,0,0,0,0,0,0,0,0,0,0,0,0,0,0,0,0,0,0,0,0,0,0,0,0,0,0,0,0,0,0,0,0,0,0,0,0,0,0,0,0,0,0,0,
0,0,0,0,0,0,0,0,0,0,0,0,0,0,0,0,0,0,0,0,0,0,0,0,0,0,0,0,0,0,0,0,0,0,0,0,0,0,0,0,0,0,0,0,0,0,0,0,0,0,0,0,0,0,0,0,0,0,0,0,0,0,0,0,0,0,0,0,0,0,0,0,0,0,0,0,0,0,0,0,0,0,0,0,0,0,0,0,0,0,0,0,0,0,0,0,0,0,0,0,
0,0,0,0,0,0,0,0,0,0,0,0,0,0,0,0,0,0,0,0,0,0,0,0,0,0,0,0,0,0,0,0,0,0,0,0,0,0,0,0,0,0,0,0,0,0,0,0,0,0,0,0,0,0,0,0,0,0,0,0,0,0,0,0,0,0,0,0,0,0,0,0,0,0,0,0,0,0,0,0,0,0,0,0,0,0,0,0,0,0,0,0,0,0,0,0,0,0,0,0,
0,0,0,0,0,0,0,0,0,0,0,0,0,0,0,0,0,0,0,0,0,0,0,0,0,0,0,0,0,0,0,0,0,0,0,0,0,0,0,0,0,0,0,0,0,0,0,0,0,0,0,0,0,0,0,0,0,0,0,0,0,0,0,0,0,0,0,0,0,0,0,0,0,0,0,0,0,0,0,0,0,0,0,0,0,0,0,0,0,0,0,0,0,0,0,0,0,0,0,0,
0,0,0,0,0,0,0,0,0,0,0,0,0,0,0,0,0,0,0,0,0,0,0,0,0,0,0,0,0,0,0,0,0,0,0,0,0,0,0,0,0,0,0,0,0,0,0,0,0,0,0,0,0,0,0,0,0,0,0,0,0,0,0,0,0,0,0,0,0,0,0,0,0,0,0,0,0,0,0,0,0,0,0,0,0,0,0,0,0,0,0,0,0,0,0,0,0,0,0,0,
0,0,0,0,0,0,0,0,0,0,0,0,0,0,0,0,0,0,0,0,0,0,0,0,0,0,0,0,0,0,0,0,0,0,0,0,0,0,0,0,0,0,0,0,0,0,0,0,0,0,0,0,0,0,0,0,0,0,0,0,0,0,0,0,0,0,0,0,0,0,0,0,0,0,0,0,0,0,0,0,0,0,0,0,0,0,0,0,0,0,0,0,0,0,0,0,0,0,0,0,
0,0,0,0,0,0,0,0,0,0,0,0,0,0,0,0,0,0,0,0,0,0,0,0,0,0,0,0,0,0,0,0,0,0,0,0,0,0,0,0,0,0,0,0,0,0,0,0,0,0,0,0,0,0,0,0,0,0,0,0,0,0,0,0,0,0,0,0,0,0,0,0,0,0,0,0,0,0,0,0,0,0,0,0,0,0,0,0,0,0,0,0,0,0,0,0,0,0,0,0,
0,0,0,0,0,0,0,0,0,0,0,0,0,0,0,0,0,0,0,0,0,0,0,0,0,0,0,0,0,0,0,0,0,0,0,0,0,0,0,0,0,0,0,0,0,0,0,0,0,0,0,0,0,0,0,0,0,0,0,0,0,0,0,0,0,0,0,0,0,0,0,0,0,0,0,0,0,0,0,0,0,0,0,0,0,0,0,0,0,0,0,0,0,0,0,0,0,0,0,0,
0,0,0,0,0,0,0,0,0,0,0,0,0,0,0,0,0,0,0,0,0,0,0,0,0,0,0,0,0,0,0,0,0,0,0,0,0,0,0,0,0,0,0,0,0,0,0,0,0,0,0,0,0,0,0,0,0,0,0,0,0,0,0,0,0,0,0,0,0,0,0,0,0,0,0,0,0,0,0,0,0,0,0,0,0,0,0,0,0,0,0,0,0,0,0,0,0,0,0,0,
0,0,0,0,0,0,0,0,0,0,0,0,0,0,0,0,0,0,0,0,0,0,0,0,0,0,0,0,0,0,0,0,0,0,0,0,0,0,0,0,0,0,0,0,0,0,0,0,0,0,0,0,0,0,0,0,0,0,0,0,0,0,0,0,0,0,0,0,0,0,0,0,0,0,0,0,0,0,0,0,0,0,0,0,0,0,0,0,0,0,0,0,0,0,0,0,0,0,0,0,
0,0,0,0,0,0,0,0,0,0,0,0,0,0,0,0,0,0,0,0,0,0,0,0,0,0,0,0,0,0,0,0,0,0,0,0,0,0,0,0,0,0,0,0,0,0,0,0,0,0,0,0,0,0,0,0,0,0,0,0,0,0,0,0,0,0,0,0,0,0,0,0,0,0,0,0,0,0,0,0,0,0,0,0,0,0,0,0,0,0,0,0,0,0,0,0,0,0,0,0
</data>
 </layer>
 <layer id="6" name="AlwaysFront" width="100" height="75">
  <data encoding="csv">
1011,1061,1011,1130,1105,1106,1107,1108,1109,1110,1135,1011,1036,1011,1036,1005,1006,1007,1010,1061,1010,1011,1036,1005,1011,1036,1005,1011,1061,1011,1036,1011,1010,1061,1011,1005,1080,1081,0,0,1109,1110,1005,1011,1011,1005,1006,1006,1008,1008,1009,1010,1005,1006,1031,1057,0,0,0,0,0,0,0,0,0,0,0,0,0,0,0,0,1058,1058,1073742933,1035,1009,1010,1061,1130,1011,1130,1132,1133,1134,1135,1011,1011,1134,1135,1135,1135,1036,1011,1011,1011,1011,1011,1011,1130,
1011,1011,1130,1011,1130,1131,1132,1133,1134,1135,1011,1010,1011,1011,1005,1030,1031,1034,1035,1010,1011,1010,1061,1011,1005,1011,1036,1011,1005,1061,1011,1011,1011,1011,1010,1061,1105,1106,1108,1133,1134,1135,1011,1005,1006,1080,1031,1031,1032,1033,1034,1007,1006,1031,1057,0,0,0,0,0,0,0,0,0,0,0,0,0,0,0,0,0,0,0,1058,1032,1034,1035,1009,1010,1011,1011,1061,1011,1135,1011,1061,1011,1135,1135,1061,1011,1005,1011,1011,1010,1011,1011,1036,1011,
1036,1011,1011,1011,1005,1130,1011,1011,1010,1036,1011,1011,1011,1010,1011,1055,1056,1058,1034,1035,1010,1011,1005,1005,1006,1007,1008,1007,1008,1007,1008,1007,1009,1010,1011,1130,1130,1131,1133,1011,1135,1061,1011,1030,1031,1033,1057,1057,0,0,1058,1032,1033,1057,0,0,0,0,0,0,0,0,0,0,0,0,0,0,0,0,0,0,0,0,0,0,1058,1073742933,1035,1035,1011,1010,1011,1011,1011,1011,1011,1011,1036,1011,1005,1005,1006,1007,1008,1009,1010,1010,1011,1011,
1011,1011,1011,1061,1005,1006,1007,1008,1011,1005,1006,1007,1008,1009,1010,1080,1081,0,1058,1034,1085,1061,1011,1030,1031,1032,1033,1032,1033,1032,1033,1032,1034,1035,1010,1061,1011,1130,1011,1061,1011,1011,1005,1080,1056,0,0,0,0,0,0,0,0,0,0,0,0,0,0,0,0,0,0,0,0,0,0,0,0,0,0,0,0,0,0,0,0,1058,1034,1007,1009,1010,1011,1011,1036,1011,1011,1011,1011,1011,1011,1030,1031,1032,1033,1034,1035,1011,1011,1061,
1011,1011,1005,1011,1030,1031,1032,1034,1007,1006,1031,1032,1033,1034,1035,1105,1106,1107,1108,1109,1110,1005,1005,1006,1056,0,0,0,0,0,0,0,1058,1034,1035,1005,1006,1009,1010,1011,1011,1005,1030,1031,1057,0,0,0,0,0,0,0,0,0,0,0,0,0,0,0,0,0,0,0,0,0,0,0,0,0,0,0,0,0,0,0,0,0,1058,1032,1034,1035,1010,1011,1011,1011,1010,1011,1011,1011,1061,1080,1081,0,0,1058,1034,1035,1010,1011,
1061,1011,1011,1005,1006,1056,0,1058,1032,1033,1057,0,0,1059,1035,1130,1131,1132,1133,1134,1135,1005,1006,1031,1057,0,0,0,0,0,0,0,0,1059,1060,1030,1031,2147484679,1035,1011,1036,1011,1080,1081,0,0,0,0,0,0,0,0,0,0,0,0,0,0,0,0,0,0,0,0,0,0,0,0,0,0,0,0,0,0,0,0,0,0,0,0,1059,1007,1010,1011,1010,1011,1011,1011,1011,1011,1130,1105,1106,1082,0,156,1084,1085,1011,1011,
1011,1011,1036,1030,1031,1057,0,0,0,0,0,0,0,1058,1034,1035,1010,1036,1011,1005,1011,1030,1031,1057,0,0,0,0,0,0,0,0,0,1084,1085,1105,1610613767,1109,1011,1011,1130,1010,1005,1006,0,0,0,0,0,0,0,0,0,0,0,0,0,0,0,0,0,0,0,0,0,0,0,0,0,0,0,0,0,0,0,0,0,0,0,0,1058,1073742933,1035,1010,1011,1011,1061,1011,1011,1036,1011,1130,1130,1106,1107,1108,1109,1110,1135,1011,
1011,1011,1011,1055,1056,0,0,0,0,0,0,0,0,0,1059,1035,1009,1010,1005,1036,1005,1055,1056,0,0,0,0,0,0,0,0,0,0,1059,1060,1130,1131,1134,1010,1061,1010,1005,1007,1031,0,0,0,0,0,0,0,0,0,0,0,0,0,0,0,0,0,0,0,0,0,0,0,0,0,0,0,0,0,0,0,0,0,0,0,0,0,1058,1073742933,1007,1008,1007,1009,1010,1009,1010,1061,1130,1011,1130,1132,1133,1134,1135,1011,1011,
1061,1011,1130,1080,1081,0,0,0,0,0,0,0,0,78,1058,1033,1034,1035,1005,1006,1007,1080,1081,0,0,0,0,0,0,0,0,0,0,1058,1034,1035,1007,1008,1007,1009,1007,1007,1031,0,0,0,0,0,0,0,0,0,0,0,0,0,0,0,0,0,0,0,0,0,0,0,0,0,0,0,0,0,0,0,0,0,0,0,0,0,0,0,1058,1032,1033,1032,1034,1035,1034,1035,1009,1010,1011,1011,1061,1011,1135,1011,1061,1011,
1011,1011,1011,1105,1106,1108,1082,0,0,0,0,0,0,0,0,0,1058,1034,1007,1031,1032,1033,1057,0,0,0,0,0,0,0,0,0,0,0,0,1058,1032,1033,1032,1034,1033,1033,0,0,0,0,0,0,0,0,0,0,0,0,0,0,0,0,0,0,0,0,0,0,0,0,0,0,0,0,0,0,0,0,0,0,0,0,0,0,0,0,0,0,0,0,1058,1032,1058,1073742933,1035,1035,1011,1010,1011,1011,1011,1011,1011,1011,
1011,1011,1010,1130,1131,1105,1106,1082,0,0,0,0,0,0,0,0,0,1058,1032,1057,0,0,0,0,0,0,0,0,0,0,0,0,0,0,0,0,0,0,0,0,0,0,0,0,0,0,0,0,0,0,0,0,0,0,0,0,0,0,0,0,0,0,0,0,0,0,0,0,0,0,0,0,0,0,0,0,0,0,0,0,0,0,0,0,0,0,0,0,0,1058,1034,1007,1009,1010,1011,1011,1036,1011,1011,1011,
1005,1006,1009,1010,1036,1130,1080,1056,0,0,0,0,1083,1107,1108,1082,0,0,0,1083,1107,1108,1082,0,0,0,0,0,1083,1107,1108,1082,0,0,0,0,0,0,0,0,0,0,0,0,0,0,0,0,0,0,0,0,0,0,0,0,0,0,0,0,0,0,0,0,0,0,0,0,0,0,0,0,0,0,0,0,0,0,0,0,0,0,0,0,0,0,0,0,0,0,1058,1032,1034,1035,1010,1011,1011,1011,1010,1011,
1030,1031,2147484679,1035,1011,1005,1006,1081,0,0,0,0,1059,1035,1133,1106,1107,1108,1107,1109,1134,1133,1081,0,0,1083,1107,1108,1109,1133,1133,1106,1108,1107,1108,1082,0,0,0,0,0,0,0,0,0,0,0,0,0,0,0,0,0,0,0,0,0,0,0,0,0,0,0,0,0,0,0,0,0,0,0,0,0,0,0,0,0,0,0,0,0,0,0,0,0,0,0,0,0,0,0,0,1059,1007,1010,1011,1010,1011,1011,1011,
1105,1610613767,1109,1110,1130,1030,1031,1057,0,0,0,0,1084,1085,1061,1130,1132,1133,1132,1134,1135,1055,1056,0,1083,1109,1134,1132,1134,1135,1130,1132,1133,1132,1133,1106,1108,1107,1108,0,0,0,0,0,0,0,0,0,0,0,0,0,0,0,0,0,0,0,0,0,0,0,0,0,0,0,0,0,0,0,0,0,0,0,0,0,0,0,0,0,0,0,0,0,0,0,0,0,0,0,0,0,1058,1073742933,1035,1010,1011,1011,1061,1011,
1130,1131,1134,1135,1061,1055,1056,0,0,0,0,0,1084,1085,1010,1036,1061,1011,1011,1036,1005,1055,1056,0,1059,1134,1135,1130,1036,1011,1011,1130,1061,1130,1130,1132,1133,1132,1133,0,0,0,0,0,0,0,0,0,0,0,0,0,0,0,0,0,0,0,0,0,0,0,0,0,0,0,0,0,0,0,0,0,0,0,0,0,0,0,0,0,0,0,0,0,0,0,0,0,0,0,0,0,0,1058,1073742933,1007,1008,1007,1009,1010,
1061,1130,1011,1011,1005,1006,1081,0,0,0,0,0,1059,1060,1007,1009,1010,1005,1011,1005,1006,1080,1081,0,1084,1085,1010,1061,1011,1010,1061,1010,1011,1011,1036,1130,1036,1005,1080,1081,0,0,0,0,0,0,0,0,0,0,0,0,0,0,0,0,0,0,0,0,0,0,0,0,0,0,0,0,0,0,0,0,0,0,0,0,0,0,0,0,0,0,0,0,0,0,0,0,0,0,0,0,0,0,1058,1032,1033,1032,1034,1035,
1130,1135,1005,1006,1031,1031,1057,0,0,0,0,0,1058,1032,1034,1035,1010,1061,1010,1005,1006,1033,1057,0,1084,1035,1009,1010,1011,1011,1011,1011,1130,1011,1011,1130,1011,1030,1031,1057,0,0,0,0,0,0,0,0,0,0,0,0,0,0,0,0,0,0,0,0,0,0,0,0,0,0,0,0,0,0,0,0,0,0,0,0,0,0,0,0,0,0,0,0,0,0,0,0,0,0,0,0,0,0,0,0,0,65,1058,1032,
1011,1011,1030,1031,1058,0,0,0,0,0,0,0,0,0,1058,1034,1007,1009,1007,1007,1031,0,0,0,0,1033,1034,1035,1009,1010,1011,1011,1130,1010,1061,1010,1005,1080,1081,0,0,0,0,0,0,0,0,0,0,0,0,0,0,1083,1108,1108,1107,1108,1107,1108,1107,1108,1108,1082,0,0,0,0,0,0,0,0,0,0,0,0,0,0,0,0,0,0,0,0,0,0,0,0,0,0,0,0,0,0,0,0,0,90,91,92,
1010,1005,1055,1056,0,0,0,0,0,0,0,0,0,0,0,1058,1032,1034,1032,1033,0,0,0,0,0,0,0,1032,1034,1035,1010,1061,1010,1005,1006,1007,1006,1031,1057,0,0,0,0,0,0,0,0,0,0,0,0,0,1083,1109,1134,1134,1134,1134,1134,1133,1133,1133,1133,1106,1082,0,0,0,0,0,0,0,0,0,0,0,0,0,0,0,0,0,0,0,0,0,0,0,0,0,0,0,0,0,0,0,0,115,116,117,
1035,1007,1080,1081,0,0,0,0,0,0,0,0,0,0,0,0,0,0,0,0,0,0,0,0,0,0,0,0,1058,1034,1007,1009,1007,1007,1031,1032,1033,0,0,0,0,0,0,0,0,0,0,0,0,0,0,1083,1109,1134,1135,1135,1130,1135,1130,1011,1011,1130,1130,1080,1081,0,0,0,0,0,0,0,0,0,0,0,0,0,0,0,0,0,0,0,0,0,0,0,0,0,0,0,0,0,0,0,0,140,141,142,
1110,1011,1030,1031,0,0,0,0,0,0,0,0,0,0,0,0,0,0,0,0,0,0,0,0,0,0,0,0,0,1058,1032,1034,1032,1033,0,0,0,0,0,0,0,0,0,0,0,0,0,0,0,0,0,1109,1134,1135,1011,1011,1011,1011,1011,1036,1011,1011,1011,1105,1106,1082,0,0,0,0,0,0,0,0,0,0,0,0,0,0,0,0,0,0,0,0,0,0,0,0,0,0,0,0,0,0,0,0,0,0,
1135,1011,1080,1081,0,0,0,0,0,0,0,0,0,0,0,0,0,0,0,0,0,0,0,0,0,0,0,0,0,0,0,0,0,0,0,0,0,0,0,0,0,0,0,0,0,0,0,0,0,1059,1060,1134,1135,1011,1011,1135,27357,27358,27359,27360,27361,27362,27363,27364,27365,1080,1081,29780,29781,0,0,0,0,0,0,0,0,0,0,0,0,0,0,0,0,0,0,0,0,0,0,0,0,0,0,0,0,0,0,0,
1011,1130,1055,1056,0,0,0,0,0,0,0,0,0,0,0,0,0,0,0,0,0,0,0,0,0,0,0,0,0,0,0,0,0,0,0,0,0,0,0,0,0,0,0,0,0,0,0,0,0,1084,1085,27452,27453,27454,27455,27456,27457,27458,27459,27460,27461,27462,27463,27464,27465,1105,1106,1082,29881,0,0,0,0,0,0,0,0,0,0,0,0,0,0,0,0,0,0,0,0,0,0,0,0,0,0,0,0,0,0,0,
1061,1011,1105,1106,0,0,0,0,0,0,0,0,0,0,0,0,0,0,0,0,0,0,0,0,0,0,0,0,0,0,0,0,0,0,0,0,0,0,0,0,0,0,0,0,0,0,0,0,1083,1109,1110,27552,27553,27554,27555,27556,27557,27558,27559,27560,27561,27562,27563,27564,27565,1130,1055,1081,29981,0,0,0,0,0,0,0,0,0,0,0,0,0,0,0,0,0,0,0,0,0,0,0,0,0,0,0,0,0,0,0,
1011,2147484678,1105,1106,1082,0,0,0,0,0,0,0,0,0,0,0,0,0,0,0,0,0,0,0,0,0,0,0,0,0,0,0,0,0,0,0,0,0,0,0,0,0,0,0,0,0,0,0,1084,1085,1135,27652,27653,27654,27655,27656,27657,27658,27659,27660,27661,27662,27663,27664,27665,1011,1055,1056,30081,0,0,0,0,0,0,0,0,0,0,0,0,0,0,0,0,0,0,0,0,0,0,0,0,0,0,4332,4333,4334,4335,4336,
1011,2147484728,1130,1055,1056,0,0,0,0,0,0,0,0,0,0,0,0,0,0,0,0,0,0,0,0,0,0,0,0,0,0,0,0,0,0,0,0,0,0,0,0,0,0,0,0,0,0,1083,1109,1110,1011,27752,27753,27754,27755,27756,27757,27758,27759,27760,27761,27762,27763,27764,27765,1011,1080,1081,29780,29781,0,0,0,0,0,0,0,0,0,0,0,0,0,0,0,0,0,0,0,0,0,0,0,0,0,4348,4349,4350,4351,4352,
1036,2147484753,1036,1080,1081,0,0,0,0,0,0,0,0,0,0,0,0,0,0,0,0,0,0,0,0,0,0,0,0,1083,1107,1082,0,0,0,0,0,0,0,0,0,0,0,0,0,0,0,1084,1085,1011,1011,27852,27853,27854,27855,27856,27857,27858,27859,27860,27861,27862,27863,27864,27865,1011,1105,1106,1082,29881,0,0,0,0,0,0,0,0,0,0,0,0,0,0,0,0,0,0,0,0,0,0,0,0,0,4364,4365,4366,4367,4368,
1011,2147484778,1011,1055,1056,0,0,0,0,0,0,0,0,0,0,0,0,0,0,0,0,0,0,0,0,0,0,0,0,1084,1134,1106,1107,1108,1108,1082,0,0,0,0,0,0,0,0,0,0,1083,1109,1110,1010,1011,27952,27953,27954,27955,27956,27957,27958,27959,27960,27961,27962,27963,27964,27965,1011,1130,1055,1081,29981,0,0,0,0,0,0,0,0,0,0,0,0,0,0,0,0,0,0,0,0,0,0,0,0,0,4380,4381,4382,4383,4384,
2147484659,1061,1036,1055,1056,0,0,0,0,0,0,0,0,0,0,0,0,0,0,0,0,0,0,0,0,0,0,0,0,1059,1035,1131,1132,1133,1105,1106,1107,1108,1082,0,0,0,0,0,0,0,1084,1085,1135,1011,1011,28052,28053,28054,28055,28056,28057,28058,28059,28060,28061,28062,28063,28064,28065,1005,1011,1055,1056,30081,0,0,0,0,0,0,0,0,0,0,0,0,0,0,0,0,0,0,0,0,0,0,0,0,0,0,4397,4398,4399,4400,
2147484653,2147484653,1011,1080,1081,0,0,0,0,0,0,0,0,0,0,0,0,0,0,0,0,0,0,0,0,0,0,0,0,1058,1034,1007,1009,1010,1130,1131,1132,1105,1106,1107,1108,1108,1107,1108,1082,0,1109,1011,28353,1011,28353,1011,28153,28154,28155,28156,28157,28158,28159,28160,28161,28162,28163,28164,28165,1060,1011,1080,1081,30181,0,0,0,0,0,0,0,0,0,0,0,0,0,0,0,0,0,0,0,0,0,0,0,0,0,0,4413,0,0,0,
1011,1130,1105,1106,1056,0,0,0,0,0,0,0,0,0,0,0,0,0,0,0,0,0,0,0,0,0,0,0,0,0,1058,1032,1034,1035,1009,1010,1036,1130,1131,1132,1133,1133,1132,1105,1106,1107,1134,1011,28353,1011,1011,1011,28253,28254,28255,28256,28257,28258,28259,28260,28261,28262,28263,28264,28265,1085,1011,1055,1056,30281,0,0,0,0,0,0,0,0,0,0,0,0,0,0,0,0,0,0,0,0,0,0,0,0,0,0,0,0,0,0,
1010,1011,1130,1006,1081,0,0,0,0,0,0,0,0,0,0,0,0,0,0,0,0,0,0,0,0,0,0,0,0,0,0,0,1058,1033,1034,1035,1009,1010,1061,1011,1011,1011,1036,1130,1131,1132,1132,1011,1011,1135,1011,1011,28353,28354,28355,28356,28357,28358,28359,28360,28361,28362,28363,28364,28365,1110,1011,1080,1081,30381,0,0,0,0,0,0,0,0,0,0,0,0,0,0,0,0,0,0,0,0,0,0,0,0,0,0,0,0,0,0,
1035,1036,1130,1006,1056,0,0,0,0,0,0,0,0,0,0,0,0,0,0,0,0,0,0,0,0,0,0,0,0,0,0,0,2992,2993,1058,1033,1034,1007,1007,1007,1005,1006,1008,1008,1009,1010,1005,1006,1009,1010,1010,1011,1011,28454,28455,28456,28457,28458,28459,28460,28461,28462,28463,28464,28465,1135,1005,1006,1056,30481,0,0,0,0,0,0,0,0,0,0,0,0,0,0,0,0,0,0,0,0,0,0,0,0,0,0,0,0,0,0,
1110,1011,1030,1031,1081,0,0,0,0,0,0,0,0,0,0,0,0,0,0,0,0,0,0,0,0,0,0,0,0,0,0,0,0,0,1058,16536,16537,1032,1033,1033,1034,1035,1033,1033,1033,1032,1033,1032,1034,1035,1010,1011,1011,28554,28555,28556,28557,28558,28559,28560,28561,28562,28563,28564,1130,1036,1005,1080,1081,0,0,0,0,0,0,0,0,0,0,0,0,0,0,0,0,0,0,0,0,0,0,0,0,0,0,0,0,0,0,0,
1135,1011,1080,1081,1056,0,0,0,0,0,0,0,0,0,0,0,0,0,0,0,0,0,0,0,0,0,0,0,0,0,0,0,0,0,0,0,0,0,0,0,0,0,0,16535,16536,16537,0,0,1058,1034,1035,1011,1011,28654,28655,28656,28657,28658,28659,28660,28661,28662,28663,28664,1130,1011,1030,1031,1057,0,0,0,0,0,0,0,0,0,0,0,0,0,0,0,0,0,0,0,0,0,0,0,0,0,0,0,0,0,0,0,
1011,1130,1055,1056,0,0,0,0,0,0,0,0,0,0,0,0,0,0,0,0,0,0,0,0,0,0,0,0,0,0,0,0,0,0,0,0,0,0,0,0,0,0,0,0,0,0,0,0,16535,1059,1060,1011,1011,28754,28755,28756,28757,28758,28759,28760,28761,28762,28763,28764,1010,1005,1080,1081,0,0,0,0,0,0,0,0,0,0,0,0,0,0,0,0,0,0,0,0,0,0,0,0,0,0,0,0,0,0,0,0,
1061,1011,1105,1106,0,0,0,0,0,0,0,0,0,0,0,0,0,0,0,0,0,0,0,0,0,0,0,0,0,0,2992,2993,0,0,0,0,0,0,0,0,0,0,0,0,0,0,0,0,1058,1058,1034,1010,1005,28854,28855,28856,28857,28858,28859,28860,28861,28862,28863,1005,1080,1080,1031,1057,32124,32125,0,0,16535,16536,16537,0,0,0,0,0,0,0,0,0,0,0,0,0,0,0,0,0,0,0,0,0,0,0,0,0,
1011,2147484678,1105,1106,1082,0,0,0,0,0,0,0,0,0,0,0,0,0,0,0,0,0,0,0,0,0,0,0,0,0,0,0,0,0,0,16535,16536,16537,0,0,0,0,0,0,0,0,0,0,0,0,1058,1033,1034,1007,1009,1010,1036,1011,1011,1011,1011,1011,32218,1030,1031,1057,32222,32223,32224,32225,0,0,0,0,0,0,0,0,0,0,0,0,0,0,0,0,0,0,0,0,0,0,0,0,0,0,0,0,0,0,
1011,2147484728,1130,1055,1056,0,0,0,0,0,0,0,0,0,0,0,0,0,0,0,0,0,0,0,0,0,0,0,0,0,0,0,0,0,0,0,0,0,0,0,0,0,0,0,16535,16536,16537,0,0,0,0,0,1058,1032,1034,1035,1009,1010,1011,1061,1011,1005,32318,1080,1081,32321,32322,2992,2993,32325,0,0,0,0,0,0,0,0,0,0,0,0,0,0,0,0,0,0,0,0,0,0,0,0,0,0,0,0,0,0,
1036,2147484753,1036,1080,1081,0,0,0,0,0,0,0,0,0,0,0,0,0,0,0,0,0,0,0,0,0,0,0,0,0,0,0,0,0,0,0,0,0,0,0,0,0,0,0,0,0,0,0,0,0,0,16535,16536,16537,1084,1034,1035,1005,1005,1006,1007,1006,1080,1031,1057,32124,32422,32423,32424,32425,0,0,0,0,0,0,0,0,0,0,0,0,0,0,0,0,0,0,0,0,0,0,0,0,0,0,0,0,0,0,
1011,2147484778,1011,1055,1056,0,0,0,0,0,0,0,0,0,0,0,0,0,0,0,0,0,0,0,0,0,0,0,0,0,0,0,0,0,0,0,0,0,0,0,0,0,0,0,0,0,0,0,0,0,0,0,0,0,1058,1059,1007,1007,1007,32520,32521,32522,32518,32519,32520,32521,32522,32523,32524,32525,0,0,0,0,0,0,0,0,0,0,0,0,0,0,0,0,0,0,0,0,0,0,0,0,0,0,0,0,0,0,
2147484659,1061,1036,1055,1056,0,0,0,0,0,0,0,0,0,0,0,0,0,0,0,0,0,0,0,0,0,0,0,0,0,0,0,0,0,0,0,0,0,0,0,0,0,0,0,0,0,0,0,0,0,0,0,0,0,0,1058,1032,1033,1033,32620,32621,32622,32618,32619,32620,32621,32622,32623,32624,32625,0,0,0,0,0,0,16535,16536,16537,0,0,0,0,0,0,0,0,0,0,0,0,0,0,0,0,0,0,0,0,0,
2147484653,1135,1130,1080,1081,0,0,0,0,0,0,0,0,0,0,0,0,0,0,0,0,0,0,0,0,0,0,0,0,0,0,0,0,0,0,0,0,0,0,0,0,0,0,0,0,0,0,0,2829,2830,2831,0,0,0,0,0,0,0,0,32720,32721,32722,32718,32719,32720,32721,32722,32723,32724,32725,0,0,0,0,0,0,0,0,0,0,0,0,0,0,0,0,0,0,0,0,0,0,0,0,0,0,0,0,0,0,
2147484678,1011,1011,1055,1056,0,0,0,0,0,0,0,0,0,0,0,0,0,0,0,0,0,0,0,0,0,0,0,0,0,0,0,0,0,0,0,0,0,0,0,0,0,0,0,0,0,0,2860,2861,2862,2863,2864,2865,0,0,0,0,0,0,0,0,0,0,0,0,0,0,0,0,0,0,0,16535,16536,16537,0,0,0,0,0,0,0,0,0,0,0,0,0,0,0,0,0,0,0,0,0,0,0,0,0,
2147484728,1036,1005,1080,1081,0,0,0,0,0,0,0,0,0,0,0,0,0,0,0,0,0,0,0,0,0,0,0,0,0,0,0,0,0,0,0,0,0,0,0,0,0,0,0,2992,2993,0,2892,2893,2894,2895,2896,2897,0,0,0,0,0,0,0,0,0,0,0,0,0,0,0,0,0,0,0,32520,32521,32522,0,0,0,0,0,0,0,0,0,0,0,0,0,0,0,0,0,0,0,0,0,0,0,0,0,
1011,1011,1005,1080,1057,0,0,0,0,0,0,0,0,0,0,0,0,0,0,0,0,0,0,0,0,0,0,0,0,0,0,0,0,0,0,0,2992,2993,0,0,0,0,0,0,0,0,0,2924,2925,2926,2927,2928,2929,2992,2993,0,0,0,0,0,0,0,0,0,0,0,0,0,0,0,0,0,32620,32621,32622,0,0,0,0,0,0,0,0,0,0,0,0,0,0,0,0,0,0,0,0,0,0,0,0,0,
1005,1006,1006,1031,1081,0,0,0,0,0,0,0,0,0,0,0,0,0,0,0,0,0,0,0,0,0,0,0,0,0,0,0,0,0,0,0,0,0,0,0,0,0,0,0,0,0,0,2956,2957,2958,2959,2960,2961,0,0,0,0,0,0,0,0,0,0,0,0,0,0,0,0,0,0,0,32720,32721,32722,0,0,0,0,0,0,0,0,0,0,0,0,0,0,0,0,0,0,0,0,0,0,65,1058,1032,
1006,1031,1033,0,0,0,0,0,0,0,0,0,0,0,0,0,0,0,0,0,0,0,0,0,0,0,0,0,0,0,0,0,0,0,0,0,0,0,0,0,0,0,0,0,0,0,0,0,0,0,0,0,0,0,0,0,0,0,0,0,0,0,0,0,0,0,0,0,0,0,0,0,0,0,0,0,0,0,0,0,0,0,0,0,0,0,0,0,0,0,0,0,0,0,0,0,0,90,91,92,
1033,1057,0,0,0,0,0,0,0,0,0,0,0,0,0,0,0,0,0,0,0,0,0,0,0,0,0,0,0,0,0,0,0,0,0,0,0,0,0,0,0,0,0,0,0,0,0,0,0,0,0,0,0,0,0,0,16535,16536,16537,0,0,0,0,0,0,0,0,0,0,0,0,0,0,0,0,0,0,0,0,0,0,0,0,0,0,0,0,0,0,0,0,0,0,0,0,0,0,115,116,117,
0,0,0,0,0,0,0,0,0,0,0,0,0,0,0,0,0,0,0,0,0,0,0,0,0,0,0,0,0,0,0,0,0,0,0,0,0,0,0,0,0,0,0,0,0,0,0,0,0,0,0,0,0,0,0,0,0,0,0,0,0,0,0,0,0,0,0,0,0,0,0,0,0,0,0,0,0,0,0,0,0,0,0,0,0,0,0,0,0,0,0,0,0,0,0,0,0,140,141,142,
0,0,0,0,0,0,0,0,0,0,0,0,0,0,0,0,0,0,0,0,0,0,0,0,0,0,0,0,0,0,0,0,0,0,0,0,0,0,0,0,0,0,0,0,0,0,0,0,0,0,0,0,0,0,0,0,0,0,0,0,0,0,0,0,0,0,0,0,0,0,0,0,0,0,0,0,0,0,0,0,0,0,0,0,0,0,0,0,0,0,0,0,0,0,0,0,0,0,0,0,
0,0,0,0,0,0,0,0,0,0,0,0,0,0,0,0,0,0,0,0,0,0,0,0,0,0,0,0,0,0,0,0,0,0,0,0,0,0,0,0,0,0,0,0,0,0,0,0,0,0,0,0,0,0,0,0,0,0,0,0,0,0,0,0,0,0,0,0,0,0,0,0,0,0,0,0,0,0,0,0,0,0,0,0,0,0,0,0,0,0,0,0,0,0,0,0,0,0,0,0,
0,0,0,0,0,0,0,0,0,0,0,0,0,0,0,0,0,0,0,0,0,0,0,0,0,0,0,0,0,0,0,0,0,0,0,0,0,0,0,0,0,0,0,0,0,0,0,0,0,0,0,0,0,0,0,0,0,0,0,0,0,0,0,0,0,0,0,0,0,0,0,0,0,0,0,0,0,0,0,0,0,0,0,0,0,0,0,0,0,0,0,0,0,0,0,0,0,0,0,0,
0,0,0,0,0,0,0,0,0,0,0,0,0,0,0,0,0,0,0,0,0,0,0,0,0,0,0,0,0,0,0,0,0,0,0,0,0,0,0,0,0,0,0,0,0,0,0,0,0,0,0,0,0,0,0,0,0,0,0,0,0,0,0,0,0,0,0,0,0,0,0,0,0,0,0,0,0,0,0,0,0,0,0,0,0,0,0,0,0,0,0,0,0,0,0,0,0,0,0,0,
0,0,0,0,0,0,0,0,0,0,0,0,0,0,0,0,0,0,0,0,0,0,0,0,0,0,0,0,0,0,0,0,0,0,0,0,0,0,0,0,0,0,0,0,0,0,0,0,0,0,0,0,0,0,0,0,0,0,0,0,0,0,0,0,0,0,0,0,0,0,0,0,0,0,0,0,0,0,0,0,0,0,0,0,0,0,0,0,0,0,0,0,0,0,0,0,4333,4334,4335,4336,
0,0,0,0,0,0,0,0,0,0,0,0,0,0,0,0,0,0,0,0,0,0,0,0,0,0,0,0,0,0,0,0,0,0,0,0,0,0,0,0,0,0,0,0,0,0,0,0,3537,3538,3539,3540,0,0,0,0,0,0,0,0,0,0,0,0,0,0,0,0,0,0,0,0,0,0,0,0,0,0,0,0,0,0,0,0,0,0,0,0,0,0,0,0,0,0,0,4348,4349,4350,4351,4352,
0,0,0,0,0,0,0,0,0,0,0,0,0,0,0,0,0,0,0,0,0,0,0,0,0,0,0,0,0,0,0,0,0,0,0,0,0,0,0,0,0,0,0,0,0,0,0,0,3573,3574,3575,3576,0,0,0,0,0,0,0,0,0,0,0,0,0,0,0,0,0,0,0,0,0,0,0,0,0,0,0,0,0,0,0,0,0,0,0,0,0,0,0,0,0,0,0,4364,4365,4366,4367,4368,
0,0,0,0,0,0,0,0,0,0,0,0,0,0,0,0,0,0,0,0,0,0,0,0,0,0,0,0,0,0,0,0,0,0,0,0,0,0,0,0,0,0,0,0,0,0,0,0,3573,3574,3575,3576,0,0,0,0,0,0,0,0,0,0,0,0,0,0,0,0,0,0,0,0,0,0,0,0,0,0,0,0,0,0,0,0,0,0,0,0,0,0,0,0,0,0,0,4380,4381,4382,4383,4384,
0,0,0,0,0,0,0,0,0,0,0,0,0,0,0,0,0,0,0,0,0,0,0,0,0,0,0,0,0,0,0,0,0,0,0,0,0,0,0,0,0,0,0,0,0,0,0,0,3573,3574,3575,3576,0,0,0,0,0,0,0,0,0,0,0,0,0,0,0,0,0,0,0,0,0,0,0,0,0,0,0,0,0,0,0,0,0,0,0,0,0,0,0,0,0,0,0,0,4397,4398,4399,4400,
0,0,0,0,0,0,0,0,0,0,0,0,0,0,0,0,0,0,0,0,0,0,0,0,0,0,0,0,0,0,0,0,0,0,0,0,0,0,0,0,0,0,0,0,0,0,0,4142,4143,4144,4145,4146,4147,0,0,0,0,0,0,0,0,0,0,0,0,0,0,0,0,0,0,0,3537,3538,3539,3540,0,0,0,0,0,0,0,0,0,0,0,0,0,0,0,0,0,0,0,0,4413,0,0,0,
0,0,0,0,0,0,0,0,0,0,0,0,0,0,0,0,0,0,0,0,0,0,0,0,0,0,0,0,0,0,0,0,0,0,0,0,0,0,0,0,0,0,0,0,0,0,0,4178,4179,4180,4181,4182,4183,0,0,0,0,0,0,0,0,0,0,0,0,0,0,0,0,0,0,0,3573,3574,3575,3576,0,0,0,0,0,0,0,0,0,0,0,0,0,0,0,0,0,0,0,0,0,0,0,0,
0,0,0,0,0,0,0,0,0,0,0,0,0,0,0,0,0,0,0,0,0,0,0,0,0,0,0,0,0,0,0,0,0,0,0,0,0,0,0,0,0,0,0,0,0,0,0,4214,4215,4216,4217,4218,4219,0,0,0,0,0,0,0,0,0,0,0,0,0,0,0,0,0,0,0,3573,3574,3575,3576,0,0,0,0,0,0,0,0,0,0,0,0,0,0,0,0,0,0,0,0,0,0,0,0,
0,0,0,0,0,0,0,0,0,0,0,0,0,0,0,0,0,0,0,0,0,0,0,0,0,0,0,0,0,0,0,0,0,0,0,0,0,0,0,0,0,0,0,0,0,0,0,0,0,0,0,0,0,0,0,0,0,0,0,0,0,0,0,0,0,0,0,0,0,0,0,0,3573,3574,3575,3576,0,0,0,0,0,0,0,0,0,0,0,0,0,0,0,0,0,0,0,0,0,0,0,0,
0,0,0,0,0,0,0,0,0,0,0,0,0,0,0,0,0,0,0,0,0,0,0,0,0,0,0,0,0,0,0,0,0,0,0,0,0,0,0,0,0,0,0,0,0,0,0,0,0,0,0,0,0,0,0,0,0,0,0,0,0,0,0,0,0,0,0,0,0,0,0,4142,4143,4144,4145,4146,4147,0,0,0,0,0,0,0,0,0,0,0,0,0,0,0,0,0,0,0,0,0,0,0,
0,0,0,0,0,0,0,0,0,0,0,0,0,0,0,0,0,0,0,0,0,0,0,0,0,0,0,0,0,0,0,0,0,0,0,0,0,0,0,0,0,0,0,0,0,0,0,0,0,0,0,0,0,0,0,0,0,0,0,0,0,0,0,0,0,0,0,0,0,0,0,4178,4179,4180,4181,4182,4183,0,0,0,0,0,0,0,0,0,0,0,0,0,0,0,0,0,0,0,0,0,0,0,
0,0,0,0,0,0,0,0,0,0,0,0,0,0,0,0,0,0,0,0,0,0,0,0,0,0,0,0,0,0,0,0,0,0,0,0,0,0,0,0,0,0,0,0,0,0,0,0,0,0,0,0,0,0,0,0,0,0,0,0,0,0,0,0,0,0,0,0,0,0,0,4214,4215,4216,4217,4218,4219,0,0,0,0,0,0,0,0,0,0,0,0,0,0,0,0,0,0,0,0,0,0,0,
0,0,0,0,0,0,0,0,0,0,0,0,0,0,0,0,0,0,0,0,0,0,0,0,0,0,0,0,0,0,0,0,0,0,0,0,0,0,0,0,0,0,0,0,0,0,0,0,0,0,0,0,0,0,0,0,0,0,0,0,0,0,0,0,0,0,0,0,0,0,0,0,0,0,0,0,0,0,0,0,0,0,0,0,0,0,0,0,0,0,0,0,0,0,0,0,0,0,0,0,
0,0,0,0,0,0,0,0,0,0,0,0,0,0,0,0,0,0,0,0,0,0,0,0,0,0,0,0,0,0,0,0,0,0,0,0,0,0,0,0,0,0,0,0,0,0,0,0,0,0,0,0,0,0,0,0,0,0,0,0,0,0,0,0,0,0,0,0,0,0,0,0,0,0,0,0,0,0,0,0,0,0,0,0,0,0,0,0,0,0,0,0,0,0,0,0,0,0,0,0,
0,0,0,0,0,0,0,0,0,0,0,0,0,0,0,0,0,0,0,0,0,0,0,0,0,0,0,0,0,0,0,0,0,0,0,0,0,0,0,0,0,0,0,0,0,0,0,0,0,0,0,0,0,0,0,0,0,0,0,0,0,0,0,0,0,0,0,0,0,0,0,0,0,0,0,0,0,0,0,0,0,0,0,0,0,0,0,0,0,0,0,0,0,0,0,0,0,0,0,0,
0,0,0,0,0,0,0,0,0,0,0,0,0,0,0,0,0,0,0,0,0,0,0,0,0,0,0,0,0,0,0,0,0,0,0,0,0,0,0,0,0,0,0,0,0,0,0,0,0,0,0,0,0,0,0,0,0,0,0,0,0,0,0,0,0,0,0,0,0,0,0,0,0,0,0,0,0,0,0,0,0,0,0,0,0,0,0,0,0,0,0,0,0,0,0,0,0,0,0,0,
0,0,0,0,0,0,0,0,0,0,0,0,0,0,0,0,0,0,0,0,0,0,0,0,0,0,0,0,0,0,0,0,0,0,0,0,0,0,0,0,0,0,0,0,0,0,0,0,0,0,0,0,0,0,0,0,0,0,0,0,0,0,0,0,0,0,0,0,0,0,0,0,0,0,0,0,0,0,0,0,0,0,0,0,0,0,0,0,0,0,0,0,0,0,0,0,0,0,0,0,
0,0,0,0,0,0,0,0,0,0,0,0,0,0,0,0,0,0,0,0,0,0,0,0,0,0,0,0,0,0,0,0,0,0,0,0,0,0,0,0,0,0,0,0,0,0,0,0,0,0,0,0,0,0,0,0,0,0,0,0,0,0,0,0,0,0,0,0,0,0,0,0,0,0,0,0,0,0,0,0,0,0,0,0,0,0,0,0,0,0,0,0,0,0,0,0,0,0,0,0,
0,0,0,0,0,0,0,0,0,0,0,0,0,0,0,0,0,0,0,0,0,0,0,0,0,0,0,0,0,0,0,0,0,0,0,0,0,0,0,0,0,0,0,0,0,0,0,0,0,0,0,0,0,0,0,0,0,0,0,0,0,0,0,0,0,0,0,0,0,0,0,0,0,0,0,0,0,0,0,0,0,0,0,0,0,0,0,0,0,0,0,0,0,0,0,0,0,0,0,0,
0,0,0,0,0,0,0,0,0,0,0,0,0,0,0,0,0,0,0,0,0,0,0,0,0,0,0,0,0,0,0,0,0,0,0,0,0,0,0,0,0,0,0,0,0,0,0,0,0,0,0,0,0,0,0,0,0,0,0,0,0,0,0,0,0,0,0,0,0,0,0,0,0,0,0,0,0,0,0,0,0,0,0,0,0,0,0,0,0,0,0,0,0,0,0,0,0,0,0,0,
0,0,0,0,0,0,0,0,0,0,0,0,0,0,0,0,0,0,0,0,0,0,0,0,0,0,0,0,0,0,0,0,0,0,0,0,0,0,0,0,0,0,0,0,0,0,0,0,0,0,0,0,0,0,0,0,0,0,0,0,0,0,0,0,0,0,0,0,0,0,0,0,0,0,0,0,0,0,0,0,0,0,0,0,0,0,0,0,0,0,0,0,0,0,0,0,0,0,0,0
</data>
 </layer>
 <layer id="30" name="AlwaysFront2" width="100" height="75">
  <data encoding="csv">
0,0,0,0,0,0,0,0,0,0,0,0,0,0,0,0,0,0,0,0,0,0,0,0,0,0,0,0,0,0,0,0,0,0,0,0,0,0,0,0,0,0,0,0,0,0,0,0,0,0,0,0,0,0,0,0,0,0,0,0,0,0,0,0,0,0,0,0,0,0,0,0,0,0,0,0,0,0,0,0,0,0,0,0,0,0,0,0,0,0,0,0,0,0,0,0,0,0,0,0,
0,0,0,0,0,0,0,0,0,0,0,0,0,0,0,0,0,0,0,0,0,0,0,0,0,0,0,0,0,0,0,0,0,0,0,0,0,0,0,0,0,0,0,0,0,0,0,0,0,0,0,0,0,0,0,0,0,0,0,0,0,0,0,0,0,0,0,0,0,0,0,0,0,0,0,0,0,0,0,0,0,0,0,0,0,0,0,0,0,0,0,0,0,0,0,0,0,0,0,0,
0,0,0,0,0,0,0,0,0,0,0,0,0,0,0,0,0,0,0,0,0,0,0,0,0,0,0,0,0,0,0,0,0,0,0,0,0,0,0,0,0,0,0,0,0,0,0,0,0,0,0,0,0,0,0,0,0,0,0,0,0,0,0,0,0,0,0,0,0,0,0,0,0,0,0,0,0,0,0,0,0,0,0,0,0,0,0,0,0,0,0,0,0,0,0,0,0,0,0,0,
0,0,0,0,0,0,0,0,0,0,0,0,0,0,0,0,0,0,0,0,0,0,0,0,0,0,0,0,0,0,0,0,0,0,0,0,0,0,0,0,0,0,0,0,0,0,0,0,0,0,0,0,0,0,0,0,0,0,0,0,0,0,0,0,0,0,0,0,0,0,0,0,0,0,0,0,0,0,0,0,0,0,0,0,0,0,0,0,0,0,0,0,0,0,0,0,0,0,0,0,
0,0,0,0,0,0,0,0,0,0,0,0,0,0,0,0,0,0,0,0,0,0,0,0,0,0,0,0,0,0,0,0,0,0,0,0,0,0,0,0,0,0,0,0,0,0,0,0,0,0,0,0,0,0,0,0,0,0,0,0,0,0,0,0,0,0,0,0,0,0,0,0,0,0,0,0,0,0,0,0,0,0,0,0,0,0,0,0,0,0,0,0,0,0,0,0,0,0,0,0,
0,0,0,0,0,0,0,0,0,0,0,0,0,0,0,0,0,0,0,0,0,0,0,0,0,0,0,0,0,0,0,0,0,0,0,0,0,0,0,0,0,0,0,0,0,0,0,0,0,0,0,0,0,0,0,0,0,0,0,0,0,0,0,0,0,0,0,0,0,0,0,0,0,0,0,0,0,0,0,0,0,0,0,0,0,0,0,0,0,0,0,0,0,0,0,0,0,0,0,0,
0,0,0,0,0,0,0,0,0,0,0,0,0,0,0,0,0,0,0,0,0,0,0,0,0,0,0,0,0,0,0,0,0,0,0,0,0,0,0,0,0,0,0,0,0,0,0,0,0,0,0,0,0,0,0,0,0,0,0,0,0,0,0,0,0,0,0,0,0,0,0,0,0,0,0,0,0,0,0,0,0,0,0,0,0,0,0,0,0,0,0,0,0,0,0,0,0,0,0,0,
0,0,0,0,0,0,0,0,0,0,0,0,0,0,0,0,0,0,0,0,0,0,0,0,0,0,0,0,0,0,0,0,0,0,0,0,0,0,0,0,0,0,0,0,0,0,0,0,0,0,0,0,0,0,0,0,0,0,0,0,0,0,0,0,0,0,0,0,0,0,0,0,0,0,0,0,0,0,0,0,0,0,0,0,0,0,0,0,0,0,0,0,0,0,0,0,0,0,0,0,
0,0,0,0,0,0,0,0,0,0,0,0,0,0,0,0,0,0,0,0,0,0,0,0,0,0,0,0,0,0,0,0,0,0,0,0,0,0,0,0,0,0,0,0,0,0,0,0,0,0,0,0,0,0,0,0,0,0,0,0,0,0,0,0,0,0,0,0,0,0,0,0,0,0,0,0,0,0,0,0,0,0,0,0,0,0,0,0,0,0,0,0,0,0,0,0,0,0,0,0,
0,0,0,0,0,0,0,0,0,0,0,0,0,0,0,0,0,0,0,0,0,0,0,0,0,0,0,0,0,0,0,0,0,0,0,0,0,0,0,0,0,0,0,0,0,0,0,0,0,0,0,0,0,0,0,0,0,0,0,0,0,0,0,0,0,0,0,0,0,0,0,0,0,0,0,0,0,0,0,0,0,0,0,0,0,0,0,0,0,0,0,0,0,0,0,0,0,0,0,0,
0,0,0,0,0,0,0,0,0,0,0,0,0,0,0,0,0,0,0,0,0,0,0,0,0,0,0,0,0,0,0,0,0,0,0,0,0,0,0,0,0,0,0,0,0,0,0,0,0,0,0,0,0,0,0,0,0,0,0,0,0,0,0,0,0,0,0,0,0,0,0,0,0,0,0,0,0,0,0,0,0,0,0,0,0,0,0,0,0,0,0,0,0,0,0,0,0,0,0,0,
0,0,0,0,0,0,0,0,0,0,0,0,0,0,0,0,0,0,0,0,0,0,0,0,0,0,0,0,0,0,0,0,0,0,0,0,0,0,0,0,0,0,0,0,0,0,0,0,0,0,0,0,0,0,0,0,0,0,0,0,0,0,0,0,0,0,0,0,0,0,0,0,0,0,0,0,0,0,0,0,0,0,0,0,0,0,0,0,0,0,0,0,0,0,0,0,0,0,0,0,
0,0,0,0,0,0,0,0,0,0,0,0,0,0,0,0,0,0,0,0,0,0,0,0,0,0,0,0,0,0,0,0,0,0,0,0,0,0,0,0,0,0,0,0,0,0,0,0,0,0,0,0,0,0,0,0,0,0,0,0,0,0,0,0,0,0,0,0,0,0,0,0,0,0,0,0,0,0,0,0,0,0,0,0,0,0,0,0,0,0,0,0,0,0,0,0,0,0,0,0,
0,0,0,0,0,0,0,0,0,0,0,0,0,0,0,0,0,0,0,0,0,0,0,0,0,0,0,0,0,0,0,0,0,0,0,0,0,0,0,0,0,0,0,0,0,0,0,0,0,0,0,0,0,0,0,0,0,0,0,0,0,0,0,0,0,0,0,0,0,0,0,0,0,0,0,0,0,0,0,0,0,0,0,0,0,0,0,0,0,0,0,0,0,0,0,0,0,0,0,0,
0,0,0,0,0,0,0,0,0,0,0,0,0,0,0,0,0,0,0,0,0,0,0,0,0,0,0,0,0,0,0,0,0,0,0,0,0,0,0,0,0,0,0,0,0,0,0,0,0,0,0,0,0,0,0,0,0,0,0,0,0,0,0,0,0,0,0,0,0,0,0,0,0,0,0,0,0,0,0,0,0,0,0,0,0,0,0,0,0,0,0,0,0,0,0,0,0,0,0,0,
0,0,0,0,0,0,0,0,0,0,0,0,0,0,0,0,0,0,0,0,0,0,0,0,0,0,0,0,0,0,0,0,0,0,0,0,0,0,0,0,0,0,0,0,0,0,0,0,0,0,0,0,0,0,0,0,0,0,0,0,0,0,0,0,0,0,0,0,0,0,0,0,0,0,0,0,0,0,0,0,0,0,0,0,0,0,0,0,0,0,0,0,0,0,0,0,0,0,0,0,
0,0,0,0,0,0,0,0,0,0,0,0,0,0,0,0,0,0,0,0,0,0,0,0,0,0,0,0,0,0,0,0,0,0,0,0,0,0,0,0,0,0,0,0,0,0,0,0,0,0,0,29469,29470,29471,29472,29473,0,29472,29473,29474,29475,29476,29477,29478,29479,29480,0,0,0,0,0,0,0,0,0,0,0,0,0,0,0,0,0,0,0,0,0,0,0,0,0,0,0,0,0,0,0,0,0,0,
0,0,0,0,0,0,0,0,0,0,0,0,0,0,0,0,0,0,0,0,0,0,0,0,0,0,0,0,0,0,0,0,0,0,0,0,0,0,0,0,0,0,0,0,0,0,0,0,0,0,0,29569,29570,29571,29572,29572,29573,29572,29573,29574,29575,29576,29577,29578,29579,29580,0,0,0,0,0,0,0,0,0,0,0,0,0,0,0,0,0,0,0,0,0,0,0,0,0,0,0,0,0,0,0,0,0,0,
0,0,0,0,0,0,0,0,0,0,0,0,0,0,0,0,0,0,0,0,0,0,0,0,0,0,0,0,0,0,0,0,0,0,0,0,0,0,0,0,0,0,0,0,0,0,0,0,0,0,0,29669,29670,29671,29672,29672,29673,29672,29673,29674,29675,29676,29677,29678,29679,29680,0,0,0,0,0,0,0,0,0,0,0,0,0,0,0,0,0,0,0,0,0,0,0,0,0,0,0,0,0,0,0,0,0,0,
0,0,0,0,0,0,0,0,0,0,0,0,0,0,0,0,0,0,0,0,0,0,0,0,0,0,0,0,0,0,0,0,0,0,0,0,0,0,0,0,0,0,0,0,0,0,0,0,0,0,0,29769,29770,29771,29772,29772,29773,29772,29773,29774,29775,29776,29777,29778,29779,29780,0,0,0,0,0,0,0,0,0,0,0,0,0,0,0,0,0,0,0,0,0,0,0,0,0,0,0,0,0,0,0,0,0,0,
0,0,0,0,0,0,0,0,0,0,0,0,0,0,0,0,0,0,0,0,0,0,0,0,0,0,0,0,0,0,0,0,0,0,0,0,0,0,0,0,0,0,0,0,0,0,0,0,0,0,0,29869,29870,29871,29872,29872,29873,29872,29873,29874,29875,29876,29877,29878,29879,29880,0,0,0,0,0,0,0,0,0,0,0,0,0,0,0,0,0,0,0,0,0,0,0,0,0,0,0,0,0,0,0,0,0,0,
0,0,0,0,0,0,0,0,0,0,0,0,0,0,0,0,0,0,0,0,0,0,0,0,0,0,0,0,0,0,0,0,0,0,0,0,0,0,0,0,0,0,0,0,0,0,30553,30554,30555,30556,30557,29969,29970,29971,29972,29973,0,0,0,0,0,0,0,0,0,0,0,0,0,0,0,0,0,0,0,0,0,0,0,0,0,0,0,0,0,0,0,0,0,0,0,0,0,0,0,0,0,0,0,0,
0,0,0,0,0,0,0,0,0,0,0,0,0,0,0,0,0,0,0,0,0,0,0,0,0,0,0,0,0,0,0,0,0,0,0,0,0,0,0,0,0,0,0,0,0,0,30653,30654,30655,30656,30657,0,0,0,0,0,0,0,0,0,0,0,0,0,0,0,0,0,0,0,0,0,0,0,0,0,0,0,0,0,0,0,0,0,0,0,0,0,0,0,0,0,0,0,0,0,0,0,0,0,
0,0,0,0,0,0,0,0,0,0,0,0,0,0,0,0,0,0,0,0,0,0,0,0,0,0,0,0,0,0,0,0,0,0,0,0,0,0,0,0,0,0,0,0,0,0,30753,30754,30755,30756,30757,0,0,0,0,0,0,0,0,0,0,0,0,0,0,0,0,0,0,0,0,0,0,0,0,0,0,0,0,0,0,0,0,0,0,0,0,0,0,0,0,0,0,0,0,0,0,0,0,0,
0,0,0,0,0,0,0,0,0,0,0,0,0,0,0,0,0,0,0,0,0,0,0,0,0,0,0,0,0,0,0,0,0,0,0,0,0,0,0,0,0,0,0,0,0,0,30853,30854,30855,30856,30857,0,0,0,0,0,0,0,0,0,0,0,0,0,0,0,0,0,0,0,0,0,0,0,0,0,0,0,0,0,0,0,0,0,0,0,0,0,0,0,0,0,0,0,0,0,0,0,0,0,
0,0,0,0,0,0,0,0,0,0,0,0,0,0,0,0,0,0,0,0,0,0,0,0,0,0,0,0,0,0,0,0,0,0,0,0,0,0,0,0,0,0,0,0,0,0,30953,30954,30955,30956,30957,0,0,0,0,0,0,0,0,0,0,0,0,0,0,0,0,0,0,0,0,0,0,0,0,0,0,0,0,0,0,0,0,0,0,0,0,0,0,0,0,0,0,0,0,0,0,0,0,0,
0,0,0,0,0,0,0,0,0,0,0,0,0,0,0,0,0,0,0,0,0,0,0,0,0,0,0,0,0,0,0,0,0,0,0,0,0,0,0,0,0,0,0,0,0,0,31053,31054,31055,31056,31057,0,0,0,0,0,0,0,0,0,0,0,0,0,0,0,0,0,0,0,0,0,0,0,0,0,0,0,0,0,0,0,0,0,0,0,0,0,0,0,0,0,0,0,0,0,0,0,0,0,
0,0,0,0,0,0,0,0,0,0,0,0,0,0,0,0,0,0,0,0,0,0,0,0,0,0,0,0,0,0,0,0,0,0,0,0,0,0,0,0,0,0,0,0,0,0,31153,31154,31155,31156,31157,0,0,0,0,0,0,0,0,0,0,0,0,0,0,0,0,0,0,0,0,0,0,0,0,0,0,0,0,0,0,0,0,0,0,0,0,0,0,0,0,0,0,0,0,0,0,0,0,0,
0,0,0,0,0,0,0,0,0,0,0,0,0,0,0,0,0,0,0,0,0,0,0,0,0,0,0,0,0,0,0,0,0,0,0,0,0,0,0,0,0,0,0,0,0,0,31253,31254,31255,31256,31257,0,0,0,0,0,0,0,0,0,0,0,0,0,0,0,0,0,0,0,0,0,0,0,0,0,0,0,0,0,0,0,0,0,0,0,0,0,0,0,0,0,0,0,0,0,0,0,0,0,
0,0,0,0,0,0,0,0,0,0,0,0,0,0,0,0,0,0,0,0,0,0,0,0,0,0,0,0,0,0,0,0,0,0,0,0,0,0,0,0,0,0,0,0,0,0,31353,31354,31355,31356,31357,0,0,0,0,0,0,0,0,0,0,0,0,0,0,0,0,0,0,0,0,0,0,0,0,0,0,0,0,0,0,0,0,0,0,0,0,0,0,0,0,0,0,0,0,0,0,0,0,0,
0,0,0,0,0,0,0,0,0,0,0,0,0,0,0,0,0,0,0,0,0,0,0,0,0,0,0,0,0,0,0,0,0,0,0,0,0,0,0,0,0,0,0,0,0,0,31453,31454,31455,31456,31457,0,0,0,0,0,0,0,0,0,0,0,0,0,0,0,0,0,0,0,0,0,0,0,0,0,0,0,0,0,0,0,0,0,0,0,0,0,0,0,0,0,0,0,0,0,0,0,0,0,
0,0,0,0,0,0,0,0,0,0,0,0,0,0,0,0,0,0,0,0,0,0,0,0,0,0,0,0,0,0,0,0,0,0,0,0,0,0,0,0,0,0,0,0,0,0,0,0,0,0,0,0,0,0,0,0,0,0,0,0,0,0,0,0,0,0,0,0,0,0,0,0,0,0,0,0,0,0,0,0,0,0,0,0,0,0,0,0,0,0,0,0,0,0,0,0,0,0,0,0,
0,0,0,0,0,0,0,0,0,0,0,0,0,0,0,0,0,0,0,0,0,0,0,0,0,0,0,0,0,0,0,0,0,0,0,0,0,0,0,0,0,0,0,0,0,0,0,0,0,0,0,0,0,0,0,0,0,0,0,0,0,0,0,0,0,0,0,0,0,0,0,0,0,0,0,0,0,0,0,0,0,0,0,0,0,0,0,0,0,0,0,0,0,0,0,0,0,0,0,0,
0,0,0,0,0,0,0,0,0,0,0,0,0,0,0,0,0,0,0,0,0,0,0,0,0,0,0,0,0,0,0,0,0,31930,31931,31932,31933,31934,31935,31936,31937,31938,31830,31831,31832,31833,31834,31835,31836,31837,31838,31839,31840,31841,31842,31843,0,0,0,0,0,0,0,0,0,0,0,0,0,0,0,0,0,0,0,0,0,0,0,0,0,0,0,0,0,0,0,0,0,0,0,0,0,0,0,0,0,0,0,0,
0,0,0,0,0,0,0,0,0,0,0,0,0,0,0,0,0,0,0,0,0,0,0,0,0,0,0,0,0,0,0,0,0,32030,32031,32032,32033,32034,32035,32036,32037,32038,31930,31931,31932,31933,31934,31935,31936,31937,31938,31939,31940,31941,31942,31943,0,0,0,0,0,0,0,0,0,0,0,0,0,0,0,0,0,0,0,0,0,0,0,0,0,0,0,0,0,0,0,0,0,0,0,0,0,0,0,0,0,0,0,0,
0,0,0,0,0,0,0,0,0,0,0,0,0,0,0,0,0,0,0,0,0,0,0,0,0,0,0,0,0,0,0,0,0,32130,32131,32132,32133,32134,32135,32136,32137,32138,32030,32031,32032,32033,32034,32035,32036,32037,32038,32039,32040,32041,32042,32043,0,0,0,0,0,0,0,0,0,0,0,0,0,0,0,0,0,0,0,0,0,0,0,0,0,0,0,0,0,0,0,0,0,0,0,0,0,0,0,0,0,0,0,0,
0,0,0,0,0,0,0,0,0,0,0,0,0,0,0,0,0,0,0,0,0,0,0,0,0,0,0,0,0,0,0,0,0,32230,32231,32232,32233,32234,32235,32236,32237,32238,32130,32131,32132,32133,32134,32135,32136,32137,32138,32139,32140,32141,32142,32143,0,0,0,0,0,0,0,0,0,0,0,0,0,0,0,0,0,0,0,0,0,0,0,0,0,0,0,0,0,0,0,0,0,0,0,0,0,0,0,0,0,0,0,0,
0,0,0,0,0,0,0,0,0,0,0,0,0,0,0,0,0,0,0,0,0,0,0,0,0,0,0,0,0,0,0,0,0,32330,32331,32332,32333,32334,32335,32336,32337,32338,32230,32231,32232,32233,32234,32235,32236,32237,32238,32239,32240,32241,32242,32243,0,0,0,0,0,0,0,0,0,0,0,0,0,0,0,0,0,0,0,0,0,0,0,0,0,0,0,0,0,0,0,0,0,0,0,0,0,0,0,0,0,0,0,0,
0,0,0,0,0,0,0,0,0,0,0,0,0,0,0,0,0,0,0,0,0,0,0,0,0,0,0,0,0,0,0,0,0,32430,32431,32432,32433,32434,32435,32436,32437,32438,32330,32331,32332,32333,32334,32335,32336,32337,32338,32339,32340,32341,32342,32343,0,0,0,0,0,0,0,0,0,0,0,0,0,0,0,0,0,0,0,0,0,0,0,0,0,0,0,0,0,0,0,0,0,0,0,0,0,0,0,0,0,0,0,0,
0,0,0,0,0,0,0,0,0,0,0,0,0,0,0,0,0,0,0,0,0,0,0,0,0,0,0,0,0,0,0,0,0,32530,32531,32532,32533,32534,32535,32536,32537,32538,32430,32431,32432,32433,32434,32435,32436,32437,32438,32439,32440,32441,32442,32443,0,0,0,0,0,0,0,0,0,0,0,0,0,0,0,0,0,0,0,0,0,0,0,0,0,0,0,0,0,0,0,0,0,0,0,0,0,0,0,0,0,0,0,0,
0,0,0,0,0,0,0,0,0,0,0,0,0,0,0,0,0,0,0,0,0,0,0,0,0,0,0,0,0,0,0,0,0,32630,32631,32632,32633,32634,32635,32636,32637,32638,32530,32531,32532,32533,32534,32535,32536,32537,32538,32539,32540,32541,32542,32543,0,0,0,0,0,0,0,0,0,0,0,0,0,0,0,0,0,0,0,0,0,0,0,0,0,0,0,0,0,0,0,0,0,0,0,0,0,0,0,0,0,0,0,0,
0,0,0,0,0,0,0,0,0,0,0,0,0,0,0,0,0,0,0,0,0,0,0,0,0,0,0,0,0,0,0,0,0,32730,32731,32732,32733,32734,32735,32736,32737,32738,32630,32631,32632,32633,32634,32635,32636,32637,32638,32639,32640,32641,32642,32643,0,0,0,0,0,0,0,0,0,0,0,0,0,0,0,0,0,0,0,0,0,0,0,0,0,0,0,0,0,0,0,0,0,0,0,0,0,0,0,0,0,0,0,0,
0,0,0,0,0,0,0,0,0,0,0,0,0,0,0,0,0,0,0,0,0,0,0,0,0,0,0,0,0,0,0,0,0,0,0,0,0,0,0,0,0,0,32730,32731,32732,32733,32734,32735,32736,32737,32738,32739,32740,32741,32742,32743,0,0,0,0,0,0,0,0,0,0,0,0,0,0,0,0,0,0,0,0,0,0,0,0,0,0,0,0,0,0,0,0,0,0,0,0,0,0,0,0,0,0,0,0,
0,0,0,0,0,0,0,0,0,0,0,0,0,0,0,0,0,0,0,0,0,0,0,0,0,0,0,0,0,0,0,0,0,0,0,0,0,0,0,0,0,0,0,0,0,0,0,0,0,0,0,0,0,0,0,0,0,0,0,0,0,0,0,0,0,0,0,0,0,0,0,0,0,0,0,0,0,0,0,0,0,0,0,0,0,0,0,0,0,0,0,0,0,0,0,0,0,0,0,0,
0,0,0,0,0,0,0,0,0,0,0,0,0,0,0,0,0,0,0,0,0,0,0,0,0,0,0,0,0,0,0,0,0,0,0,0,0,0,0,0,0,0,0,0,0,0,0,0,0,0,0,0,0,0,0,0,0,0,0,0,0,0,0,0,0,0,0,0,0,0,0,0,0,0,0,0,0,0,0,0,0,0,0,0,0,0,0,0,0,0,0,0,0,0,0,0,0,0,0,0,
0,0,0,0,0,0,0,0,0,0,0,0,0,0,0,0,0,0,0,0,0,0,0,0,0,0,0,0,0,0,0,0,0,0,0,0,0,0,0,0,0,0,0,0,0,0,0,0,0,0,0,0,0,0,0,0,0,0,0,0,0,0,0,0,0,0,0,0,0,0,0,0,0,0,0,0,0,0,0,0,0,0,0,0,0,0,0,0,0,0,0,0,0,0,0,0,0,0,0,0,
0,0,0,0,0,0,0,0,0,0,0,0,0,0,0,0,0,0,0,0,0,0,0,0,0,0,0,0,0,0,0,0,0,0,0,0,0,0,0,0,0,0,0,0,0,0,0,0,0,0,0,0,0,0,0,0,0,0,0,0,0,0,0,0,0,0,0,0,0,0,0,0,0,0,0,0,0,0,0,0,0,0,0,0,0,0,0,0,0,0,0,0,0,0,0,0,0,0,0,0,
0,0,0,0,0,0,0,0,0,0,0,0,0,0,0,0,0,0,0,0,0,0,0,0,0,0,0,0,0,0,0,0,0,0,0,0,0,0,0,0,0,0,0,0,0,0,0,0,0,0,0,0,0,0,0,0,0,0,0,0,0,0,0,0,0,0,0,0,0,0,0,0,0,0,0,0,0,0,0,0,0,0,0,0,0,0,0,0,0,0,0,0,0,0,0,0,0,0,0,0,
0,0,0,0,0,0,0,0,0,0,0,0,0,0,0,0,0,0,0,0,0,0,0,0,0,0,0,0,0,0,0,0,0,0,0,0,0,0,0,0,0,0,0,0,0,0,0,0,0,0,0,0,0,0,0,0,0,0,0,0,0,0,0,0,0,0,0,0,0,0,0,0,0,0,0,0,0,0,0,0,0,0,0,0,0,0,0,0,0,0,0,0,0,0,0,0,0,0,0,0,
0,0,0,0,0,0,0,0,0,0,0,0,0,0,0,0,0,0,0,0,0,0,0,0,0,0,0,0,0,0,0,0,0,0,0,0,0,0,0,0,0,0,0,0,0,0,0,0,0,0,0,0,0,0,0,0,0,0,0,0,0,0,0,0,0,0,0,0,0,0,0,0,0,0,0,0,0,0,0,0,0,0,0,0,0,0,0,0,0,0,0,0,0,0,0,0,0,0,0,0,
0,0,0,0,0,0,0,0,0,0,0,0,0,0,0,0,0,0,0,0,0,0,0,0,0,0,0,0,0,0,0,0,0,0,0,0,0,0,0,0,0,0,0,0,0,0,0,0,0,0,0,0,0,0,0,0,0,0,0,0,0,0,0,0,0,0,0,0,0,0,0,0,0,0,0,0,0,0,0,0,0,0,0,0,0,0,0,0,0,0,0,0,0,0,0,0,0,0,0,0,
0,0,0,0,0,0,0,0,0,0,0,0,0,0,0,0,0,0,0,0,0,0,0,0,0,0,0,0,0,0,0,0,0,0,0,0,0,0,0,0,0,0,0,0,0,0,0,0,0,0,0,0,0,0,0,0,0,0,0,0,0,0,0,0,0,0,0,0,0,0,0,0,0,0,0,0,0,0,0,0,0,0,0,0,0,0,0,0,0,0,0,0,0,0,0,0,0,0,0,0,
0,0,0,0,0,0,0,0,0,0,0,0,0,0,0,0,0,0,0,0,0,0,0,0,0,0,0,0,0,0,0,0,0,0,0,0,0,0,0,0,0,0,0,0,0,0,0,0,0,0,0,0,0,0,0,0,0,0,0,0,0,0,0,0,0,0,0,0,0,0,0,0,0,0,0,0,0,0,0,0,0,0,0,0,0,0,0,0,0,0,0,0,0,0,0,0,0,0,0,0,
0,0,0,0,0,0,0,0,0,0,0,0,0,0,0,0,0,0,0,0,0,0,0,0,0,0,0,0,0,0,0,0,0,0,0,0,0,0,0,0,0,0,0,0,0,0,0,0,0,0,0,0,0,0,0,0,0,0,0,0,0,0,0,0,0,0,0,0,0,0,0,0,0,0,0,0,0,0,0,0,0,0,0,0,0,0,0,0,0,0,0,0,0,0,0,0,0,0,0,0,
0,0,0,0,0,0,0,0,0,0,0,0,0,0,0,0,0,0,0,0,0,0,0,0,0,0,0,0,0,0,0,0,0,0,0,0,0,0,0,0,0,0,0,0,0,0,0,0,0,0,0,0,0,0,0,0,0,0,0,0,0,0,0,0,0,0,0,0,0,0,0,0,0,0,0,0,0,0,0,0,0,0,0,0,0,0,0,0,0,0,0,0,0,0,0,0,0,0,0,0,
0,0,0,0,0,0,0,0,0,0,0,0,0,0,0,0,0,0,0,0,0,0,0,0,0,0,0,0,0,0,0,0,0,0,0,0,0,0,0,0,0,0,0,0,0,0,0,0,0,0,0,0,0,0,0,0,0,0,0,0,0,0,0,0,0,0,0,0,0,0,0,0,0,0,0,0,0,0,0,0,0,0,0,0,0,0,0,0,0,0,0,0,0,0,0,0,0,0,0,0,
0,0,0,0,0,0,0,0,0,0,0,0,0,0,0,0,0,0,0,0,0,0,0,0,0,0,0,0,0,0,0,0,0,0,0,0,0,0,0,0,0,0,0,0,0,0,0,0,0,0,0,0,0,0,0,0,0,0,0,0,0,0,0,0,0,0,0,0,0,0,0,0,0,0,0,0,0,0,0,0,0,0,0,0,0,0,0,0,0,0,0,0,0,0,0,0,0,0,0,0,
0,0,0,0,0,0,0,0,0,0,0,0,0,0,0,0,0,0,0,0,0,0,0,0,0,0,0,0,0,0,0,0,0,0,0,0,0,0,0,0,0,0,0,0,0,0,0,0,0,0,0,0,0,0,0,0,0,0,0,0,0,0,0,0,0,0,0,0,0,0,0,0,0,0,0,0,0,0,0,0,0,0,0,0,0,0,0,0,0,0,0,0,0,0,0,0,0,0,0,0,
0,0,0,0,0,0,0,0,0,0,0,0,0,0,0,0,0,0,0,0,0,0,0,0,0,0,0,0,0,0,0,0,0,0,0,0,0,0,0,0,0,0,0,0,0,0,0,0,0,0,0,0,0,0,0,0,0,0,0,0,0,0,0,0,0,0,0,0,0,0,0,0,0,0,0,0,0,0,0,0,0,0,0,0,0,0,0,0,0,0,0,0,0,0,0,0,0,0,0,0,
0,0,0,0,0,0,0,0,0,0,0,0,0,0,0,0,0,0,0,0,0,0,0,0,0,0,0,0,0,0,0,0,0,0,0,0,0,0,0,0,0,0,0,0,0,0,0,0,0,0,0,0,0,0,0,0,0,0,0,0,0,0,0,0,0,0,0,0,0,0,0,0,0,0,0,0,0,0,0,0,0,0,0,0,0,0,0,0,0,0,0,0,0,0,0,0,0,0,0,0,
0,0,0,0,0,0,0,0,0,0,0,0,0,0,0,0,0,0,0,0,0,0,0,0,0,0,0,0,0,0,0,0,0,0,0,0,0,0,0,0,0,0,0,0,0,0,0,0,0,0,0,0,0,0,0,0,0,0,0,0,0,0,0,0,0,0,0,0,0,0,0,0,0,0,0,0,0,0,0,0,0,0,0,0,0,0,0,0,0,0,0,0,0,0,0,0,0,0,0,0,
0,0,0,0,0,0,0,0,0,0,0,0,0,0,0,0,0,0,0,0,0,0,0,0,0,0,0,0,0,0,0,0,0,0,0,0,0,0,0,0,0,0,0,0,0,0,0,0,0,0,0,0,0,0,0,0,0,0,0,0,0,0,0,0,0,0,0,0,0,0,0,0,0,0,0,0,0,0,0,0,0,0,0,0,0,0,0,0,0,0,0,0,0,0,0,0,0,0,0,0,
0,0,0,0,0,0,0,0,0,0,0,0,0,0,0,0,0,0,0,0,0,0,0,0,0,0,0,0,0,0,0,0,0,0,0,0,0,0,0,0,0,0,0,0,0,0,0,0,0,0,0,0,0,0,0,0,0,0,0,0,0,0,0,0,0,0,0,0,0,0,0,0,0,0,0,0,0,0,0,0,0,0,0,0,0,0,0,0,0,0,0,0,0,0,0,0,0,0,0,0,
0,0,0,0,0,0,0,0,0,0,0,0,0,0,0,0,0,0,0,0,0,0,0,0,0,0,0,0,0,0,0,0,0,0,0,0,0,0,0,0,0,0,0,0,0,0,0,0,0,0,0,0,0,0,0,0,0,0,0,0,0,0,0,0,0,0,0,0,0,0,0,0,0,0,0,0,0,0,0,0,0,0,0,0,0,0,0,0,0,0,0,0,0,0,0,0,0,0,0,0,
0,0,0,0,0,0,0,0,0,0,0,0,0,0,0,0,0,0,0,0,0,0,0,0,0,0,0,0,0,0,0,0,0,0,0,0,0,0,0,0,0,0,0,0,0,0,0,0,0,0,0,0,0,0,0,0,0,0,0,0,0,0,0,0,0,0,0,0,0,0,0,0,0,0,0,0,0,0,0,0,0,0,0,0,0,0,0,0,0,0,0,0,0,0,0,0,0,0,0,0,
0,0,0,0,0,0,0,0,0,0,0,0,0,0,0,0,0,0,0,0,0,0,0,0,0,0,0,0,0,0,0,0,0,0,0,0,0,0,0,0,0,0,0,0,0,0,0,0,0,0,0,0,0,0,0,0,0,0,0,0,0,0,0,0,0,0,0,0,0,0,0,0,0,0,0,0,0,0,0,0,0,0,0,0,0,0,0,0,0,0,0,0,0,0,0,0,0,0,0,0,
0,0,0,0,0,0,0,0,0,0,0,0,0,0,0,0,0,0,0,0,0,0,0,0,0,0,0,0,0,0,0,0,0,0,0,0,0,0,0,0,0,0,0,0,0,0,0,0,0,0,0,0,0,0,0,0,0,0,0,0,0,0,0,0,0,0,0,0,0,0,0,0,0,0,0,0,0,0,0,0,0,0,0,0,0,0,0,0,0,0,0,0,0,0,0,0,0,0,0,0,
0,0,0,0,0,0,0,0,0,0,0,0,0,0,0,0,0,0,0,0,0,0,0,0,0,0,0,0,0,0,0,0,0,0,0,0,0,0,0,0,0,0,0,0,0,0,0,0,0,0,0,0,0,0,0,0,0,0,0,0,0,0,0,0,0,0,0,0,0,0,0,0,0,0,0,0,0,0,0,0,0,0,0,0,0,0,0,0,0,0,0,0,0,0,0,0,0,0,0,0,
0,0,0,0,0,0,0,0,0,0,0,0,0,0,0,0,0,0,0,0,0,0,0,0,0,0,0,0,0,0,0,0,0,0,0,0,0,0,0,0,0,0,0,0,0,0,0,0,0,0,0,0,0,0,0,0,0,0,0,0,0,0,0,0,0,0,0,0,0,0,0,0,0,0,0,0,0,0,0,0,0,0,0,0,0,0,0,0,0,0,0,0,0,0,0,0,0,0,0,0,
0,0,0,0,0,0,0,0,0,0,0,0,0,0,0,0,0,0,0,0,0,0,0,0,0,0,0,0,0,0,0,0,0,0,0,0,0,0,0,0,0,0,0,0,0,0,0,0,0,0,0,0,0,0,0,0,0,0,0,0,0,0,0,0,0,0,0,0,0,0,0,0,0,0,0,0,0,0,0,0,0,0,0,0,0,0,0,0,0,0,0,0,0,0,0,0,0,0,0,0,
0,0,0,0,0,0,0,0,0,0,0,0,0,0,0,0,0,0,0,0,0,0,0,0,0,0,0,0,0,0,0,0,0,0,0,0,0,0,0,0,0,0,0,0,0,0,0,0,0,0,0,0,0,0,0,0,0,0,0,0,0,0,0,0,0,0,0,0,0,0,0,0,0,0,0,0,0,0,0,0,0,0,0,0,0,0,0,0,0,0,0,0,0,0,0,0,0,0,0,0,
0,0,0,0,0,0,0,0,0,0,0,0,0,0,0,0,0,0,0,0,0,0,0,0,0,0,0,0,0,0,0,0,0,0,0,0,0,0,0,0,0,0,0,0,0,0,0,0,0,0,0,0,0,0,0,0,0,0,0,0,0,0,0,0,0,0,0,0,0,0,0,0,0,0,0,0,0,0,0,0,0,0,0,0,0,0,0,0,0,0,0,0,0,0,0,0,0,0,0,0,
0,0,0,0,0,0,0,0,0,0,0,0,0,0,0,0,0,0,0,0,0,0,0,0,0,0,0,0,0,0,0,0,0,0,0,0,0,0,0,0,0,0,0,0,0,0,0,0,0,0,0,0,0,0,0,0,0,0,0,0,0,0,0,0,0,0,0,0,0,0,0,0,0,0,0,0,0,0,0,0,0,0,0,0,0,0,0,0,0,0,0,0,0,0,0,0,0,0,0,0,
0,0,0,0,0,0,0,0,0,0,0,0,0,0,0,0,0,0,0,0,0,0,0,0,0,0,0,0,0,0,0,0,0,0,0,0,0,0,0,0,0,0,0,0,0,0,0,0,0,0,0,0,0,0,0,0,0,0,0,0,0,0,0,0,0,0,0,0,0,0,0,0,0,0,0,0,0,0,0,0,0,0,0,0,0,0,0,0,0,0,0,0,0,0,0,0,0,0,0,0,
0,0,0,0,0,0,0,0,0,0,0,0,0,0,0,0,0,0,0,0,0,0,0,0,0,0,0,0,0,0,0,0,0,0,0,0,0,0,0,0,0,0,0,0,0,0,0,0,0,0,0,0,0,0,0,0,0,0,0,0,0,0,0,0,0,0,0,0,0,0,0,0,0,0,0,0,0,0,0,0,0,0,0,0,0,0,0,0,0,0,0,0,0,0,0,0,0,0,0,0
</data>
 </layer>
 <layer id="9" name="Paths" width="100" height="75" visible="0">
  <data encoding="csv">
0,0,0,0,0,0,0,0,0,0,0,0,0,0,0,0,0,0,0,0,0,0,0,0,0,0,0,0,0,0,0,0,0,0,0,0,0,0,0,0,0,0,0,0,0,0,0,0,0,0,0,0,0,0,0,0,0,0,0,0,0,0,0,0,0,0,0,0,0,0,0,0,0,0,0,0,0,0,0,0,0,0,0,0,0,0,0,0,0,0,0,0,0,0,0,0,0,0,0,0,
0,0,0,0,0,0,0,0,0,0,0,0,0,0,0,0,0,0,0,0,0,0,0,0,0,0,0,0,0,0,0,0,0,0,0,0,0,0,0,0,0,0,0,0,0,0,0,0,0,0,0,0,0,0,0,0,0,0,0,0,0,0,0,0,0,0,0,0,0,0,0,0,0,0,0,0,0,0,0,0,0,0,0,0,0,0,0,0,0,0,0,0,0,0,0,0,0,0,0,0,
0,0,0,0,0,0,0,0,0,0,0,0,0,0,0,0,0,0,0,0,0,0,0,0,0,36,0,0,0,0,0,36,0,0,0,0,0,0,0,0,0,0,0,0,0,0,27,0,0,0,0,0,0,0,0,0,0,0,0,0,0,0,0,0,0,0,0,0,0,0,0,0,0,0,0,0,0,0,0,0,0,0,0,0,0,0,0,0,0,0,0,0,0,0,0,0,0,0,0,0,
0,0,0,0,0,20,0,0,0,0,0,0,0,0,0,0,0,0,0,0,0,0,0,0,0,0,0,0,0,0,0,0,0,0,0,0,0,0,0,0,0,0,0,0,23,0,0,0,0,0,0,0,0,0,0,0,0,0,0,0,0,0,0,0,0,0,0,0,0,0,0,0,0,0,0,0,0,0,0,0,0,0,0,0,0,0,0,0,0,0,0,0,0,0,0,0,0,0,0,0,
0,0,0,0,0,0,0,0,0,0,0,0,0,0,0,0,0,0,0,0,0,0,0,0,23,27,26,0,0,0,27,26,0,0,0,0,0,0,0,0,0,0,0,0,0,8,8,0,0,0,0,0,0,0,0,0,0,0,0,0,0,0,0,0,0,0,0,0,0,0,0,0,0,0,0,0,0,0,0,0,0,0,0,0,0,0,0,0,0,0,0,0,0,0,0,0,0,0,0,0,
0,0,0,0,0,0,27,0,0,0,26,0,0,0,0,0,0,0,10,0,0,0,0,0,0,0,0,27,0,0,0,23,27,0,0,0,17,0,0,0,0,12,0,0,0,8,8,0,0,0,0,0,0,0,0,0,0,0,0,0,0,0,0,0,0,0,0,0,0,0,0,0,0,0,0,0,0,0,0,8054,0,0,0,0,0,0,0,16,0,0,0,0,0,0,0,0,0,0,0,0,
0,0,0,0,0,0,0,0,0,0,0,27,0,0,0,0,0,0,0,18,0,0,0,0,8,8,0,0,0,0,0,0,0,0,12,0,0,0,10,18,37,18,0,23,23,0,0,0,37,0,0,0,0,0,0,0,0,0,0,0,0,0,0,0,0,0,0,0,0,0,0,0,0,0,0,0,0,0,0,8079,0,0,0,0,0,0,0,0,0,0,15,0,17,0,0,0,0,0,0,0,
0,0,0,0,0,0,0,0,0,0,19,0,0,0,0,27,0,0,0,0,0,0,23,0,8,8,0,0,0,8,8,36,0,0,0,0,0,0,8,0,0,37,37,37,0,37,37,37,37,0,0,0,0,0,0,0,0,0,0,0,0,0,0,0,0,0,0,0,0,0,0,0,0,0,0,0,14,0,17,0,14,9,0,0,23,23,23,23,23,23,0,0,0,0,0,0,0,0,0,0,
0,0,0,0,0,0,19,0,0,7,0,0,0,12,0,0,0,0,0,0,0,0,27,0,0,0,0,0,0,8,8,0,0,0,0,0,0,23,8,23,23,23,0,37,37,37,0,0,0,0,0,0,0,0,0,0,0,0,10,0,0,0,0,0,0,0,0,0,0,0,0,0,0,0,0,0,0,0,0,0,0,0,23,23,23,0,19,0,23,23,0,0,11,0,0,0,0,0,0,0,
0,0,0,0,12,0,0,0,0,7,0,0,0,0,0,0,0,0,0,0,0,0,0,0,0,0,0,0,0,0,0,0,0,0,0,23,23,23,23,23,23,23,19,0,19,19,0,19,0,0,0,0,0,0,0,0,0,0,0,0,0,0,0,0,0,0,0,0,0,0,0,0,0,0,0,0,0,0,0,0,18,23,23,0,0,0,0,0,23,23,0,0,0,0,0,0,0,0,0,0,
0,0,0,0,0,0,0,0,0,7,0,0,27,0,0,0,26,0,0,0,27,26,0,0,0,0,8,8,0,0,0,0,0,0,27,23,23,0,0,0,23,23,19,19,37,19,0,19,0,19,19,0,0,11,0,0,0,18,0,0,0,0,0,0,0,0,0,0,0,0,0,0,0,0,0,0,0,0,0,0,23,23,0,0,0,0,0,0,23,0,0,0,0,0,0,0,0,0,0,0,
0,0,0,0,0,0,0,0,0,7,0,17,0,0,0,18,0,27,26,0,0,0,0,0,0,0,8,8,0,0,0,37,37,0,23,23,26,37,37,19,0,23,0,0,37,37,0,0,0,0,0,19,0,0,0,0,0,0,0,0,0,0,0,19,0,0,0,0,0,11,0,0,0,0,0,0,0,0,17,0,23,23,0,0,18,0,23,0,0,0,0,0,0,0,0,0,0,0,0,0,
0,0,0,0,0,0,0,0,19,7,0,0,0,0,0,0,37,37,37,37,37,37,37,0,0,0,0,0,0,17,0,37,37,0,23,23,0,0,0,0,23,23,0,0,0,37,0,0,0,0,0,0,0,0,17,0,0,0,0,19,0,0,0,0,0,0,0,0,0,0,0,0,0,0,0,0,0,0,0,11,0,23,23,23,0,0,0,0,0,0,0,8054,0,15,0,0,0,0,0,0,
0,0,0,0,0,0,0,0,0,7,0,0,0,0,37,37,37,37,37,37,37,0,37,37,0,0,18,0,0,0,0,37,37,37,23,23,23,23,23,23,23,0,19,19,19,19,19,19,19,0,0,0,0,0,0,0,0,0,0,0,0,0,0,0,0,0,10,0,0,0,0,0,0,0,0,0,0,0,0,0,0,0,0,0,10,0,0,0,0,0,0,8079,0,0,0,0,0,0,0,0,
0,0,0,0,0,0,0,0,2,4,0,0,0,0,37,37,37,37,0,0,0,0,0,37,0,0,0,0,0,10,0,37,37,37,0,0,0,37,37,37,37,37,19,19,19,19,19,19,19,19,19,19,0,0,0,0,0,0,0,0,0,0,0,0,0,0,0,0,0,0,0,0,0,0,0,0,0,0,19,16,0,0,0,0,0,0,0,0,0,11,0,0,0,9,0,0,0,0,0,0,
0,0,0,0,0,0,18,0,7,0,37,27,26,37,37,37,0,0,23,23,23,23,0,37,27,0,0,0,0,18,0,0,0,37,37,37,37,37,0,19,19,0,0,0,0,0,0,0,0,0,0,19,19,0,0,11,0,0,0,0,0,0,0,0,0,0,0,0,0,0,0,0,0,0,0,0,0,0,0,0,0,0,0,0,0,0,0,0,0,0,0,0,0,0,0,0,0,0,0,0,
0,0,0,0,0,2,6,6,4,0,0,0,0,0,37,0,18,0,0,0,0,0,23,0,37,0,0,0,0,10,10,10,37,10,0,37,0,0,0,0,0,0,0,0,0,0,0,0,0,0,0,0,0,0,0,0,0,0,0,35,0,0,0,0,0,0,0,0,0,0,0,0,0,0,0,0,0,0,0,0,0,0,23,23,0,0,0,0,0,0,23,0,0,0,0,0,0,65,0,0,
0,0,0,0,0,0,0,0,0,0,0,19,37,37,37,0,23,0,0,0,0,23,23,23,37,0,0,0,0,18,10,18,37,18,0,0,0,0,0,0,0,0,0,0,0,0,0,0,0,0,0,0,0,0,0,0,0,0,0,0,37,37,37,0,0,0,0,0,0,0,0,0,0,0,10,0,0,0,0,23,23,23,23,0,0,0,0,0,16,0,23,23,0,0,18,0,0,90,0,0,
0,0,0,23,0,0,0,19,19,19,35,19,19,37,0,0,23,23,23,23,23,23,23,0,37,37,37,0,0,8,8,0,0,0,0,0,0,0,0,0,0,0,0,0,0,0,0,0,0,0,0,0,0,37,0,0,0,0,0,0,0,0,0,0,0,0,0,0,0,0,0,0,0,0,0,0,0,0,0,23,23,0,0,0,0,0,11,0,0,0,0,23,0,11,0,0,0,115,0,0,
0,0,0,27,0,0,0,19,0,19,19,0,0,0,37,0,0,0,19,19,0,0,0,0,0,0,37,37,37,8,8,0,0,0,0,0,0,0,0,0,0,0,0,0,0,0,0,0,0,0,18,0,0,0,0,0,0,0,0,0,0,0,0,0,0,0,0,0,0,0,0,0,0,0,0,0,0,0,18,0,23,23,23,19,0,0,0,0,11,11,11,11,11,11,11,0,0,140,0,0,
0,0,0,0,0,0,0,19,12,19,19,0,0,0,37,37,37,17,19,19,37,37,37,37,37,37,37,37,0,0,0,0,0,0,0,0,0,0,37,37,0,0,0,0,0,19,0,0,0,0,0,0,10,0,0,0,0,0,0,0,0,0,0,0,37,0,0,0,0,0,0,0,0,0,0,0,14,0,0,0,0,0,23,23,0,0,18,0,23,23,23,23,0,18,0,0,0,0,0,0,
0,0,0,0,0,0,0,0,0,19,19,0,19,19,35,11,0,15,19,19,11,35,0,0,0,0,0,0,0,0,0,0,37,37,0,0,37,37,0,19,0,0,0,19,0,0,0,0,0,0,0,0,0,0,0,0,0,0,0,0,0,0,0,0,0,0,0,0,0,0,10,0,0,0,0,0,0,0,0,0,0,19,0,23,23,23,23,23,18,18,18,18,23,23,18,0,0,0,0,0,
0,0,0,0,0,0,12,0,0,19,19,12,19,19,23,23,0,0,19,19,11,0,0,0,0,0,0,0,0,0,0,0,0,37,0,0,0,37,19,19,19,19,19,0,0,0,37,0,10,0,0,0,0,0,0,0,0,0,0,0,0,0,0,0,0,0,0,0,0,0,0,0,0,0,0,0,0,0,0,0,0,0,0,0,15,0,0,23,23,23,23,17,23,23,23,0,0,0,0,0,
0,0,26,0,0,0,0,0,0,11,11,11,35,11,11,35,11,0,15,19,19,11,0,0,0,0,0,0,0,0,0,0,19,19,19,19,19,19,19,19,19,19,19,19,19,19,0,0,0,0,0,0,0,0,0,0,0,0,0,0,0,0,0,0,0,0,0,0,0,0,0,0,0,0,0,0,0,0,0,0,0,0,0,0,0,36,0,0,0,0,0,0,0,18,10,0,0,0,0,0,
0,0,0,23,0,0,0,0,0,19,11,11,0,11,11,23,23,0,0,19,19,11,0,12,0,0,0,0,0,0,0,0,19,19,19,19,19,19,19,19,19,19,19,19,0,19,0,0,37,0,0,0,0,0,0,0,0,0,0,0,0,0,0,0,0,0,0,0,0,0,0,0,0,0,0,0,0,0,0,0,0,0,0,0,0,0,0,0,0,0,0,0,23,23,0,0,0,0,0,0,
0,0,0,0,0,0,0,0,23,19,19,19,35,19,19,23,11,23,0,0,11,11,0,0,16,0,0,0,0,0,0,0,0,0,0,0,0,0,0,19,0,0,0,19,0,0,37,0,0,0,0,0,0,0,0,0,0,19,0,0,0,0,0,0,0,0,0,0,0,0,0,0,0,0,0,0,0,0,0,0,0,0,0,0,0,0,0,0,0,0,0,0,35,0,0,0,0,0,0,0,
0,0,0,0,27,0,17,0,19,19,0,19,19,0,0,0,0,0,19,19,0,0,0,0,0,0,0,0,0,0,0,0,33,0,0,0,0,0,0,0,0,0,0,0,0,0,0,0,0,0,0,0,0,0,0,33,0,0,0,0,0,0,0,0,0,0,0,0,0,0,0,0,0,0,0,0,0,0,0,0,0,0,0,0,0,0,0,0,0,0,0,0,0,0,0,0,0,0,0,0,
0,0,0,0,0,0,0,0,19,19,12,19,19,0,0,0,0,17,19,19,0,0,0,0,0,0,0,0,0,0,0,0,0,0,0,0,0,0,0,0,0,0,17,0,0,0,0,27,0,0,0,0,0,0,0,0,0,0,0,0,0,0,0,0,0,0,0,0,0,0,0,0,0,0,0,0,0,0,0,0,0,0,0,0,0,0,0,0,0,0,0,0,0,0,0,0,0,0,0,0,
0,0,0,0,0,11,0,0,11,11,11,35,11,11,35,11,0,15,19,19,11,35,0,0,0,0,0,0,0,0,0,0,0,0,0,0,0,0,0,0,0,0,0,0,0,0,37,0,0,0,0,0,0,0,0,0,0,0,0,0,0,0,0,0,0,0,0,0,0,0,0,0,0,0,0,0,0,0,0,0,0,0,0,0,0,36,0,0,0,0,0,0,0,35,0,0,0,0,0,0,
0,0,0,0,0,0,16,0,19,11,11,0,11,11,23,23,0,0,19,19,11,0,0,0,0,0,0,0,0,0,0,0,0,0,0,0,0,0,0,0,0,0,0,0,0,33,0,0,0,0,0,0,0,0,0,0,0,0,0,0,0,0,0,0,0,0,0,0,0,0,0,0,0,0,0,0,0,0,0,0,0,0,0,0,0,0,0,0,0,0,17,0,0,0,0,0,0,0,0,0,
0,0,0,0,0,19,11,23,19,19,19,35,19,19,23,11,23,0,0,11,11,35,0,0,0,0,0,0,0,0,0,0,0,0,0,0,0,0,0,0,0,0,0,0,0,0,0,0,0,0,37,0,0,0,0,0,20,0,0,0,0,0,0,0,0,21,0,0,0,0,0,0,0,0,0,0,36,0,0,0,0,0,0,0,36,0,0,0,0,0,0,0,0,10,0,0,0,0,0,0,
0,0,0,0,0,0,0,23,23,11,11,11,0,0,0,23,23,23,0,11,11,0,10,0,0,0,0,0,0,0,0,0,0,0,0,0,0,0,0,0,0,0,0,0,0,0,0,37,0,0,0,0,0,0,0,0,0,0,0,0,0,0,0,0,0,0,0,0,0,0,0,0,0,0,0,0,0,0,0,0,0,0,0,0,0,0,0,0,0,0,0,0,0,0,0,0,0,0,0,0,
0,0,0,0,0,19,19,23,23,19,19,19,0,23,0,19,23,23,0,19,19,0,0,0,0,0,0,0,10,0,0,0,0,0,0,0,0,0,0,0,0,0,0,0,0,0,0,0,0,0,0,0,0,0,0,0,0,0,0,0,0,0,0,0,0,0,0,0,0,0,0,0,0,0,0,0,0,0,0,0,0,0,0,0,0,0,0,0,0,0,0,35,0,0,0,0,0,0,0,0,
0,0,0,0,27,23,23,23,0,37,37,0,17,0,0,0,0,23,0,0,0,0,0,0,17,0,0,0,0,0,0,0,0,0,0,37,27,0,0,27,0,0,0,0,0,0,0,0,0,0,0,0,0,0,0,0,0,0,0,0,0,0,0,0,0,0,0,0,0,0,0,0,0,0,0,0,0,0,0,0,0,0,0,0,0,0,0,0,0,0,0,0,0,0,0,0,0,0,0,0,
0,0,0,0,0,23,23,23,19,23,37,0,0,0,0,0,0,23,0,0,0,18,0,0,0,0,0,0,0,0,0,0,11,0,0,0,0,0,37,0,0,0,0,0,37,27,0,0,27,0,0,0,0,0,0,0,0,0,0,0,0,0,0,0,0,0,0,0,0,0,0,0,0,0,0,0,0,0,0,0,0,0,0,0,0,0,0,0,0,0,0,0,0,0,0,0,0,0,0,0,
0,0,0,0,0,0,23,23,0,0,37,0,0,0,0,0,0,23,23,23,0,0,0,0,0,0,0,0,0,0,0,0,0,0,0,0,0,0,0,0,0,0,0,0,0,0,0,37,0,0,0,0,0,0,0,0,0,0,0,0,0,0,0,0,0,0,0,0,10,0,0,0,0,0,0,0,36,0,0,0,0,0,0,0,36,0,0,0,0,0,0,0,0,0,0,0,0,0,0,0,
0,0,26,0,0,0,0,23,0,0,37,37,0,0,16,0,0,19,17,23,0,0,0,19,0,0,0,0,0,0,0,0,0,19,0,0,0,18,0,0,0,0,0,0,0,0,0,0,0,0,0,0,0,0,0,0,0,0,0,0,0,0,0,0,0,0,0,0,0,0,0,0,0,0,0,0,0,0,0,0,0,0,0,0,36,0,0,0,0,0,0,0,0,0,0,0,0,0,0,0,
0,0,0,23,0,0,23,23,0,0,23,37,23,0,0,0,0,23,23,0,0,0,0,0,0,0,23,0,0,0,0,0,0,0,19,0,0,0,0,0,0,0,19,0,0,0,0,0,0,0,0,0,0,0,0,0,0,0,0,0,0,0,0,0,0,0,0,0,0,0,0,0,0,0,0,0,0,0,0,0,0,0,0,0,0,0,0,0,0,0,0,0,0,0,0,0,0,0,0,0,
0,0,0,0,0,23,23,0,37,37,37,37,23,23,0,0,0,0,23,19,0,0,0,0,0,0,23,0,0,0,0,0,0,0,0,0,0,0,0,0,0,0,0,0,0,0,0,0,0,0,0,0,27,0,0,0,0,0,0,0,0,0,0,0,0,0,0,0,0,0,0,0,0,0,0,0,0,0,0,0,0,0,0,0,0,0,0,0,0,0,0,0,0,0,0,0,0,0,0,0,
0,0,0,0,27,37,37,37,37,18,0,0,0,23,23,0,0,0,23,11,0,0,0,0,0,0,23,0,0,0,0,0,0,0,0,18,0,19,11,0,0,0,0,0,0,0,0,0,0,0,0,0,0,0,0,0,0,0,0,0,0,0,0,0,0,0,0,0,18,0,0,0,0,0,0,0,0,0,0,0,0,0,0,0,0,0,0,0,0,0,0,0,0,0,0,0,0,0,0,0,
0,0,0,0,0,0,0,0,16,0,0,14,0,0,19,23,23,23,23,0,0,0,0,0,0,0,23,0,0,0,0,0,0,0,10,0,0,0,0,0,0,0,0,0,18,0,19,0,0,0,0,27,0,0,27,0,0,0,0,0,0,0,0,0,0,0,0,0,0,0,0,0,0,0,0,0,0,0,0,0,0,0,0,0,0,0,0,0,0,0,0,0,0,0,0,0,0,0,0,0,
0,0,0,0,0,0,0,0,15,15,0,0,0,0,0,0,0,0,0,0,0,11,0,35,15,0,23,0,0,0,0,0,0,19,0,0,0,0,0,0,0,0,0,0,0,0,0,0,0,0,0,0,0,0,0,0,0,0,0,0,0,0,0,0,0,0,0,0,0,0,0,0,0,0,0,0,0,0,0,0,0,0,0,0,36,0,0,0,0,0,0,0,0,0,0,0,0,0,0,0,
0,0,0,0,0,0,0,0,0,0,0,0,0,0,0,0,0,0,0,0,0,0,0,0,0,0,23,0,0,0,0,0,0,0,0,0,0,0,0,0,0,0,19,0,0,0,0,0,0,0,0,0,0,0,0,0,0,0,0,0,0,0,0,0,0,0,0,0,0,0,0,0,0,0,0,0,0,0,0,0,0,0,0,0,0,0,0,0,0,0,0,0,0,0,0,0,0,0,0,0,
0,0,0,0,0,0,0,0,0,0,0,0,0,0,0,0,0,0,0,16,0,0,0,0,0,0,23,23,0,0,0,0,0,0,0,0,0,0,0,0,0,0,0,0,0,0,0,0,0,0,0,0,0,11,0,0,0,0,0,0,0,0,0,0,0,0,0,10,0,0,0,0,0,0,0,0,0,0,0,0,0,0,0,0,0,0,0,0,0,0,0,0,0,0,0,0,0,0,0,0,
0,0,0,0,0,0,12,0,0,0,0,17,0,0,0,0,0,0,0,0,0,0,0,0,0,0,0,23,0,0,0,0,0,0,0,0,0,0,0,0,0,0,0,0,11,0,0,0,0,0,0,0,0,0,0,0,0,0,0,0,0,0,0,10,0,0,0,17,0,0,0,0,19,0,0,0,0,0,0,0,0,0,0,0,0,0,0,0,0,0,0,0,0,0,0,0,0,0,0,0,
0,0,0,0,0,0,0,0,0,0,0,0,0,0,0,0,12,0,0,0,0,0,0,0,0,0,0,23,23,0,0,0,0,0,0,0,18,0,0,0,0,0,0,0,0,0,0,0,0,0,0,0,0,0,0,0,0,0,0,0,0,0,0,0,0,0,0,0,0,0,0,0,0,0,0,0,0,0,0,0,0,0,0,0,23,23,0,0,0,0,0,0,0,0,0,0,0,0,0,0,
0,0,0,0,27,0,0,0,0,0,0,0,0,0,0,0,0,0,0,0,0,0,0,0,0,0,0,0,23,23,0,0,0,0,0,0,0,0,0,0,0,0,0,0,0,0,0,0,0,0,0,0,0,0,0,0,0,0,0,0,23,23,23,23,23,23,19,0,23,23,23,0,0,0,0,23,23,23,0,0,0,0,0,0,23,23,23,0,0,0,0,0,0,0,0,0,0,65,0,0,
0,0,0,11,11,0,0,0,12,0,0,0,0,0,0,0,0,35,0,0,0,0,0,0,0,0,0,0,0,23,0,0,0,0,0,0,0,0,19,0,0,0,0,0,0,0,0,0,0,0,0,0,0,0,0,0,0,0,0,23,23,23,23,23,23,23,0,0,23,23,37,0,0,0,0,23,23,11,23,0,0,0,0,0,23,23,23,0,0,0,0,0,0,0,0,0,0,90,0,0,
0,0,0,0,0,0,0,0,0,0,0,0,0,0,0,0,0,0,0,0,0,0,0,0,0,0,0,0,0,0,0,0,0,0,0,0,0,0,0,0,0,0,0,0,0,0,0,0,0,0,0,0,0,0,0,0,0,0,0,23,23,37,37,37,23,23,0,0,11,0,0,0,0,0,0,0,0,23,23,23,0,0,0,23,23,0,0,0,17,0,0,0,0,0,0,0,0,115,0,0,
0,0,0,0,0,0,0,0,0,0,0,0,0,0,0,0,0,0,0,0,0,0,35,0,0,0,0,0,0,0,0,0,0,0,0,0,0,0,0,11,0,35,0,0,0,0,0,0,0,0,0,0,0,0,0,0,0,11,0,37,23,37,37,37,23,23,0,0,0,0,0,0,0,0,0,0,0,0,0,23,23,23,23,23,0,0,0,0,0,0,0,0,0,0,0,0,0,140,0,0,
0,0,0,0,0,0,0,0,0,0,0,0,0,0,0,0,0,0,0,0,0,0,0,0,0,0,0,0,0,0,0,0,0,0,0,0,0,0,0,0,0,0,0,0,0,0,0,0,0,0,0,0,0,0,0,0,0,0,0,37,37,37,37,37,0,0,0,0,0,0,0,0,0,19,0,0,0,0,0,0,0,0,0,0,0,0,0,0,0,0,0,0,0,0,0,0,0,0,0,0,
0,0,0,0,0,0,0,0,0,0,0,0,0,0,0,0,0,0,0,0,0,0,0,0,0,0,0,0,0,0,0,0,0,0,0,0,0,0,0,0,0,0,0,0,0,0,0,0,0,0,0,0,0,0,0,0,0,0,0,37,37,37,19,0,0,0,0,0,0,0,0,0,0,0,0,0,0,0,0,0,0,0,0,0,0,0,0,0,0,0,0,0,0,0,0,0,0,0,0,0,
0,0,0,0,0,0,0,0,0,0,0,0,0,0,0,0,0,0,0,0,0,0,0,0,0,0,0,0,0,0,0,32,0,0,0,0,0,0,0,0,0,0,0,0,0,0,0,0,0,0,0,0,0,0,0,35,0,0,0,37,37,0,0,18,0,0,0,0,0,0,0,0,0,0,0,0,0,0,18,0,0,0,19,0,0,0,19,19,0,0,0,0,0,0,0,0,0,0,0,0,
0,0,0,0,0,0,0,0,0,0,0,0,0,0,0,0,0,0,0,0,0,0,0,0,0,0,0,0,0,0,0,0,0,0,0,0,0,0,0,0,0,0,0,0,0,0,0,0,0,0,0,0,0,0,0,0,0,0,0,0,0,0,0,11,0,35,0,0,0,0,0,0,0,11,19,0,0,0,0,0,10,0,0,0,0,0,19,19,0,0,0,0,0,11,0,0,0,0,0,0,
0,0,0,0,0,0,0,0,0,0,0,0,0,0,0,0,0,0,0,0,0,0,0,0,0,0,0,0,0,0,0,0,0,0,0,0,0,0,0,0,0,0,0,0,0,0,0,0,0,0,0,0,0,0,0,0,0,0,0,0,0,0,0,0,0,0,0,0,0,0,0,0,0,0,0,0,0,0,0,0,0,0,0,11,0,0,0,11,11,35,0,0,0,0,0,0,0,0,0,0,
0,0,0,0,0,0,0,0,0,0,0,0,0,0,0,0,0,0,0,0,0,0,0,0,0,0,0,0,0,0,0,0,0,0,0,0,0,0,0,0,0,0,0,0,0,0,0,0,0,0,28,0,0,0,0,0,0,0,0,0,0,0,0,0,0,37,11,0,0,0,0,0,0,0,0,0,0,0,0,0,0,0,0,0,0,0,0,11,11,0,0,0,0,0,0,0,0,0,0,0,
0,0,0,0,0,0,0,0,0,0,0,0,0,0,0,0,0,0,0,0,0,0,0,0,0,0,0,0,0,0,0,0,0,0,0,0,0,0,0,0,0,0,0,0,0,0,0,0,0,0,0,0,0,0,0,0,0,0,0,0,0,0,0,0,0,0,0,0,0,0,0,0,0,0,0,0,0,19,0,0,0,19,19,19,0,0,0,19,19,0,0,0,0,0,0,0,0,0,0,0,
0,0,0,0,0,0,0,0,0,0,0,0,0,0,0,0,0,0,0,0,0,0,0,0,0,0,0,0,0,0,0,0,0,0,0,0,0,0,0,0,0,0,0,0,0,0,0,0,0,0,0,0,0,0,0,0,0,0,0,0,32,0,0,0,0,0,0,0,0,0,0,0,0,0,0,0,0,0,0,0,0,19,19,0,0,0,0,19,19,0,0,0,0,0,11,0,0,0,0,0,
0,0,0,0,0,0,0,0,0,0,0,0,0,0,0,0,0,0,0,0,0,0,0,0,0,0,0,0,0,0,0,0,0,0,0,0,0,0,0,0,0,0,0,0,0,21,0,0,0,0,0,0,0,0,0,0,0,0,0,0,0,0,0,0,0,0,0,0,0,0,32,0,0,0,0,0,0,0,0,0,0,0,0,0,0,0,0,0,0,0,0,0,0,0,0,0,0,0,0,0,
0,0,0,0,0,0,0,0,0,0,0,0,0,0,0,0,0,0,0,0,0,0,0,0,0,0,0,0,0,0,0,0,0,0,0,0,0,0,0,0,0,0,0,0,0,0,0,0,0,0,0,0,0,0,0,0,0,0,0,0,0,0,0,0,0,0,0,0,0,0,0,0,0,0,28,0,0,0,0,0,0,0,0,0,0,0,0,0,0,0,0,0,0,0,0,0,0,0,0,0,
0,0,0,0,0,0,0,0,0,0,0,0,0,0,0,0,0,0,0,0,0,0,0,0,0,0,0,0,0,0,0,0,0,0,0,0,0,0,0,0,0,0,0,0,0,0,0,0,0,0,0,0,0,0,0,0,0,0,0,0,0,0,0,0,0,0,0,0,0,0,0,0,0,0,0,0,0,0,0,0,0,0,0,0,0,0,0,0,0,0,0,0,0,0,0,0,0,0,0,0,
0,0,0,0,0,0,0,0,0,0,0,0,0,0,0,0,0,0,0,0,0,0,0,0,0,0,0,0,0,0,0,0,0,0,0,0,0,0,0,0,0,0,0,0,0,0,0,0,0,0,0,0,0,0,0,0,0,0,0,0,0,0,0,0,0,0,0,0,0,0,0,0,0,0,0,0,0,0,0,0,0,0,0,0,0,0,0,0,0,0,0,0,0,0,0,0,0,0,0,0,
0,0,0,0,0,0,0,0,0,0,0,0,0,0,0,0,0,0,0,0,0,0,0,0,0,0,0,0,0,0,0,0,0,0,0,0,0,0,0,0,0,0,0,0,0,0,0,0,0,0,0,0,0,0,0,0,0,0,0,0,0,0,0,0,0,0,0,0,0,21,0,0,0,0,0,0,0,0,0,0,0,0,0,0,0,0,0,0,0,0,0,0,0,0,0,0,0,0,0,0,
0,0,0,0,0,0,0,0,0,0,0,0,0,0,0,0,0,0,0,0,0,0,0,0,0,0,0,0,0,0,0,0,0,0,0,0,0,0,0,0,0,0,0,0,0,0,0,0,0,0,0,0,0,0,0,0,0,0,0,0,0,0,0,0,0,0,0,0,0,0,0,0,0,0,0,0,0,0,0,0,0,0,0,0,0,0,0,0,0,0,0,0,0,0,0,0,0,0,0,0,
0,0,0,0,0,0,0,0,0,0,0,0,0,0,0,0,0,0,0,0,0,0,0,0,0,0,0,0,0,0,0,0,0,0,0,0,0,0,0,0,0,0,0,0,0,0,0,0,0,0,0,0,0,0,0,0,0,0,0,0,0,0,0,0,0,0,0,0,0,0,0,0,0,0,0,0,0,0,0,0,0,0,0,0,0,0,0,0,0,0,0,0,0,0,0,0,0,0,0,0,
0,0,0,0,0,0,0,0,0,0,0,0,0,0,0,0,0,0,0,0,0,0,0,0,0,0,0,0,0,0,0,0,0,0,0,0,0,0,0,0,0,0,0,0,0,0,0,0,0,0,0,0,0,0,0,0,0,0,0,0,0,0,0,0,0,0,0,0,0,0,0,0,0,0,0,0,0,0,0,0,0,0,0,0,0,0,0,0,0,0,0,0,0,0,0,0,0,0,0,0,
0,0,0,0,0,0,0,0,0,0,0,0,0,0,0,0,0,0,0,0,0,0,0,0,0,0,0,0,0,0,0,0,0,0,0,0,0,0,0,0,0,0,0,0,0,0,0,0,0,0,0,0,0,0,0,0,0,0,0,0,0,0,0,0,0,0,0,0,0,0,0,0,0,0,0,0,0,0,0,0,0,0,0,0,0,0,0,0,0,0,0,0,0,0,0,0,0,0,0,0,
0,0,0,0,0,0,0,0,0,0,0,0,0,0,0,0,0,0,0,0,0,0,0,0,0,0,0,0,0,0,0,0,0,0,0,0,0,0,0,0,0,0,0,0,0,0,0,0,0,0,0,0,0,0,0,0,0,0,0,0,0,0,0,0,0,0,0,0,0,0,0,0,0,0,0,0,0,0,0,0,0,0,0,0,0,0,0,0,0,0,0,0,0,0,0,0,0,0,0,0,
0,0,0,0,0,0,0,0,0,0,0,0,0,0,0,0,0,0,0,0,0,0,0,0,0,0,0,0,0,0,0,0,0,0,0,0,0,0,0,0,0,0,0,0,0,0,0,0,0,0,0,0,0,0,0,0,0,0,0,0,0,0,0,0,0,0,0,0,0,0,0,0,0,0,0,0,0,0,0,0,0,0,0,0,0,0,0,0,0,0,0,0,0,0,0,0,0,0,0,0,
0,0,0,0,0,0,0,0,0,0,0,0,0,0,0,0,0,0,0,0,0,0,0,0,0,0,0,0,0,0,0,0,0,0,0,0,0,0,0,0,0,0,0,0,0,0,0,0,0,0,0,0,0,0,0,0,0,0,0,0,0,0,0,0,0,0,0,0,0,0,0,0,0,0,0,0,0,0,0,0,0,0,0,0,0,0,0,0,0,0,0,0,0,0,0,0,0,0,0,0,
0,0,0,0,0,0,0,0,0,0,0,0,0,0,0,0,0,0,0,0,0,0,0,0,0,0,0,0,0,0,0,0,0,0,0,0,0,0,0,0,0,0,0,0,0,0,0,0,0,0,0,0,0,0,0,0,0,0,0,0,0,0,0,0,0,0,0,0,0,0,0,0,0,0,0,0,0,0,0,0,0,0,0,0,0,0,0,0,0,0,0,0,0,0,0,0,0,0,0,0,
0,0,0,0,0,0,0,0,0,0,0,0,0,0,0,0,0,0,0,0,0,0,0,0,0,0,0,0,0,0,0,0,0,0,0,0,0,0,0,0,0,0,0,0,0,0,0,0,0,0,0,0,0,0,0,0,0,0,0,0,0,0,0,0,0,0,0,0,0,0,0,0,0,0,0,0,0,0,0,0,0,0,0,0,0,0,0,0,0,0,0,0,0,0,0,0,0,0,0,0,
0,0,0,0,0,0,0,0,0,0,0,0,0,0,0,0,0,0,0,0,0,0,0,0,0,0,0,0,0,0,0,0,0,0,0,0,0,0,0,0,0,0,0,0,0,0,0,0,0,0,0,0,0,0,0,0,0,0,0,0,0,0,0,0,0,0,0,0,0,0,0,0,0,0,0,0,0,0,0,0,0,0,0,0,0,0,0,0,0,0,0,0,0,0,0,0,0,0,0,0,
0,0,0,0,0,0,0,0,0,0,0,0,0,0,0,0,0,0,0,0,0,0,0,0,0,0,0,0,0,0,0,0,0,0,0,0,0,0,0,0,0,0,0,0,0,0,0,0,0,0,0,0,0,0,0,0,0,0,0,0,0,0,0,0,0,0,0,0,0,0,0,0,0,0,0,0,0,0,0,0,0,0,0,0,0,0,0,0,0,0,0,0,0,0,0,0,0,0,0,0,
0,0,0,0,0,0,0,0,0,0,0,0,0,0,0,0,0,0,0,0,0,0,0,0,0,0,0,0,0,0,0,0,0,0,0,0,0,0,0,0,0,0,0,0,0,0,0,0,0,0,0,0,0,0,0,0,0,0,0,0,0,0,0,0,0,0,0,0,0,0,0,0,0,0,0,0,0,0,0,0,0,0,0,0,0,0,0,0,0,0,0,0,0,0,0,0,0,0,0,0
</data>
 </layer>
 <layer id="28" name="Light Coordinates" width="100" height="75">
  <data encoding="csv">
0,0,0,0,0,0,0,0,0,0,0,0,0,0,0,0,0,0,0,0,0,0,0,0,0,0,0,0,0,0,0,0,0,0,0,0,0,0,0,0,0,0,0,0,0,0,0,0,0,0,0,0,0,0,0,0,0,0,0,0,0,0,0,0,0,0,0,0,0,0,0,0,0,0,0,0,0,0,0,0,0,0,0,0,0,0,0,0,0,0,0,0,0,0,0,0,0,0,0,0,
0,0,0,0,0,0,0,0,0,0,0,0,0,0,0,0,0,0,0,0,0,0,0,0,0,0,0,0,0,0,0,0,0,0,0,0,0,0,0,0,0,0,0,0,0,0,0,0,0,0,0,0,0,0,0,0,0,0,0,0,0,0,0,0,0,0,0,0,0,0,0,0,0,0,0,0,0,0,0,0,0,0,0,0,0,0,0,0,0,0,0,0,0,0,0,0,0,0,0,0,
0,0,9,0,0,0,0,0,0,0,0,0,0,0,0,0,0,0,0,9,0,0,0,0,0,0,0,0,0,0,9,0,0,0,0,0,0,0,0,0,0,0,0,0,0,0,0,0,0,0,0,0,0,0,0,0,0,0,0,0,0,0,0,0,0,0,0,0,0,0,0,0,0,0,0,0,0,0,0,0,0,0,0,0,0,0,0,0,0,0,0,0,0,0,0,0,0,0,0,0,
0,0,0,0,0,0,0,0,0,0,0,0,0,0,0,0,0,0,0,0,0,0,0,0,0,0,0,0,0,0,0,0,0,0,0,0,0,0,0,0,0,0,0,0,0,0,0,0,0,0,0,0,0,0,0,0,0,0,0,0,0,0,0,0,0,0,0,0,0,0,0,0,0,0,0,0,0,0,0,0,0,0,0,0,0,0,0,0,0,0,0,0,0,0,0,0,0,0,0,0,
0,0,0,0,0,0,0,0,0,0,0,0,0,0,0,0,0,0,0,0,0,0,0,0,0,0,0,0,0,0,0,0,0,0,0,0,0,0,0,0,0,0,0,0,0,0,0,0,0,0,0,0,0,0,0,0,0,0,0,0,0,0,0,0,0,0,0,0,0,0,0,0,0,0,0,0,0,0,0,0,0,0,0,0,0,0,0,0,0,0,0,0,0,0,0,0,0,0,0,0,
0,0,0,0,0,0,0,0,0,0,0,0,0,0,0,0,0,0,0,0,0,0,0,0,0,0,0,0,0,0,0,0,0,0,0,0,0,0,9,0,0,0,0,0,0,0,0,0,0,0,0,0,0,0,0,0,0,0,0,0,0,0,0,0,0,0,0,0,0,0,0,0,0,0,0,0,0,0,0,0,0,0,0,0,0,0,0,0,0,0,0,0,0,0,0,0,0,0,0,0,
0,0,0,0,0,0,0,0,0,0,0,0,9,0,0,0,0,0,0,0,0,0,0,0,0,0,0,0,0,0,0,0,0,0,0,0,0,0,0,0,0,0,0,0,0,0,0,0,0,0,0,0,0,0,0,0,0,0,0,0,0,0,0,0,0,0,0,0,0,0,0,0,0,0,0,0,0,0,0,0,0,0,0,0,0,0,0,0,0,0,0,0,0,0,0,0,0,0,0,0,
0,0,0,0,0,0,0,0,0,0,0,0,0,0,0,0,0,0,0,0,0,0,0,0,0,0,0,0,0,0,0,0,0,0,0,0,0,0,0,0,0,0,0,0,0,0,0,0,0,0,0,0,0,0,0,0,0,0,0,0,0,0,0,0,0,0,0,0,0,0,0,0,0,0,0,0,0,0,0,0,0,0,0,0,0,0,0,0,0,0,0,0,0,0,0,0,0,0,0,0,
0,0,0,0,0,0,0,0,9,9,0,0,0,0,0,0,0,0,0,0,0,0,0,0,0,0,0,9,0,0,0,0,0,0,0,0,0,0,0,0,0,0,0,0,0,0,0,0,0,0,0,0,0,0,0,0,0,0,0,0,0,0,0,0,0,0,0,0,0,0,0,0,0,0,0,0,0,0,0,0,0,0,0,0,0,0,0,0,0,0,0,0,0,0,0,0,0,0,0,0,
0,0,0,0,0,9,0,0,0,0,0,0,0,0,0,0,0,0,0,0,0,0,0,0,0,0,0,0,0,0,0,0,0,0,0,0,0,0,0,0,0,0,0,0,0,0,0,0,0,0,0,0,0,0,0,0,0,0,0,0,0,0,0,0,0,0,0,0,0,0,0,0,0,0,0,0,0,0,0,0,0,0,0,0,0,0,0,0,0,0,0,0,0,0,0,0,0,0,0,0,
9,0,0,0,0,0,0,0,9,9,0,0,0,0,0,0,0,0,0,0,0,0,0,0,0,0,0,0,0,0,0,0,0,0,0,9,0,0,0,0,0,0,0,0,0,0,0,0,0,0,0,0,0,0,0,0,0,0,0,0,0,0,0,0,0,0,0,0,0,0,0,0,0,0,0,0,0,0,0,0,0,0,0,0,0,0,0,0,0,0,0,0,0,0,0,0,0,0,0,0,
0,0,0,0,0,0,0,0,0,0,0,0,0,9,0,0,0,0,0,0,0,0,0,0,0,0,0,0,0,0,0,0,0,0,0,0,0,0,0,0,0,0,0,0,0,0,0,0,0,0,0,0,0,0,0,0,0,0,0,0,0,0,0,0,0,0,0,0,0,0,0,0,0,0,0,0,0,0,0,0,0,0,0,0,0,0,0,0,0,0,0,0,0,0,0,0,0,0,0,0,
0,0,0,0,0,0,0,0,0,0,0,0,0,0,0,0,0,0,0,0,0,0,0,0,0,0,0,0,0,0,0,0,0,0,0,0,0,0,0,0,0,0,0,0,0,0,0,0,0,0,0,0,0,0,0,0,0,0,0,0,0,0,0,0,0,0,0,0,0,0,0,0,0,0,0,0,0,0,0,0,0,0,0,0,0,0,0,0,0,0,0,0,0,0,0,0,0,0,0,0,
0,0,0,0,0,0,0,0,0,0,0,0,0,0,0,0,0,0,0,0,0,0,0,0,0,0,0,0,0,0,0,0,0,0,0,0,0,0,0,0,0,0,0,0,0,0,0,0,0,0,0,0,0,0,0,0,0,0,0,0,0,0,0,0,0,0,0,0,0,0,0,0,0,0,0,0,0,0,0,0,0,0,0,0,0,0,0,0,0,0,0,0,0,0,0,0,0,0,0,0,
0,0,0,0,0,0,9,0,0,0,0,9,0,0,0,0,0,0,0,0,0,0,0,0,0,0,0,0,0,0,0,0,0,0,0,0,0,0,0,0,0,0,0,0,0,0,0,0,0,0,0,0,0,0,0,0,0,0,0,0,0,0,0,0,0,0,0,0,0,0,0,0,0,0,0,0,0,0,0,0,0,0,0,0,0,0,0,0,0,0,0,0,0,0,0,0,0,0,0,0,
0,0,0,0,0,0,0,0,0,0,0,0,0,0,0,0,0,0,0,0,0,0,9,0,0,0,0,0,0,0,0,0,0,0,0,0,0,0,0,0,0,0,0,0,0,0,0,0,0,0,0,0,0,0,0,0,0,0,0,0,0,0,0,0,0,0,0,0,0,0,0,0,0,0,0,0,0,0,0,0,0,0,0,0,0,0,0,0,0,0,0,0,0,0,0,0,0,0,0,0,
0,0,0,0,0,0,0,0,0,0,0,0,0,0,0,0,0,0,0,0,0,0,0,0,0,0,0,0,0,0,0,0,0,0,0,0,0,0,0,0,0,0,0,0,0,0,0,0,0,0,0,0,0,0,0,0,0,0,0,0,0,0,0,0,0,0,0,0,0,0,0,0,0,0,0,0,0,0,0,0,0,0,0,0,0,0,0,0,0,0,0,0,0,0,0,0,0,0,0,0,
0,0,0,0,0,0,0,0,0,0,0,0,0,0,0,0,0,0,0,0,0,0,0,0,0,0,0,0,0,0,0,0,0,0,0,0,0,0,0,0,0,0,0,0,0,0,0,0,0,0,0,0,0,0,0,0,0,0,0,0,0,0,0,0,0,0,0,0,0,0,0,0,0,0,0,0,0,0,0,0,0,0,0,0,0,0,0,0,0,0,0,0,0,0,0,0,0,0,0,0,
0,0,0,0,0,0,0,0,0,0,0,0,0,0,0,0,0,0,0,0,0,0,0,0,0,0,0,0,0,0,0,0,0,0,0,0,0,0,0,0,0,0,0,0,0,0,0,0,0,0,0,0,0,0,0,0,0,0,0,0,0,0,0,0,0,0,0,0,0,0,0,0,0,0,0,0,0,0,0,0,0,0,0,0,0,0,0,0,0,0,0,0,0,0,0,0,0,0,0,0,
0,0,0,0,0,0,0,0,0,0,0,0,0,0,0,0,0,0,0,0,0,0,0,0,0,0,0,9,0,0,0,0,0,0,0,0,0,0,0,0,0,0,0,0,0,0,0,0,0,0,0,0,0,0,0,0,0,0,0,0,0,0,0,0,0,0,0,0,0,0,0,0,0,0,0,0,0,0,0,0,0,0,0,0,0,0,0,0,0,0,0,0,0,0,0,0,0,0,0,0,
0,0,0,0,0,0,0,0,0,0,0,0,0,0,0,0,0,0,0,0,0,0,0,0,0,0,0,0,0,0,0,0,0,0,0,0,0,0,0,0,0,0,0,0,0,0,0,0,0,0,0,0,0,0,0,0,0,0,0,0,0,0,0,0,0,0,0,0,0,0,0,0,0,0,0,0,0,0,0,0,0,0,0,0,0,0,0,0,0,0,0,0,0,0,0,0,0,0,0,0,
0,0,0,0,0,0,0,0,0,0,0,0,0,0,0,0,0,0,0,0,0,0,0,0,0,0,0,0,0,0,0,0,0,0,0,0,0,0,0,0,0,0,0,0,0,0,0,0,0,0,0,0,0,0,0,0,0,0,0,0,0,0,0,0,0,0,0,0,0,0,0,0,0,0,0,0,0,0,0,0,0,0,0,0,0,0,0,0,0,0,0,0,0,0,0,0,0,0,0,0,
0,0,0,0,0,0,0,0,0,0,0,0,0,0,0,0,0,0,0,0,0,0,0,0,0,0,0,0,0,0,0,0,0,0,0,0,0,0,0,0,0,0,0,0,0,0,0,0,0,0,0,0,0,0,0,0,0,0,0,0,0,0,0,0,0,0,0,0,0,0,0,0,0,0,0,0,0,0,0,0,0,0,0,0,0,0,0,0,0,0,0,0,0,0,0,0,0,0,0,0,
0,0,0,0,0,0,0,0,0,0,0,0,0,0,0,0,0,0,0,0,0,0,0,0,0,0,0,0,0,0,0,0,0,0,0,0,0,0,0,0,0,0,0,0,0,0,0,0,0,0,0,0,0,0,0,0,0,0,0,0,0,0,0,0,0,0,0,0,0,0,0,0,0,0,0,0,0,0,0,0,0,0,0,0,0,0,0,0,0,0,0,0,0,0,0,0,0,0,0,0,
0,0,0,0,0,0,0,0,0,0,0,0,0,0,0,0,0,0,0,0,0,0,0,0,0,0,0,0,0,0,0,0,0,0,0,0,0,0,0,0,0,0,0,0,0,0,0,0,0,0,0,0,0,0,0,0,0,0,0,0,0,0,0,0,0,0,0,0,0,0,0,0,0,0,0,0,0,0,0,0,0,0,0,0,0,0,0,0,0,0,0,0,0,0,0,0,0,0,0,0,
0,0,0,0,0,0,0,0,0,0,0,0,0,0,0,0,0,0,0,0,0,0,0,0,0,0,0,0,0,0,0,0,0,0,0,0,0,0,0,0,0,0,0,0,0,0,0,0,0,0,0,0,0,0,0,0,0,0,0,0,0,0,0,0,0,0,0,0,0,0,0,0,0,0,0,0,0,0,0,0,0,0,0,0,0,0,0,0,0,0,0,0,0,0,0,0,0,0,0,0,
0,0,0,0,0,0,0,0,0,0,0,0,0,0,0,0,0,0,0,0,0,0,0,0,0,0,0,0,0,0,0,0,0,0,0,0,0,0,0,0,0,0,0,0,0,0,0,0,0,0,0,0,0,0,0,0,0,0,0,0,0,0,0,0,0,0,0,0,0,0,0,0,0,0,0,0,0,0,0,0,0,0,0,0,0,0,0,0,0,0,0,0,0,0,0,0,0,0,0,0,
0,0,0,0,0,0,0,0,0,0,0,0,0,0,0,0,0,0,0,0,0,0,0,0,0,0,0,0,0,0,0,0,0,0,0,0,0,0,0,0,0,0,0,0,0,0,0,0,0,0,0,0,0,0,0,0,0,0,0,0,0,0,0,0,0,0,0,0,0,0,0,0,0,0,0,0,0,0,0,0,0,0,0,0,0,0,0,0,0,0,0,0,0,0,0,0,0,0,0,0,
0,0,0,0,0,0,0,0,0,0,0,0,0,0,0,0,0,0,0,0,0,0,0,0,0,0,0,0,0,0,0,0,0,0,0,0,0,0,0,0,0,0,0,0,0,0,0,0,0,0,0,0,0,0,0,0,0,0,0,0,0,0,0,0,0,0,0,0,0,0,0,0,0,0,0,0,0,0,0,0,0,0,0,0,0,0,0,0,0,0,0,0,0,0,0,0,0,0,0,0,
0,0,0,0,0,0,0,0,0,0,0,0,0,0,0,0,0,0,0,0,0,0,0,0,0,0,0,0,0,0,0,0,0,0,0,0,0,0,0,0,0,0,0,0,0,0,0,0,0,0,0,0,0,0,0,0,0,0,0,0,0,0,0,0,0,0,0,0,0,0,0,0,0,0,0,0,0,0,0,0,0,0,0,0,0,0,0,0,0,0,0,0,0,0,0,0,0,0,0,0,
0,0,0,0,0,0,0,0,0,0,0,0,0,0,0,0,0,0,0,0,0,0,0,0,0,0,0,0,0,0,0,0,0,0,0,0,0,0,0,0,0,0,0,0,0,0,0,0,0,0,0,0,0,0,0,0,0,0,0,0,0,0,0,0,0,0,0,0,0,0,0,0,0,0,0,0,0,0,0,0,0,0,0,0,0,0,0,0,0,0,0,0,0,0,0,0,0,0,0,0,
0,0,0,0,0,0,0,0,0,0,0,0,0,0,0,0,0,0,0,0,0,0,0,0,0,0,0,0,0,0,0,0,0,0,0,0,0,0,0,0,0,0,0,0,0,0,0,0,0,0,0,0,0,0,0,0,0,0,0,0,0,0,0,0,0,0,0,0,0,0,0,0,0,0,0,0,0,0,0,0,0,0,0,0,0,0,0,0,0,0,0,0,0,0,0,0,0,0,0,0,
0,0,0,0,0,0,0,0,0,0,0,0,0,0,0,0,0,0,0,0,0,0,0,0,0,0,0,0,0,0,0,0,0,0,0,0,0,0,0,0,0,0,0,0,0,0,0,0,0,0,0,0,0,0,0,0,0,0,0,0,0,0,0,0,0,0,0,0,0,0,0,0,0,0,0,0,0,0,0,0,0,0,0,0,0,0,0,0,0,0,0,0,0,0,0,0,0,0,0,0,
0,0,0,0,0,0,0,0,0,0,0,0,0,0,0,0,0,0,0,0,0,0,0,0,0,0,0,0,0,0,0,0,0,0,0,0,0,0,0,0,0,0,0,0,0,0,0,0,0,0,0,0,0,0,0,0,0,0,0,0,0,0,0,0,0,0,0,0,0,0,0,0,0,0,0,0,0,0,0,0,0,0,0,0,0,0,0,0,0,0,0,0,0,0,0,0,0,0,0,0,
0,0,0,0,0,0,0,0,0,0,0,0,0,0,0,0,0,0,0,0,0,0,0,0,0,0,0,0,0,0,0,0,0,0,0,0,0,0,0,0,0,0,0,0,0,0,0,0,0,0,0,0,0,0,0,0,0,0,0,0,0,0,0,0,0,0,0,0,0,0,0,0,0,0,0,0,0,0,0,0,0,0,0,0,0,0,0,0,0,0,0,0,0,0,0,0,0,0,0,0,
0,0,0,0,0,0,0,0,0,0,0,0,0,0,0,0,0,0,0,0,0,0,0,0,0,0,0,0,0,0,0,0,0,0,0,0,0,0,0,0,0,0,0,0,0,0,0,0,0,0,0,0,0,0,0,0,0,0,0,0,0,0,0,0,0,0,0,0,0,0,0,0,0,0,0,0,0,0,0,0,0,0,0,0,0,0,0,0,0,0,0,0,0,0,0,0,0,0,0,0,
0,0,0,0,0,0,0,0,0,0,0,0,0,0,0,0,0,0,0,0,0,0,0,0,0,0,0,0,0,0,0,0,0,0,0,0,0,0,0,0,0,0,0,0,0,0,0,0,0,0,0,0,0,0,0,0,0,0,0,0,0,0,0,0,0,0,0,0,0,0,0,0,0,0,0,0,0,0,0,0,0,0,0,0,0,0,0,0,0,0,0,0,0,0,0,0,0,0,0,0,
0,0,0,0,0,0,0,0,0,0,0,0,0,0,0,0,0,0,0,0,0,0,0,0,0,0,0,0,0,0,0,0,0,0,0,0,0,0,0,0,0,0,0,0,0,0,0,0,0,0,0,0,0,0,0,0,0,0,0,0,0,0,0,0,0,0,0,0,0,0,0,0,0,0,0,0,0,0,0,0,0,0,0,0,0,0,0,0,0,0,0,0,0,0,0,0,0,0,0,0,
0,0,0,0,0,0,0,0,0,0,0,0,0,0,0,0,0,0,0,0,0,0,0,0,0,0,0,0,0,0,0,0,0,0,0,0,0,0,0,0,0,0,0,0,0,0,0,0,0,0,0,0,0,0,0,0,0,0,0,0,0,0,0,0,0,0,0,0,0,0,0,0,0,0,0,0,0,0,0,0,0,0,0,0,0,0,0,0,0,0,0,0,0,0,0,0,0,0,0,0,
0,0,0,0,0,0,0,0,0,0,0,0,0,0,0,0,0,0,0,0,0,0,0,0,0,0,0,0,0,0,0,0,0,0,0,0,0,0,0,0,0,0,0,0,0,0,0,0,0,0,0,0,0,0,0,0,0,0,0,0,0,0,0,0,0,0,0,0,0,0,0,0,0,0,0,0,0,0,0,0,0,0,0,0,0,0,0,0,0,0,0,0,0,0,0,0,0,0,0,0,
0,0,0,0,0,0,0,0,0,0,0,0,0,0,0,0,0,0,0,0,0,0,0,0,0,0,0,0,0,0,0,0,0,0,0,0,0,0,0,0,0,0,0,0,0,0,0,0,0,0,0,0,0,0,0,0,0,0,0,0,0,0,0,0,0,0,0,0,0,0,0,0,0,0,0,0,0,0,0,0,0,0,0,0,0,0,0,0,0,0,0,0,0,0,0,0,0,0,0,0,
0,0,0,0,0,0,0,0,0,0,0,0,0,0,0,0,0,0,0,0,0,0,0,0,0,0,0,0,0,0,0,0,0,0,0,0,0,0,0,0,0,0,0,0,0,0,0,0,0,0,0,0,0,0,0,0,0,0,0,0,0,0,0,0,0,0,0,0,0,0,0,0,0,0,0,0,0,0,0,0,0,0,0,0,0,0,0,0,0,0,0,0,0,0,0,0,0,0,0,0,
0,0,0,0,0,0,0,0,0,0,0,0,0,0,0,0,0,0,0,0,0,0,0,0,0,0,0,0,0,0,0,0,0,0,0,0,0,0,0,0,0,0,0,0,0,0,0,0,0,0,0,0,0,0,0,0,0,0,0,0,0,0,0,0,0,0,0,0,0,0,0,0,0,0,0,0,0,0,0,0,0,0,0,0,0,0,0,0,0,0,0,0,0,0,0,0,0,0,0,0,
0,0,0,0,0,0,0,0,0,0,0,0,0,0,0,0,0,0,0,0,0,0,0,0,0,0,0,0,0,0,0,0,0,0,0,0,0,0,0,0,0,0,0,0,0,0,0,0,0,0,0,0,0,0,0,0,0,0,0,0,0,0,0,0,0,0,0,0,0,0,0,0,0,0,0,0,0,0,0,0,0,0,0,0,0,0,0,0,0,0,0,0,0,0,0,0,0,0,0,0,
0,0,0,0,0,0,0,0,0,0,0,0,0,0,0,0,0,0,0,0,0,0,0,0,0,0,0,0,0,0,0,0,0,0,0,0,0,0,0,0,0,0,0,0,0,0,0,0,0,0,0,0,0,0,0,0,0,0,0,0,0,0,0,0,0,0,0,0,0,0,0,0,0,0,0,0,0,0,0,0,0,0,0,0,0,0,0,0,0,0,0,0,0,0,0,0,0,0,0,0,
0,0,0,0,0,0,0,0,0,0,0,0,0,0,0,0,0,0,0,0,0,0,0,0,0,0,0,0,0,0,0,0,0,0,0,0,0,0,0,0,0,0,0,0,0,0,0,0,0,0,0,0,0,0,0,0,0,0,0,0,0,0,0,0,0,0,0,0,0,0,0,0,0,0,0,0,0,0,0,0,0,0,0,0,0,0,0,0,0,0,0,0,0,0,0,0,0,0,0,0,
0,0,0,0,0,0,0,0,0,0,0,0,0,0,0,0,0,0,0,0,0,0,0,0,0,0,0,0,0,0,0,0,0,0,0,0,0,0,0,0,0,0,0,0,0,0,0,0,0,0,0,0,0,0,0,0,0,0,0,0,0,0,0,0,0,0,0,0,0,0,0,0,0,0,0,0,0,0,0,0,0,0,0,0,0,0,0,0,0,0,0,0,0,0,0,0,0,0,0,0,
0,0,0,0,0,0,0,0,0,0,0,0,0,0,0,0,0,0,0,0,0,0,0,0,0,0,0,0,0,0,0,0,0,0,0,0,0,0,0,0,0,0,0,0,0,0,0,0,0,0,0,0,0,0,0,0,0,0,0,0,0,0,0,0,0,0,0,0,0,0,0,0,0,0,0,0,0,0,0,0,0,0,0,0,0,0,0,0,0,0,0,0,0,0,0,0,0,0,0,0,
0,0,0,0,0,0,0,0,0,0,0,0,0,0,0,0,0,0,0,0,0,0,0,0,0,0,0,0,0,0,0,0,0,0,0,0,0,0,0,0,0,0,0,0,0,0,0,0,0,0,0,0,0,0,0,0,0,0,0,0,0,0,0,0,0,0,0,0,0,0,0,0,0,0,0,0,0,0,0,0,0,0,0,0,0,0,0,0,0,0,0,0,0,0,0,0,0,0,0,0,
0,0,0,0,0,0,0,0,0,0,0,0,0,0,0,0,0,0,0,0,0,0,0,0,0,0,0,0,0,0,0,0,0,0,0,0,0,0,0,0,0,0,0,0,0,0,0,0,0,0,0,0,0,0,0,0,0,0,0,0,0,0,0,0,0,0,0,0,0,0,0,0,0,0,0,0,0,0,0,0,0,0,0,0,0,0,0,0,0,0,0,0,0,0,0,0,0,0,0,0,
0,0,0,0,0,0,0,0,0,0,0,0,0,0,0,0,0,0,0,0,0,0,0,0,0,0,0,0,0,0,0,0,0,0,0,0,0,0,0,0,0,0,0,0,0,0,0,0,0,0,0,0,0,0,0,0,0,0,0,0,0,0,0,0,0,0,0,0,0,0,0,0,0,0,0,0,0,0,0,0,0,0,0,0,0,0,0,0,0,0,0,0,0,0,0,0,0,0,0,0,
0,0,0,0,0,0,0,0,0,0,0,0,0,0,0,0,0,0,0,0,0,0,0,0,0,0,0,0,0,0,0,0,0,0,0,0,0,0,0,0,0,0,0,0,0,0,0,0,0,0,0,0,0,0,0,0,0,0,0,0,0,0,0,0,0,0,0,0,0,0,0,0,0,0,0,0,0,0,0,0,0,0,0,0,0,0,0,0,0,0,0,0,0,0,0,0,0,0,0,0,
0,0,0,0,0,0,0,0,0,0,0,0,0,0,0,0,0,0,0,0,0,0,0,0,0,0,0,0,0,0,0,0,0,0,0,0,0,0,0,0,0,0,0,0,0,0,0,0,0,0,0,0,0,0,0,0,0,0,0,0,0,0,0,0,0,0,0,0,0,0,0,0,0,0,0,0,0,0,0,0,0,0,0,0,0,0,0,0,0,0,0,0,0,0,0,0,0,0,0,0,
0,0,0,0,0,0,0,0,0,0,0,0,0,0,0,0,0,0,0,0,0,0,0,0,0,0,0,0,0,0,0,0,0,0,0,0,0,0,0,0,0,0,0,0,0,0,0,0,0,0,0,0,0,0,0,0,0,0,0,0,0,0,0,0,0,0,0,0,0,0,0,0,0,0,0,0,0,0,0,0,0,0,0,0,0,0,0,0,0,0,0,0,0,0,0,0,0,0,0,0,
0,0,0,0,0,0,0,0,0,0,0,0,0,0,0,0,0,0,0,0,0,0,0,0,0,0,0,0,0,0,0,0,0,0,0,0,0,0,0,0,0,0,0,0,0,0,0,0,0,0,0,0,0,0,0,0,0,0,0,0,0,0,0,0,0,0,0,0,0,0,0,0,0,0,0,0,0,0,0,0,0,0,0,0,0,0,0,0,0,0,0,0,0,0,0,0,0,0,0,0,
0,0,0,0,0,0,0,0,0,0,0,0,0,0,0,0,0,0,0,0,0,0,0,0,0,0,0,0,0,0,0,0,0,0,0,0,0,0,0,0,0,0,0,0,0,0,0,0,0,0,0,0,0,0,0,0,0,0,0,0,0,0,0,0,0,0,0,0,0,0,0,0,0,0,0,0,0,0,0,0,0,0,0,0,0,0,0,0,0,0,0,0,0,0,0,0,0,0,0,0,
0,0,0,0,0,0,0,0,0,0,0,0,0,0,0,0,0,0,0,0,0,0,0,0,0,0,0,0,0,0,0,0,0,0,0,0,0,0,0,0,0,0,0,0,0,0,0,0,0,0,0,0,0,0,0,0,0,0,0,0,0,0,0,0,0,0,0,0,0,0,0,0,0,0,0,0,0,0,0,0,0,0,0,0,0,0,0,0,0,0,0,0,0,0,0,0,0,0,0,0,
0,0,0,0,0,0,0,0,0,0,0,0,0,0,0,0,0,0,0,0,0,0,0,0,0,0,0,0,0,0,0,0,0,0,0,0,0,0,0,0,0,0,0,0,0,0,0,0,0,0,0,0,0,0,0,0,0,0,0,0,0,0,0,0,0,0,0,0,0,0,0,0,0,0,0,0,0,0,0,0,0,0,0,0,0,0,0,0,0,0,0,0,0,0,0,0,0,0,0,0,
0,0,0,0,0,0,0,0,0,0,0,0,0,0,0,0,0,0,0,0,0,0,0,0,0,0,0,0,0,0,0,0,0,0,0,0,0,0,0,0,0,0,0,0,0,0,0,0,0,0,0,0,0,0,0,0,0,0,0,0,0,0,0,0,0,0,0,0,0,0,0,0,0,0,0,0,0,0,0,0,0,0,0,0,0,0,0,0,0,0,0,0,0,0,0,0,0,0,0,0,
0,0,0,0,0,0,0,0,0,0,0,0,0,0,0,0,0,0,0,0,0,0,0,0,0,0,0,0,0,0,0,0,0,0,0,0,0,0,0,0,0,0,0,0,0,0,0,0,0,0,0,0,0,0,0,0,0,0,0,0,0,0,0,0,0,0,0,0,0,0,0,0,0,0,0,0,0,0,0,0,0,0,0,0,0,0,0,0,0,0,0,0,0,0,0,0,0,0,0,0,
0,0,0,0,0,0,0,0,0,0,0,0,0,0,0,0,0,0,0,0,0,0,0,0,0,0,0,0,0,0,0,0,0,0,0,0,0,0,0,0,0,0,0,0,0,0,0,0,0,0,0,0,0,0,0,0,0,0,0,0,0,0,0,0,0,0,0,0,0,0,0,0,0,0,0,0,0,0,0,0,0,0,0,0,0,0,0,0,0,0,0,0,0,0,0,0,0,0,0,0,
0,0,0,0,0,0,0,0,0,0,0,0,0,0,0,0,0,0,0,0,0,0,0,0,0,0,0,0,0,0,0,0,0,0,0,0,0,0,0,0,0,0,0,0,0,0,0,0,0,0,0,0,0,0,0,0,0,0,0,0,0,0,0,0,0,0,0,0,0,0,0,0,0,0,0,0,0,0,0,0,0,0,0,0,0,0,0,0,0,0,0,0,0,0,0,0,0,0,0,0,
0,0,0,0,0,0,0,0,0,0,0,0,0,0,0,0,0,0,0,0,0,0,0,0,0,0,0,0,0,0,0,0,0,0,0,0,0,0,0,0,0,0,0,0,0,0,0,0,0,0,0,0,0,0,0,0,0,0,0,0,0,0,0,0,0,0,0,0,0,0,0,0,0,0,0,0,0,0,0,0,0,0,0,0,0,0,0,0,0,0,0,0,0,0,0,0,0,0,0,0,
0,0,0,0,0,0,0,0,0,0,0,0,0,0,0,0,0,0,0,0,0,0,0,0,0,0,0,0,0,0,0,0,0,0,0,0,0,0,0,0,0,0,0,0,0,0,0,0,0,0,0,0,0,0,0,0,0,0,0,0,0,0,0,0,0,0,0,0,0,0,0,0,0,0,0,0,0,0,0,0,0,0,0,0,0,0,0,0,0,0,0,0,0,0,0,0,0,0,0,0,
0,0,0,0,0,0,0,0,0,0,0,0,0,0,0,0,0,0,0,0,0,0,0,0,0,0,0,0,0,0,0,0,0,0,0,0,0,0,0,0,0,0,0,0,0,0,0,0,0,0,0,0,0,0,0,0,0,0,0,0,0,0,0,0,0,0,0,0,0,0,0,0,0,0,0,0,0,0,0,0,0,0,0,0,0,0,0,0,0,0,0,0,0,0,0,0,0,0,0,0,
0,0,0,0,0,0,0,0,0,0,0,0,0,0,0,0,0,0,0,0,0,0,0,0,0,0,0,0,0,0,0,0,0,0,0,0,0,0,0,0,0,0,0,0,0,0,0,0,0,0,0,0,0,0,0,0,0,0,0,0,0,0,0,0,0,0,0,0,0,0,0,0,0,0,0,0,0,0,0,0,0,0,0,0,0,0,0,0,0,0,0,0,0,0,0,0,0,0,0,0,
0,0,0,0,0,0,0,0,0,0,0,0,0,0,0,0,0,0,0,0,0,0,0,0,0,0,0,0,0,0,0,0,0,0,0,0,0,0,0,0,0,0,0,0,0,0,0,0,0,0,0,0,0,0,0,0,0,0,0,0,0,0,0,0,0,0,0,0,0,0,0,0,0,0,0,0,0,0,0,0,0,0,0,0,0,0,0,0,0,0,0,0,0,0,0,0,0,0,0,0,
0,0,0,0,0,0,0,0,0,0,0,0,0,0,0,0,0,0,0,0,0,0,0,0,0,0,0,0,0,0,0,0,0,0,0,0,0,0,0,0,0,0,0,0,0,0,0,0,0,0,0,0,0,0,0,0,0,0,0,0,0,0,0,0,0,0,0,0,0,0,0,0,0,0,0,0,0,0,0,0,0,0,0,0,0,0,0,0,0,0,0,0,0,0,0,0,0,0,0,0,
0,0,0,0,0,0,0,0,0,0,0,0,0,0,0,0,0,0,0,0,0,0,0,0,0,0,0,0,0,0,0,0,0,0,0,0,0,0,0,0,0,0,0,0,0,0,0,0,0,0,0,0,0,0,0,0,0,0,0,0,0,0,0,0,0,0,0,0,0,0,0,0,0,0,0,0,0,0,0,0,0,0,0,0,0,0,0,0,0,0,0,0,0,0,0,0,0,0,0,0,
0,0,0,0,0,0,0,0,0,0,0,0,0,0,0,0,0,0,0,0,0,0,0,0,0,0,0,0,0,0,0,0,0,0,0,0,0,0,0,0,0,0,0,0,0,0,0,0,0,0,0,0,0,0,0,0,0,0,0,0,0,0,0,0,0,0,0,0,0,0,0,0,0,0,0,0,0,0,0,0,0,0,0,0,0,0,0,0,0,0,0,0,0,0,0,0,0,0,0,0,
0,0,0,0,0,0,0,0,0,0,0,0,0,0,0,0,0,0,0,0,0,0,0,0,0,0,0,0,0,0,0,0,0,0,0,0,0,0,0,0,0,0,0,0,0,0,0,0,0,0,0,0,0,0,0,0,0,0,0,0,0,0,0,0,0,0,0,0,0,0,0,0,0,0,0,0,0,0,0,0,0,0,0,0,0,0,0,0,0,0,0,0,0,0,0,0,0,0,0,0,
0,0,0,0,0,0,0,0,0,0,0,0,0,0,0,0,0,0,0,0,0,0,0,0,0,0,0,0,0,0,0,0,0,0,0,0,0,0,0,0,0,0,0,0,0,0,0,0,0,0,0,0,0,0,0,0,0,0,0,0,0,0,0,0,0,0,0,0,0,0,0,0,0,0,0,0,0,0,0,0,0,0,0,0,0,0,0,0,0,0,0,0,0,0,0,0,0,0,0,0,
0,0,0,0,0,0,0,0,0,0,0,0,0,0,0,0,0,0,0,0,0,0,0,0,0,0,0,0,0,0,0,0,0,0,0,0,0,0,0,0,0,0,0,0,0,0,0,0,0,0,0,0,0,0,0,0,0,0,0,0,0,0,0,0,0,0,0,0,0,0,0,0,0,0,0,0,0,0,0,0,0,0,0,0,0,0,0,0,0,0,0,0,0,0,0,0,0,0,0,0,
0,0,0,0,0,0,0,0,0,0,0,0,0,0,0,0,0,0,0,0,0,0,0,0,0,0,0,0,0,0,0,0,0,0,0,0,0,0,0,0,0,0,0,0,0,0,0,0,0,0,0,0,0,0,0,0,0,0,0,0,0,0,0,0,0,0,0,0,0,0,0,0,0,0,0,0,0,0,0,0,0,0,0,0,0,0,0,0,0,0,0,0,0,0,0,0,0,0,0,0,
0,0,0,0,0,0,0,0,0,0,0,0,0,0,0,0,0,0,0,0,0,0,0,0,0,0,0,0,0,0,0,0,0,0,0,0,0,0,0,0,0,0,0,0,0,0,0,0,0,0,0,0,0,0,0,0,0,0,0,0,0,0,0,0,0,0,0,0,0,0,0,0,0,0,0,0,0,0,0,0,0,0,0,0,0,0,0,0,0,0,0,0,0,0,0,0,0,0,0,0
</data>
 </layer>
 <layer id="29" name="Ancient Fern Seed Coordinates" width="100" height="75">
  <data encoding="csv">
0,0,0,0,0,0,0,0,0,0,0,0,0,0,0,0,0,0,0,0,0,0,0,0,0,0,0,0,0,0,0,0,0,0,0,0,0,0,0,0,0,0,0,0,0,0,0,0,0,0,0,0,0,0,0,0,0,0,0,0,0,0,0,0,0,0,0,0,0,0,0,0,0,0,0,0,0,0,0,0,0,0,0,0,0,0,0,0,0,0,0,0,0,0,0,0,0,0,0,0,
0,0,0,0,0,0,0,0,0,0,0,0,0,0,0,0,0,0,0,0,0,0,0,0,0,0,0,0,0,0,0,0,0,0,0,0,0,0,0,0,0,0,0,0,0,0,0,0,0,0,0,0,0,0,0,0,0,0,0,0,0,0,0,0,0,0,0,0,0,0,0,0,0,0,0,0,0,0,0,0,0,0,0,0,0,0,0,0,0,0,0,0,0,0,0,0,0,0,0,0,
0,0,0,0,0,0,0,0,0,0,0,0,0,0,0,0,0,0,0,0,0,0,0,0,0,0,0,0,0,0,0,0,0,0,0,0,0,0,0,0,0,0,0,0,0,0,0,0,0,0,0,0,0,0,0,0,0,0,0,0,0,0,0,0,0,0,0,0,0,0,0,0,0,0,0,0,0,0,0,0,0,0,0,0,0,0,0,0,0,0,0,0,0,0,0,0,0,0,0,0,
0,0,0,0,0,0,0,0,0,0,0,0,0,0,0,0,0,0,0,0,0,0,0,0,0,0,0,0,0,0,0,0,0,0,0,0,0,0,0,0,0,0,0,0,0,0,0,0,0,0,0,0,0,0,0,0,0,0,0,0,0,0,0,0,0,0,0,0,0,0,0,0,0,0,0,0,0,0,0,0,0,0,0,0,0,0,0,0,0,0,0,0,0,0,0,0,0,0,0,0,
0,0,0,0,0,0,0,0,0,0,0,0,0,0,0,0,0,0,0,0,0,0,0,0,0,0,0,0,0,0,0,0,0,0,0,0,0,0,0,0,0,0,0,0,0,0,0,0,0,0,0,0,0,0,0,0,0,0,0,0,0,0,0,0,0,0,0,0,0,0,0,0,0,0,0,0,0,0,0,0,0,0,0,0,0,0,0,0,0,0,0,0,0,0,0,0,0,0,0,0,
0,0,0,0,0,0,0,0,0,0,0,0,0,0,0,0,0,0,0,0,0,0,0,0,0,0,0,0,0,0,0,0,0,0,0,0,0,0,0,0,0,0,0,0,0,0,0,0,0,0,0,0,0,0,0,0,0,0,0,0,0,0,0,0,0,0,0,0,0,0,0,0,0,0,0,0,0,0,0,0,0,0,0,0,0,0,0,0,0,0,0,0,0,0,0,0,0,0,0,0,
0,0,0,0,0,0,0,0,0,0,0,0,0,0,0,0,0,0,0,0,0,0,0,0,0,0,0,0,0,8,0,0,0,0,0,0,0,0,0,0,0,0,0,0,0,0,0,0,0,0,0,0,0,0,0,0,0,0,0,0,0,0,0,0,0,0,0,0,0,0,0,0,0,0,0,0,0,0,0,0,0,0,0,0,0,0,0,0,0,0,0,0,0,0,0,0,0,0,0,0,
0,0,0,0,0,0,0,0,0,0,0,0,0,0,0,0,0,0,0,0,0,0,0,0,0,0,8,0,0,0,0,0,0,0,0,0,0,0,0,0,0,0,0,0,0,0,0,0,0,0,0,0,0,0,0,0,0,0,0,0,0,0,0,0,0,0,0,0,0,0,0,0,0,0,0,0,0,0,0,0,0,0,0,0,0,0,0,0,0,0,0,0,0,0,0,0,0,0,0,0,
0,0,0,0,0,0,0,0,0,0,0,0,0,0,0,0,0,0,0,0,0,0,0,0,0,0,0,0,0,0,0,0,0,0,0,0,0,0,0,0,0,0,0,0,0,0,0,0,0,0,0,0,0,0,0,0,0,0,0,0,0,0,0,0,0,0,0,0,0,0,0,0,0,0,0,0,0,0,0,0,0,0,0,0,0,0,0,0,0,0,0,0,0,0,0,0,0,0,0,0,
0,0,0,0,0,0,0,0,0,0,0,0,0,0,0,0,0,0,0,0,0,0,0,0,0,0,0,0,0,0,0,0,0,0,0,0,0,0,0,0,0,0,0,0,0,0,0,0,0,0,0,0,0,0,0,0,0,0,0,0,0,0,0,0,0,0,0,0,0,0,0,0,0,0,0,0,0,0,0,0,0,0,0,0,0,0,0,0,0,0,0,0,0,0,0,0,0,0,0,0,
0,0,0,0,0,0,0,0,0,0,0,0,0,0,0,0,0,0,0,0,0,0,0,0,0,0,0,0,0,0,0,0,0,0,0,0,0,0,0,0,0,0,0,0,0,0,0,0,0,0,0,0,0,0,0,0,0,0,0,0,0,0,0,0,0,0,0,0,0,0,0,0,0,0,0,0,0,0,0,0,0,0,0,0,0,0,0,0,0,0,0,0,0,0,0,0,0,0,0,0,
0,0,0,0,0,0,0,0,0,0,0,0,0,0,0,0,0,0,0,0,0,0,0,0,0,0,0,0,0,0,0,0,0,0,0,0,0,0,0,0,0,0,0,0,0,0,0,0,0,0,0,0,0,0,0,0,0,0,0,0,0,0,0,0,0,0,0,0,0,0,0,0,0,0,0,0,0,0,0,0,0,0,0,0,0,0,0,0,0,0,0,0,0,0,0,0,0,0,0,0,
0,0,0,0,0,0,0,0,0,0,0,0,0,0,0,0,0,0,0,0,0,0,0,0,0,0,0,0,0,0,0,0,0,0,0,0,0,0,0,0,0,0,0,0,0,0,0,0,0,0,0,0,0,0,0,0,0,0,0,0,0,0,0,0,0,0,0,0,0,0,0,0,0,0,0,0,0,0,0,0,0,0,0,0,0,0,0,0,0,0,0,0,0,0,0,0,0,0,0,0,
0,0,0,0,0,0,0,0,0,0,0,0,0,0,0,0,0,0,0,0,0,0,0,0,0,0,0,0,0,0,0,0,0,0,0,0,0,0,0,0,0,0,0,0,0,0,0,0,0,0,0,0,0,0,0,0,0,0,0,0,0,0,0,0,0,0,0,0,0,0,0,0,0,0,0,0,0,0,0,0,0,0,0,0,0,0,0,0,0,0,0,0,0,0,0,0,0,0,0,0,
0,0,0,0,0,0,0,0,0,0,0,0,0,0,0,0,0,0,0,0,0,0,0,0,0,0,0,0,0,0,0,0,0,0,0,0,0,0,0,0,0,0,0,0,0,0,0,0,0,0,0,0,0,0,0,0,0,0,0,0,0,0,0,0,0,0,0,0,0,0,0,0,0,0,0,0,0,0,0,0,0,0,0,0,0,0,0,0,0,0,0,0,0,0,0,0,0,0,0,0,
0,0,0,0,0,0,0,0,0,0,0,0,0,0,0,0,0,0,0,0,0,0,0,0,0,0,0,0,0,0,0,0,0,0,0,0,0,0,0,0,0,0,0,0,0,0,0,0,0,0,0,0,0,0,0,0,0,0,0,0,0,0,0,0,0,0,0,0,0,0,0,0,0,0,0,0,0,0,0,0,0,0,0,0,0,0,0,0,0,0,0,0,0,0,0,0,0,0,0,0,
0,0,0,0,0,0,0,0,0,0,0,0,0,0,0,0,0,0,0,0,0,0,0,0,0,0,0,0,0,0,0,0,0,0,0,0,0,0,0,0,0,0,0,0,0,0,0,0,0,0,0,0,0,0,0,0,0,0,0,0,0,0,0,0,0,0,0,0,0,0,0,0,0,0,0,0,0,0,0,0,0,0,0,0,0,0,0,0,0,0,0,0,0,0,0,0,0,0,0,0,
0,0,0,0,0,0,0,0,0,0,0,0,0,0,0,0,0,0,0,0,0,0,0,0,0,0,0,0,0,0,0,0,0,0,0,0,0,0,0,0,0,0,0,0,0,0,0,0,0,0,0,0,0,0,0,0,0,0,0,0,0,0,0,0,0,0,0,0,0,0,0,0,0,0,0,0,0,0,0,0,0,0,0,0,0,0,0,0,0,0,0,0,0,0,0,0,0,0,0,0,
0,0,0,0,0,0,0,0,0,0,0,0,0,0,0,0,0,0,0,0,0,0,0,0,0,0,0,0,0,0,0,0,0,0,0,0,0,0,0,0,0,0,0,0,0,0,0,0,0,0,0,0,0,0,0,0,0,0,0,0,0,0,0,0,0,0,0,0,0,0,0,0,0,0,0,0,0,0,0,0,0,0,0,0,0,0,0,0,0,0,0,0,0,0,0,0,0,0,0,0,
0,0,0,0,0,0,0,0,0,0,0,0,0,0,0,0,0,0,0,0,0,0,0,0,0,0,0,0,0,0,0,0,0,0,0,0,0,0,0,0,0,0,0,0,0,0,0,0,0,0,0,0,0,0,0,0,0,0,0,0,0,0,0,0,0,0,0,0,0,0,0,0,0,0,0,0,0,0,0,0,0,0,0,0,0,0,0,0,0,0,0,0,0,0,0,0,0,0,0,0,
0,0,0,0,0,0,0,0,0,0,0,0,0,0,0,0,0,0,0,0,0,0,0,0,0,0,0,0,0,0,0,0,0,0,0,0,0,0,0,0,0,0,0,0,0,0,0,0,0,0,0,0,0,0,0,0,0,0,0,0,0,0,0,0,0,0,0,0,0,0,0,0,0,0,0,0,0,0,0,0,0,0,0,0,0,0,0,0,0,0,0,0,0,0,0,0,0,0,0,0,
0,0,0,0,0,0,0,0,0,0,0,0,0,0,0,0,0,0,0,0,0,0,0,0,0,0,0,0,0,0,0,0,0,0,0,0,0,0,0,0,0,0,0,0,0,0,0,0,0,0,0,0,0,0,0,0,0,0,0,0,0,0,0,0,0,0,0,0,0,0,0,0,0,0,0,0,0,0,0,0,0,0,0,0,0,0,0,0,0,0,0,0,0,0,0,0,0,0,0,0,
0,0,0,0,0,0,0,0,0,0,0,0,0,0,0,0,0,0,0,0,0,0,0,0,0,0,0,0,0,0,0,0,0,0,0,0,0,0,0,0,0,0,0,0,0,0,0,0,0,0,0,0,0,0,0,0,0,0,0,0,0,0,0,0,0,0,0,0,0,0,0,0,0,0,0,0,0,0,0,0,0,0,0,0,0,0,0,0,0,0,0,0,0,0,0,0,0,0,0,0,
0,0,0,0,0,0,0,0,0,0,0,0,0,0,0,0,0,0,0,0,0,0,0,0,0,0,0,0,0,0,0,0,0,0,0,0,0,0,0,0,0,0,0,0,0,0,0,0,0,0,0,0,0,0,0,0,0,0,0,0,0,0,0,0,0,0,0,0,0,0,0,0,0,0,0,0,0,0,0,0,0,0,0,0,0,0,0,0,0,0,0,0,0,0,0,0,0,0,0,0,
0,0,0,0,0,0,0,0,0,0,0,0,0,0,0,0,0,0,0,0,0,0,0,0,0,0,0,0,0,0,0,0,0,0,0,0,0,0,0,0,0,0,0,0,0,0,0,0,0,0,0,0,0,0,0,0,0,0,0,0,0,0,0,0,0,0,0,0,0,0,0,0,0,0,0,0,0,0,0,0,0,0,0,0,0,0,0,0,0,0,0,0,0,0,0,0,0,0,0,0,
0,0,0,0,0,0,0,0,0,0,0,0,0,0,0,0,0,0,0,0,0,0,0,0,0,0,0,0,0,0,0,0,0,0,0,0,0,0,0,0,0,0,0,0,0,0,0,0,0,0,0,0,0,0,0,0,0,0,0,0,0,0,0,0,0,0,0,0,0,0,0,0,0,0,0,0,0,0,0,0,0,0,0,0,0,0,0,0,0,0,0,0,0,0,0,0,0,0,0,0,
0,0,0,0,0,0,0,0,0,0,0,0,0,0,0,0,0,0,0,0,0,0,0,0,0,0,0,0,0,0,0,0,0,0,0,0,0,0,0,0,0,0,0,0,0,0,0,0,0,0,0,0,0,0,0,0,0,0,0,0,0,0,0,0,0,0,0,0,0,0,0,0,0,0,0,0,0,0,0,0,0,0,0,0,0,0,0,0,0,0,0,0,0,0,0,0,0,0,0,0,
0,0,0,0,0,0,0,0,0,0,0,0,0,0,0,0,0,0,0,0,0,0,0,0,0,0,0,0,0,0,0,0,0,0,0,0,0,0,0,0,0,0,0,0,0,0,0,0,0,0,0,0,0,0,0,0,0,0,0,0,0,0,0,0,0,0,0,0,0,0,0,0,0,0,0,0,0,0,0,0,0,0,0,0,0,0,0,0,0,0,0,0,0,0,0,0,0,0,0,0,
0,0,0,0,0,0,0,0,0,0,0,0,0,0,0,0,0,0,0,0,0,0,0,0,0,0,0,0,0,0,0,0,0,0,0,0,0,0,0,0,0,0,0,0,0,0,0,0,0,0,0,0,0,0,0,0,0,0,0,0,0,0,0,0,0,0,0,0,0,0,0,0,0,0,0,0,0,0,0,0,0,0,0,0,0,0,0,0,0,0,0,0,0,0,0,0,0,0,0,0,
0,0,0,0,0,0,0,0,0,0,0,0,0,0,0,0,0,0,0,0,0,0,0,0,0,0,0,0,0,0,0,0,0,0,0,0,0,0,0,0,0,0,0,0,0,0,0,0,0,0,0,0,0,0,0,0,0,0,0,0,0,0,0,0,0,0,0,0,0,0,0,0,0,0,0,0,0,0,0,0,0,0,0,0,0,0,0,0,0,0,0,0,0,0,0,0,0,0,0,0,
0,0,0,0,0,0,0,0,0,0,0,0,0,0,0,0,0,0,0,0,0,0,0,0,0,0,0,0,0,0,0,0,0,0,0,0,0,0,0,0,0,0,0,0,0,0,0,0,0,0,0,0,0,0,0,0,0,0,0,0,0,0,0,0,0,0,0,0,0,0,0,0,0,0,0,0,0,0,0,0,0,0,0,0,0,0,0,0,0,0,0,0,0,0,0,0,0,0,0,0,
0,0,0,0,0,0,0,0,0,0,0,0,0,0,0,0,0,0,0,0,0,0,0,0,0,0,0,0,0,0,0,0,0,0,0,0,0,0,0,0,0,0,0,0,0,0,0,0,0,0,0,0,0,0,0,0,0,0,0,0,0,0,0,0,0,0,0,0,0,0,0,0,0,0,0,0,0,0,0,0,0,0,0,0,0,0,0,0,0,0,0,0,0,0,0,0,0,0,0,0,
0,0,0,0,0,0,0,0,0,0,0,0,0,0,0,0,0,0,0,0,0,0,0,0,0,0,0,0,0,0,0,0,0,0,0,0,0,0,0,0,0,0,0,0,0,0,0,0,0,0,0,0,0,0,0,0,0,0,0,0,0,0,0,0,0,0,0,0,0,0,0,0,0,0,0,0,0,0,0,0,0,0,0,0,0,0,0,0,0,0,0,0,0,0,0,0,0,0,0,0,
0,0,0,0,0,0,0,0,0,0,0,0,0,0,0,0,0,0,0,0,0,0,0,0,0,0,0,0,0,0,0,0,0,0,0,0,0,0,0,0,0,0,0,0,0,0,0,0,0,0,0,0,0,0,0,0,0,0,0,0,0,0,0,0,0,0,0,0,0,0,0,0,0,0,0,0,0,0,0,0,0,0,0,0,0,0,0,0,0,0,0,0,0,0,0,0,0,0,0,0,
0,0,0,0,0,0,0,0,0,0,0,0,0,0,0,0,0,0,0,0,0,0,0,0,0,0,0,0,0,0,0,0,0,0,0,0,0,0,0,0,0,0,0,0,0,0,0,0,0,0,0,0,0,0,0,0,0,0,0,0,0,0,0,0,0,0,0,0,0,0,0,0,0,0,0,0,0,0,0,0,0,0,0,0,0,0,0,0,0,0,0,0,0,0,0,0,0,0,0,0,
0,0,0,0,0,0,0,0,0,0,0,0,0,0,0,0,0,0,0,0,0,0,0,0,0,0,0,0,0,0,0,0,0,0,0,0,0,0,0,0,0,0,0,0,0,0,0,0,0,0,0,0,0,0,0,0,0,0,0,0,0,0,0,0,0,0,0,0,0,0,0,0,0,0,0,0,0,0,0,0,0,0,0,0,0,0,0,0,0,0,0,0,0,0,0,0,0,0,0,0,
0,0,0,0,0,0,0,0,0,0,0,0,0,0,0,0,0,0,0,0,0,0,0,0,0,0,0,0,0,0,0,0,0,0,0,0,0,0,0,0,0,0,0,0,0,0,0,0,0,0,0,0,0,0,0,0,0,0,0,0,0,0,0,0,0,0,0,0,0,0,0,0,0,0,0,0,0,0,0,0,0,0,0,0,0,0,0,0,0,0,0,0,0,0,0,0,0,0,0,0,
0,0,0,0,0,0,0,0,0,0,0,0,0,0,0,0,0,0,0,0,0,0,0,0,0,0,0,0,0,0,0,0,0,0,0,0,0,0,0,0,0,0,0,0,0,0,0,0,0,0,0,0,0,0,0,0,0,0,0,0,0,0,0,0,0,0,0,0,0,0,0,0,0,0,0,0,0,0,0,0,0,0,0,0,0,0,0,0,0,0,0,0,0,0,0,0,0,0,0,0,
0,0,0,0,0,0,0,0,0,0,0,0,0,0,0,0,0,0,0,0,0,0,0,0,0,0,0,0,0,0,0,0,0,0,0,0,0,0,0,0,0,0,0,0,0,0,0,0,0,0,0,0,0,0,0,0,0,0,0,0,0,0,0,0,0,0,0,0,0,0,0,0,0,0,0,0,0,0,0,0,0,0,0,0,0,0,0,0,0,0,0,0,0,0,0,0,0,0,0,0,
0,0,0,0,0,0,0,0,0,0,0,0,0,0,0,0,0,0,0,0,0,0,0,0,0,0,0,0,0,0,0,0,0,0,0,0,0,0,0,0,0,0,0,0,0,0,0,0,0,0,0,0,0,0,0,0,0,0,0,0,0,0,0,0,0,0,0,0,0,0,0,0,0,0,0,0,0,0,0,0,0,0,0,0,0,0,0,0,0,0,0,0,0,0,0,0,0,0,0,0,
0,0,0,0,0,0,0,0,0,0,0,0,0,0,0,0,0,0,0,0,0,0,0,0,0,0,0,0,0,0,0,0,0,0,0,0,0,0,0,0,0,0,0,0,0,0,0,0,0,0,0,0,0,0,0,0,0,0,0,0,0,0,0,0,0,0,0,0,0,0,0,0,0,0,0,0,0,0,0,0,0,0,0,0,0,0,0,0,0,0,0,0,0,0,0,0,0,0,0,0,
0,0,0,0,0,0,0,0,0,0,0,0,0,0,0,0,0,0,0,0,0,0,0,0,0,0,0,0,0,0,0,0,0,0,0,0,0,0,0,0,0,0,0,0,0,0,0,0,0,0,0,0,0,0,0,0,0,0,0,0,0,0,0,0,0,0,0,0,0,0,0,0,0,0,0,0,0,0,0,0,0,0,0,0,0,0,0,0,0,0,0,0,0,0,0,0,0,0,0,0,
0,0,0,0,0,0,0,0,0,0,0,0,0,0,0,0,0,0,0,0,0,0,0,0,0,0,0,0,0,0,0,0,0,0,0,0,0,0,0,0,0,0,0,0,0,0,0,0,0,0,0,0,0,0,0,0,0,0,0,0,0,0,0,0,0,0,0,0,0,0,0,0,0,0,0,0,0,0,0,0,0,0,0,0,0,0,0,0,0,0,0,0,0,0,0,0,0,0,0,0,
0,0,0,0,0,0,0,0,0,0,0,0,0,0,0,0,0,0,0,0,0,0,0,0,0,0,0,0,0,0,0,0,0,0,0,0,0,0,0,0,0,0,0,0,0,0,0,0,0,0,0,0,0,0,0,0,0,0,0,0,0,0,0,0,0,0,0,0,0,0,0,0,0,0,0,0,0,0,0,0,0,0,0,0,0,0,0,0,0,0,0,0,0,0,0,0,0,0,0,0,
0,0,0,0,0,0,0,0,0,0,0,0,0,0,0,0,0,0,0,0,0,0,0,0,0,0,0,0,0,0,0,0,0,0,0,0,0,0,0,0,0,0,0,0,0,0,0,0,0,0,0,0,0,0,0,0,0,0,0,0,0,0,0,0,0,0,0,0,0,0,0,0,0,0,0,0,0,0,0,0,0,0,0,0,0,0,0,0,0,0,0,0,0,0,0,0,0,0,0,0,
0,0,0,0,0,0,0,0,0,0,0,0,0,0,0,0,0,0,0,0,0,0,0,0,0,0,0,0,0,0,0,0,0,0,0,0,0,0,0,0,0,0,0,0,0,0,0,0,0,0,0,0,0,0,0,0,0,0,0,0,0,0,0,0,0,0,0,0,0,0,0,0,0,0,0,0,0,0,0,0,0,0,0,0,0,0,0,0,0,0,0,0,0,0,0,0,0,0,0,0,
0,0,0,0,0,0,0,0,0,0,0,0,0,0,0,0,0,0,0,0,0,0,0,0,0,0,0,0,0,0,0,0,0,0,0,0,0,0,0,0,0,0,0,0,0,0,0,0,0,0,0,0,0,0,0,0,0,0,0,0,0,0,0,0,0,0,0,0,0,0,0,0,0,0,0,0,0,0,0,0,0,0,0,0,0,0,0,0,0,0,0,0,0,0,0,0,0,0,0,0,
0,0,0,0,0,0,0,0,0,0,0,0,0,0,0,0,0,0,0,0,0,0,0,0,0,0,0,0,0,0,0,0,0,0,0,0,0,0,0,0,0,0,0,0,0,0,0,0,0,0,0,0,0,0,0,0,0,0,0,0,0,0,0,0,0,0,0,0,0,0,0,0,0,0,0,0,0,0,0,0,0,0,0,0,0,0,0,0,0,0,0,0,0,0,0,0,0,0,0,0,
0,0,0,0,0,0,0,0,0,0,0,0,0,0,0,0,0,0,0,0,0,0,0,0,0,0,0,0,0,0,0,0,0,0,0,0,0,0,0,0,0,0,0,0,0,0,0,0,0,0,0,0,0,0,0,0,0,0,0,0,0,0,0,0,0,0,0,0,0,0,0,0,0,0,0,0,0,0,0,0,0,0,0,0,0,0,0,0,0,0,0,0,0,0,0,0,0,0,0,0,
0,0,0,0,0,0,0,0,0,0,0,0,0,0,0,0,0,0,0,0,0,0,0,0,0,0,0,0,0,0,0,0,0,0,0,0,0,0,0,0,0,0,0,0,0,0,0,0,0,0,0,0,0,0,0,0,0,0,0,0,0,0,0,0,0,0,0,0,0,0,0,0,0,0,0,0,0,0,0,0,0,0,0,0,0,0,0,0,0,0,0,0,0,0,0,0,0,0,0,0,
0,0,0,0,0,0,0,0,0,0,0,0,0,0,0,0,0,0,0,0,0,0,0,0,0,0,0,0,0,0,0,0,0,0,0,0,0,0,0,0,0,0,0,0,0,0,0,0,0,0,0,0,0,0,0,0,0,0,0,0,0,0,0,0,0,0,0,0,0,0,0,0,0,0,0,0,0,0,0,0,0,0,0,0,0,0,0,0,0,0,0,0,0,0,0,0,0,0,0,0,
0,0,0,0,0,0,0,0,0,0,0,0,0,0,0,0,0,0,0,0,0,0,0,0,0,0,0,0,0,0,0,0,0,0,0,0,0,0,0,0,0,0,0,0,0,0,0,0,0,0,0,0,0,0,0,0,0,0,0,0,0,0,0,0,0,0,0,0,0,0,0,0,0,0,0,0,0,0,0,0,0,0,0,0,0,0,0,0,0,0,0,0,0,0,0,0,0,0,0,0,
0,0,0,0,0,0,0,0,0,0,0,0,0,0,0,0,0,0,0,0,0,0,0,0,0,0,0,0,0,0,0,0,0,0,0,0,0,0,0,0,0,0,0,0,0,0,0,0,0,0,0,0,0,0,0,0,0,0,0,0,0,0,0,0,0,0,0,0,0,0,0,0,0,0,0,0,0,0,0,0,0,0,0,0,0,0,0,0,0,0,0,0,0,0,0,0,0,0,0,0,
0,0,0,0,0,0,0,0,0,0,0,0,0,0,0,0,0,0,0,0,0,0,0,0,0,0,0,0,0,0,0,0,0,0,0,0,0,0,0,0,0,0,0,0,0,0,0,0,0,0,0,0,0,0,0,0,0,0,0,0,0,0,0,0,0,0,0,0,0,0,0,0,0,0,0,0,0,0,0,0,0,0,0,0,0,0,0,0,0,0,0,0,0,0,0,0,0,0,0,0,
0,0,0,0,0,0,0,0,0,0,0,0,0,0,0,0,0,0,0,0,0,0,0,0,0,0,0,0,0,0,0,0,0,0,0,0,0,0,0,0,0,0,0,0,0,0,0,0,0,0,0,0,0,0,0,0,0,0,0,0,0,0,0,0,0,0,0,0,0,0,0,0,0,0,0,0,0,0,0,0,0,0,0,0,0,0,0,0,0,0,0,0,0,0,0,0,0,0,0,0,
0,0,0,0,0,0,0,0,0,0,0,0,0,0,0,0,0,0,0,0,0,0,0,0,0,0,0,0,0,0,0,0,0,0,0,0,0,0,0,0,0,0,0,0,0,0,0,0,0,0,0,0,0,0,0,0,0,0,0,0,0,0,0,0,0,0,0,0,0,0,0,0,0,0,0,0,0,0,0,0,0,0,0,0,0,0,0,0,0,0,0,0,0,0,0,0,0,0,0,0,
0,0,0,0,0,0,0,0,0,0,0,0,0,0,0,0,0,0,0,0,0,0,0,0,0,0,0,0,0,0,0,0,0,0,0,0,0,0,0,0,0,0,0,0,0,0,0,0,0,0,0,0,0,0,0,0,0,0,0,0,0,0,0,0,0,0,0,0,0,0,0,0,0,0,0,0,0,0,0,0,0,0,0,0,0,0,0,0,0,0,0,0,0,0,0,0,0,0,0,0,
0,0,0,0,0,0,0,0,0,0,0,0,0,0,0,0,0,0,0,0,0,0,0,0,0,0,0,0,0,0,0,0,0,0,0,0,0,0,0,0,0,0,0,0,0,0,0,0,0,0,0,0,0,0,0,0,0,0,0,0,0,0,0,0,0,0,0,0,0,0,0,0,0,0,0,0,0,0,0,0,0,0,0,0,0,0,0,0,0,0,0,0,0,0,0,0,0,0,0,0,
0,0,0,0,0,0,0,0,0,0,0,0,0,0,0,0,0,0,0,0,0,0,0,0,0,0,0,0,0,0,0,0,0,0,0,0,0,0,0,0,0,0,0,0,0,0,0,0,0,0,0,0,0,0,0,0,0,0,0,0,0,0,0,0,0,0,0,0,0,0,0,0,0,0,0,0,0,0,0,0,0,0,0,0,0,0,0,0,0,0,0,0,0,0,0,0,0,0,0,0,
0,0,0,0,0,0,0,0,0,0,0,0,0,0,0,0,0,0,0,0,0,0,0,0,0,0,0,0,0,0,0,0,0,0,0,0,0,0,0,0,0,0,0,0,0,0,0,0,0,0,0,0,0,0,0,0,0,0,0,0,0,0,0,0,0,0,0,0,0,0,0,0,0,0,0,0,0,0,0,0,0,0,0,0,0,0,0,0,0,0,0,0,0,0,0,0,0,0,0,0,
0,0,0,0,0,0,0,0,0,0,0,0,0,0,0,0,0,0,0,0,0,0,0,0,0,0,0,0,0,0,0,0,0,0,0,0,0,0,0,0,0,0,0,0,0,0,0,0,0,0,0,0,0,0,0,0,0,0,0,0,0,0,0,0,0,0,0,0,0,0,0,0,0,0,0,0,0,0,0,0,0,0,0,0,0,0,0,0,0,0,0,0,0,0,0,0,0,0,0,0,
0,0,0,0,0,0,0,0,0,0,0,0,0,0,0,0,0,0,0,0,0,0,0,0,0,0,0,0,0,0,0,0,0,0,0,0,0,0,0,0,0,0,0,0,0,0,0,0,0,0,0,0,0,0,0,0,0,0,0,0,0,0,0,0,0,0,0,0,0,0,0,0,0,0,0,0,0,0,0,0,0,0,0,0,0,0,0,0,0,0,0,0,0,0,0,0,0,0,0,0,
0,0,0,0,0,0,0,0,0,0,0,0,0,0,0,0,0,0,0,0,0,0,0,0,0,0,0,0,0,0,0,0,0,0,0,0,0,0,0,0,0,0,0,0,0,0,0,0,0,0,0,0,0,0,0,0,0,0,0,0,0,0,0,0,0,0,0,0,0,0,0,0,0,0,0,0,0,0,0,0,0,0,0,0,0,0,0,0,0,0,0,0,0,0,0,0,0,0,0,0,
0,0,0,0,0,0,0,0,0,0,0,0,0,0,0,0,0,0,0,0,0,0,0,0,0,0,0,0,0,0,0,0,0,0,0,0,0,0,0,0,0,0,0,0,0,0,0,0,0,0,0,0,0,0,0,0,0,0,0,0,0,0,0,0,0,0,0,0,0,0,0,0,0,0,0,0,0,0,0,0,0,0,0,0,0,0,0,0,0,0,0,0,0,0,0,0,0,0,0,0,
0,0,0,0,0,0,0,0,0,0,0,0,0,0,0,0,0,0,0,0,0,0,0,0,0,0,0,0,0,0,0,0,0,0,0,0,0,0,0,0,0,0,0,0,0,0,0,0,0,0,0,0,0,0,0,0,0,0,0,0,0,0,0,0,0,0,0,0,0,0,0,0,0,0,0,0,0,0,0,0,0,0,0,0,0,0,0,0,0,0,0,0,0,0,0,0,0,0,0,0,
0,0,0,0,0,0,0,0,0,0,0,0,0,0,0,0,0,0,0,0,0,0,0,0,0,0,0,0,0,0,0,0,0,0,0,0,0,0,0,0,0,0,0,0,0,0,0,0,0,0,0,0,0,0,0,0,0,0,0,0,0,0,0,0,0,0,0,0,0,0,0,0,0,0,0,0,0,0,0,0,0,0,0,0,0,0,0,0,0,0,0,0,0,0,0,0,0,0,0,0,
0,0,0,0,0,0,0,0,0,0,0,0,0,0,0,0,0,0,0,0,0,0,0,0,0,0,0,0,0,0,0,0,0,0,0,0,0,0,0,0,0,0,0,0,0,0,0,0,0,0,0,0,0,0,0,0,0,0,0,0,0,0,0,0,0,0,0,0,0,0,0,0,0,0,0,0,0,0,0,0,0,0,0,0,0,0,0,0,0,0,0,0,0,0,0,0,0,0,0,0,
0,0,0,0,0,0,0,0,0,0,0,0,0,0,0,0,0,0,0,0,0,0,0,0,0,0,0,0,0,0,0,0,0,0,0,0,0,0,0,0,0,0,0,0,0,0,0,0,0,0,0,0,0,0,0,0,0,0,0,0,0,0,0,0,0,0,0,0,0,0,0,0,0,0,0,0,0,0,0,0,0,0,0,0,0,0,0,0,0,0,0,0,0,0,0,0,0,0,0,0,
0,0,0,0,0,0,0,0,0,0,0,0,0,0,0,0,0,0,0,0,0,0,0,0,0,0,0,0,0,0,0,0,0,0,0,0,0,0,0,0,0,0,0,0,0,0,0,0,0,0,0,0,0,0,0,0,0,0,0,0,0,0,0,0,0,0,0,0,0,0,0,0,0,0,0,0,0,0,0,0,0,0,0,0,0,0,0,0,0,0,0,0,0,0,0,0,0,0,0,0,
0,0,0,0,0,0,0,0,0,0,0,0,0,0,0,0,0,0,0,0,0,0,0,0,0,0,0,0,0,0,0,0,0,0,0,0,0,0,0,0,0,0,0,0,0,0,0,0,0,0,0,0,0,0,0,0,0,0,0,0,0,0,0,0,0,0,0,0,0,0,0,0,0,0,0,0,0,0,0,0,0,0,0,0,0,0,0,0,0,0,0,0,0,0,0,0,0,0,0,0,
0,0,0,0,0,0,0,0,0,0,0,0,0,0,0,0,0,0,0,0,0,0,0,0,0,0,0,0,0,0,0,0,0,0,0,0,0,0,0,0,0,0,0,0,0,0,0,0,0,0,0,0,0,0,0,0,0,0,0,0,0,0,0,0,0,0,0,0,0,0,0,0,0,0,0,0,0,0,0,0,0,0,0,0,0,0,0,0,0,0,0,0,0,0,0,0,0,0,0,0,
0,0,0,0,0,0,0,0,0,0,0,0,0,0,0,0,0,0,0,0,0,0,0,0,0,0,0,0,0,0,0,0,0,0,0,0,0,0,0,0,0,0,0,0,0,0,0,0,0,0,0,0,0,0,0,0,0,0,0,0,0,0,0,0,0,0,0,0,0,0,0,0,0,0,0,0,0,0,0,0,0,0,0,0,0,0,0,0,0,0,0,0,0,0,0,0,0,0,0,0,
0,0,0,0,0,0,0,0,0,0,0,0,0,0,0,0,0,0,0,0,0,0,0,0,0,0,0,0,0,0,0,0,0,0,0,0,0,0,0,0,0,0,0,0,0,0,0,0,0,0,0,0,0,0,0,0,0,0,0,0,0,0,0,0,0,0,0,0,0,0,0,0,0,0,0,0,0,0,0,0,0,0,0,0,0,0,0,0,0,0,0,0,0,0,0,0,0,0,0,0,
0,0,0,0,0,0,0,0,0,0,0,0,0,0,0,0,0,0,0,0,0,0,0,0,0,0,0,0,0,0,0,0,0,0,0,0,0,0,0,0,0,0,0,0,0,0,0,0,0,0,0,0,0,0,0,0,0,0,0,0,0,0,0,0,0,0,0,0,0,0,0,0,0,0,0,0,0,0,0,0,0,0,0,0,0,0,0,0,0,0,0,0,0,0,0,0,0,0,0,0,
0,0,0,0,0,0,0,0,0,0,0,0,0,0,0,0,0,0,0,0,0,0,0,0,0,0,0,0,0,0,0,0,0,0,0,0,0,0,0,0,0,0,0,0,0,0,0,0,0,0,0,0,0,0,0,0,0,0,0,0,0,0,0,0,0,0,0,0,0,0,0,0,0,0,0,0,0,0,0,0,0,0,0,0,0,0,0,0,0,0,0,0,0,0,0,0,0,0,0,0
</data>
 </layer>
 <objectgroup id="10" name="Back" visible="0">
  <object id="3078" x="752" y="496" width="16" height="16">
   <properties>
    <property name="NoSpawn" value="All"/>
   </properties>
  </object>
  <object id="3079" x="768" y="496" width="16" height="16">
   <properties>
    <property name="NoSpawn" value="All"/>
   </properties>
  </object>
  <object id="3080" x="752" y="512" width="16" height="16">
   <properties>
    <property name="NoSpawn" value="All"/>
   </properties>
  </object>
  <object id="3081" x="768" y="512" width="16" height="16">
   <properties>
    <property name="NoSpawn" value="All"/>
   </properties>
  </object>
  <object id="3082" x="752" y="528" width="16" height="16">
   <properties>
    <property name="NoSpawn" value="All"/>
   </properties>
  </object>
  <object id="3083" x="768" y="528" width="16" height="16">
   <properties>
    <property name="NoSpawn" value="All"/>
   </properties>
  </object>
  <object id="3084" x="752" y="544" width="16" height="16">
   <properties>
    <property name="NoSpawn" value="All"/>
   </properties>
  </object>
  <object id="3085" x="768" y="544" width="16" height="16">
   <properties>
    <property name="NoSpawn" value="All"/>
   </properties>
  </object>
  <object id="3088" x="1008" y="480" width="16" height="16">
   <properties>
    <property name="NoSpawn" value="All"/>
   </properties>
  </object>
  <object id="3089" x="1024" y="480" width="16" height="16">
   <properties>
    <property name="NoSpawn" value="All"/>
   </properties>
  </object>
  <object id="3090" x="1376" y="416" width="16" height="16">
   <properties>
    <property name="NoSpawn" value="All"/>
   </properties>
  </object>
  <object id="3091" x="1376" y="400" width="16" height="16">
   <properties>
    <property name="NoSpawn" value="All"/>
   </properties>
  </object>
  <object id="3092" x="1328" y="416" width="16" height="16">
   <properties>
    <property name="NoSpawn" value="All"/>
   </properties>
  </object>
  <object id="3093" x="1328" y="400" width="16" height="16">
   <properties>
    <property name="NoSpawn" value="All"/>
   </properties>
  </object>
  <object id="3094" name="TileData" x="752" y="960" width="16" height="16">
   <properties>
    <property name="Passable" value="t"/>
   </properties>
  </object>
  <object id="3095" name="TileData" x="752" y="928" width="16" height="16">
   <properties>
    <property name="Passable" value="t"/>
   </properties>
  </object>
  <object id="3096" name="TileData" x="752" y="912" width="16" height="16">
   <properties>
    <property name="Passable" value="t"/>
   </properties>
  </object>
  <object id="3097" name="TileData" x="832" y="960" width="16" height="16">
   <properties>
    <property name="Passable" value="t"/>
   </properties>
  </object>
  <object id="3098" name="TileData" x="832" y="928" width="16" height="16">
   <properties>
    <property name="Passable" value="t"/>
   </properties>
  </object>
  <object id="3099" name="TileData" x="832" y="912" width="16" height="16">
   <properties>
    <property name="Passable" value="t"/>
   </properties>
  </object>
  <object id="3100" name="TileData" x="768" y="912" width="16" height="16">
   <properties>
    <property name="Passable" value="t"/>
   </properties>
  </object>
  <object id="3101" name="TileData" x="816" y="912" width="16" height="16">
   <properties>
    <property name="Passable" value="t"/>
   </properties>
  </object>
  <object id="3112" x="1376" y="896" width="16" height="16">
   <properties>
    <property name="NoSpawn" value="All"/>
   </properties>
  </object>
  <object id="3113" x="1392" y="896" width="16" height="16">
   <properties>
    <property name="NoSpawn" value="All"/>
   </properties>
  </object>
  <object id="3114" x="1392" y="880" width="16" height="16">
   <properties>
    <property name="NoSpawn" value="All"/>
   </properties>
  </object>
  <object id="3115" x="1376" y="880" width="16" height="16">
   <properties>
    <property name="NoSpawn" value="All"/>
   </properties>
  </object>
  <object id="3116" x="1584" y="528" width="16" height="16">
   <properties>
    <property name="NoSpawn" value="All"/>
   </properties>
  </object>
  <object id="3117" x="1568" y="528" width="16" height="16">
   <properties>
    <property name="NoSpawn" value="All"/>
   </properties>
  </object>
  <object id="3118" x="1568" y="544" width="16" height="16">
   <properties>
    <property name="NoSpawn" value="All"/>
   </properties>
  </object>
  <object id="3119" x="1568" y="560" width="16" height="16">
   <properties>
    <property name="NoSpawn" value="All"/>
   </properties>
  </object>
  <object id="3120" x="1584" y="560" width="16" height="16">
   <properties>
    <property name="NoSpawn" value="All"/>
   </properties>
  </object>
  <object id="3121" x="1584" y="544" width="16" height="16">
   <properties>
    <property name="NoSpawn" value="All"/>
   </properties>
  </object>
  <object id="3122" name="TileData" x="1520" y="1056" width="16" height="16">
   <properties>
    <property name="Passable" value="t"/>
   </properties>
  </object>
  <object id="3123" x="784" y="928" width="16" height="16">
   <properties>
    <property name="NoSpawn" value="All"/>
   </properties>
  </object>
  <object id="3124" x="800" y="928" width="16" height="16">
   <properties>
    <property name="NoSpawn" value="All"/>
   </properties>
  </object>
  <object id="3125" x="800" y="912" width="16" height="16">
   <properties>
    <property name="NoSpawn" value="All"/>
   </properties>
  </object>
  <object id="3126" x="784" y="912" width="16" height="16">
   <properties>
    <property name="NoSpawn" value="All"/>
   </properties>
  </object>
  <object id="3127" x="784" y="896" width="16" height="16">
   <properties>
    <property name="NoSpawn" value="All"/>
   </properties>
  </object>
  <object id="3128" x="800" y="896" width="16" height="16">
   <properties>
    <property name="NoSpawn" value="All"/>
   </properties>
  </object>
  <object id="3129" x="784" y="880" width="16" height="16">
   <properties>
    <property name="NoSpawn" value="All"/>
   </properties>
  </object>
  <object id="3130" x="800" y="880" width="16" height="16">
   <properties>
    <property name="NoSpawn" value="All"/>
   </properties>
  </object>
  <object id="3131" x="1136" y="0" width="16" height="16">
   <properties>
    <property name="NoSpawn" value="All"/>
   </properties>
  </object>
  <object id="3132" x="1168" y="0" width="16" height="16">
   <properties>
    <property name="NoSpawn" value="All"/>
   </properties>
  </object>
  <object id="3133" x="1152" y="0" width="16" height="16">
   <properties>
    <property name="NoSpawn" value="All"/>
   </properties>
  </object>
  <object id="3134" x="1168" y="16" width="16" height="16">
   <properties>
    <property name="NoSpawn" value="All"/>
   </properties>
  </object>
  <object id="3135" x="1152" y="16" width="16" height="16">
   <properties>
    <property name="NoSpawn" value="All"/>
   </properties>
  </object>
  <object id="3136" x="1136" y="16" width="16" height="16">
   <properties>
    <property name="NoSpawn" value="All"/>
   </properties>
  </object>
  <object id="3137" x="1552" y="528" width="16" height="16">
   <properties>
    <property name="NoSpawn" value="All"/>
   </properties>
  </object>
  <object id="3138" x="1552" y="544" width="16" height="16">
   <properties>
    <property name="NoSpawn" value="All"/>
   </properties>
  </object>
  <object id="3139" x="1552" y="560" width="16" height="16">
   <properties>
    <property name="NoSpawn" value="All"/>
   </properties>
  </object>
  <object id="3140" x="1136" y="32" width="16" height="16">
   <properties>
    <property name="NoSpawn" value="All"/>
   </properties>
  </object>
  <object id="3141" x="1152" y="32" width="16" height="16">
   <properties>
    <property name="NoSpawn" value="All"/>
   </properties>
  </object>
  <object id="3142" x="1168" y="32" width="16" height="16">
   <properties>
    <property name="NoSpawn" value="All"/>
   </properties>
  </object>
  <object id="3144" x="1552" y="512" width="16" height="16">
   <properties>
    <property name="NoSpawn" value="All"/>
   </properties>
  </object>
  <object id="3145" x="144" y="384" width="16" height="16">
   <properties>
    <property name="NoSpawn" value="All"/>
   </properties>
  </object>
  <object id="3146" x="1456" y="432" width="16" height="16">
   <properties>
    <property name="NoSpawn" value="All"/>
   </properties>
  </object>
  <object id="3147" x="1456" y="416" width="16" height="16">
   <properties>
    <property name="NoSpawn" value="All"/>
   </properties>
  </object>
  <object id="3161" name="TileData" x="784" y="944" width="16" height="16">
   <properties>
    <property name="TouchAction" value="mushymato.MMAP_Critter Firefly T 3"/>
   </properties>
  </object>
  <object id="3162" name="TileData" x="800" y="944" width="16" height="16">
   <properties>
    <property name="TouchAction" value="mushymato.MMAP_Critter Firefly T 3"/>
   </properties>
  </object>
  <object id="3163" name="TileData" x="784" y="704" width="16" height="16">
   <properties>
    <property name="TouchAction" value="mushymato.MMAP_Critter Firefly T 3"/>
   </properties>
  </object>
  <object id="3164" name="TileData" x="912" y="496" width="16" height="16">
   <properties>
    <property name="TouchAction" value="mushymato.MMAP_Critter Firefly T 3"/>
   </properties>
  </object>
  <object id="3166" name="TileData" x="288" y="848" width="16" height="16">
   <properties>
    <property name="Passable" value="t"/>
   </properties>
  </object>
  <object id="3169" name="TileData" x="1536" y="592" width="16" height="16">
   <properties>
    <property name="mushymato.MMAP_Critter" value="Birdie T 1"/>
   </properties>
  </object>
  <object id="3170" name="TileData" x="1104" y="96" width="16" height="16">
   <properties>
    <property name="mushymato.MMAP_Critter" value="Birdie T 1"/>
   </properties>
  </object>
  <object id="3171" name="TileData" x="1536" y="992" width="16" height="16">
   <properties>
    <property name="mushymato.MMAP_Critter" value="Seagull T 1"/>
   </properties>
  </object>
  <object id="3174" x="304" y="736" width="16" height="16">
   <properties>
    <property name="NoSpawn" value="All"/>
   </properties>
  </object>
  <object id="3177" x="688" y="720" width="16" height="16">
   <properties>
    <property name="NoSpawn" value="All"/>
   </properties>
  </object>
  <object id="3178" x="688" y="736" width="16" height="16">
   <properties>
    <property name="NoSpawn" value="All"/>
   </properties>
  </object>
  <object id="3179" x="752" y="768" width="16" height="16">
   <properties>
    <property name="NoSpawn" value="All"/>
   </properties>
  </object>
  <object id="3180" x="752" y="784" width="16" height="16">
   <properties>
    <property name="NoSpawn" value="All"/>
   </properties>
  </object>
  <object id="3181" x="832" y="768" width="16" height="16">
   <properties>
    <property name="NoSpawn" value="All"/>
   </properties>
  </object>
  <object id="3182" x="832" y="784" width="16" height="16">
   <properties>
    <property name="NoSpawn" value="All"/>
   </properties>
  </object>
  <object id="3186" x="688" y="832" width="16" height="16">
   <properties>
    <property name="NoSpawn" value="All"/>
   </properties>
  </object>
  <object id="3187" x="688" y="848" width="16" height="16">
   <properties>
    <property name="NoSpawn" value="All"/>
   </properties>
  </object>
  <object id="3189" x="1520" y="896" width="16" height="16">
   <properties>
    <property name="NoSpawn" value="All"/>
   </properties>
  </object>
  <object id="3190" x="1520" y="912" width="16" height="16">
   <properties>
    <property name="NoSpawn" value="All"/>
   </properties>
  </object>
  <object id="3191" x="1520" y="928" width="16" height="16">
   <properties>
    <property name="NoSpawn" value="All"/>
   </properties>
  </object>
  <object id="3192" name="TileData" x="1568" y="1008" width="16" height="16">
   <properties>
    <property name="mushymato.MMAP_Critter" value="Seagull T 1"/>
   </properties>
  </object>
  <object id="3193" name="TileData" x="1552" y="32" width="16" height="16">
   <properties>
    <property name="mushymato.MMAP_Critter" value="Birdie T 1"/>
   </properties>
  </object>
  <object id="3201" name="TileData" x="1040" y="336" width="16" height="16">
   <properties>
    <property name="NoSpawn" value="All"/>
    <property name="TouchAction" value="mushymato.MMAP_Critter Firefly T 3"/>
   </properties>
  </object>
  <object id="3208" x="1536" y="64" width="16" height="16">
   <properties>
    <property name="NoSpawn" value="All"/>
   </properties>
  </object>
  <object id="3209" x="1536" y="48" width="16" height="16">
   <properties>
    <property name="NoSpawn" value="All"/>
   </properties>
  </object>
  <object id="3210" x="1536" y="432" width="16" height="16">
   <properties>
    <property name="NoSpawn" value="All"/>
   </properties>
  </object>
  <object id="3211" x="1536" y="416" width="16" height="16">
   <properties>
    <property name="NoSpawn" value="All"/>
   </properties>
  </object>
  <object id="3212" x="1536" y="400" width="16" height="16">
   <properties>
    <property name="NoSpawn" value="All"/>
   </properties>
  </object>
  <object id="3213" x="1008" y="496" width="16" height="16">
   <properties>
    <property name="NoSpawn" value="All"/>
   </properties>
  </object>
  <object id="3214" x="1024" y="496" width="16" height="16">
   <properties>
    <property name="NoSpawn" value="All"/>
   </properties>
  </object>
  <object id="3215" x="1360" y="400" width="16" height="16">
   <properties>
    <property name="NoSpawn" value="All"/>
   </properties>
  </object>
  <object id="3216" x="1344" y="400" width="16" height="16">
   <properties>
    <property name="NoSpawn" value="All"/>
   </properties>
  </object>
  <object id="3217" x="1392" y="416" width="16" height="16">
   <properties>
    <property name="NoSpawn" value="All"/>
   </properties>
  </object>
  <object id="3218" x="1408" y="416" width="16" height="16">
   <properties>
    <property name="NoSpawn" value="All"/>
   </properties>
  </object>
  <object id="3219" x="1424" y="416" width="16" height="16">
   <properties>
    <property name="NoSpawn" value="All"/>
   </properties>
  </object>
  <object id="3220" x="1440" y="416" width="16" height="16">
   <properties>
    <property name="NoSpawn" value="All"/>
   </properties>
  </object>
  <object id="3221" x="1312" y="416" width="16" height="16">
   <properties>
    <property name="NoSpawn" value="All"/>
   </properties>
  </object>
  <object id="3228" x="1248" y="400" width="16" height="16">
   <properties>
    <property name="NoSpawn" value="All"/>
   </properties>
  </object>
  <object id="3229" x="1248" y="416" width="16" height="16">
   <properties>
    <property name="NoSpawn" value="All"/>
   </properties>
  </object>
  <object id="3230" x="1248" y="432" width="16" height="16">
   <properties>
    <property name="NoSpawn" value="All"/>
   </properties>
  </object>
  <object id="3231" x="1232" y="432" width="16" height="16">
   <properties>
    <property name="NoSpawn" value="All"/>
   </properties>
  </object>
  <object id="3232" x="1232" y="416" width="16" height="16">
   <properties>
    <property name="NoSpawn" value="All"/>
   </properties>
  </object>
  <object id="3233" x="1216" y="416" width="16" height="16">
   <properties>
    <property name="NoSpawn" value="All"/>
   </properties>
  </object>
  <object id="3234" x="1216" y="432" width="16" height="16">
   <properties>
    <property name="NoSpawn" value="All"/>
   </properties>
  </object>
  <object id="3235" x="1200" y="416" width="16" height="16">
   <properties>
    <property name="NoSpawn" value="All"/>
   </properties>
  </object>
  <object id="3236" x="1344" y="416" width="16" height="16">
   <properties>
    <property name="NoSpawn" value="All"/>
   </properties>
  </object>
  <object id="3237" x="1360" y="416" width="16" height="16">
   <properties>
    <property name="NoSpawn" value="All"/>
   </properties>
  </object>
  <object id="3238" x="1312" y="400" width="16" height="16">
   <properties>
    <property name="NoSpawn" value="All"/>
   </properties>
  </object>
  <object id="3239" x="1264" y="432" width="16" height="16">
   <properties>
    <property name="NoSpawn" value="All"/>
   </properties>
  </object>
  <object id="3240" x="1424" y="400" width="16" height="16">
   <properties>
    <property name="NoSpawn" value="All"/>
   </properties>
  </object>
  <object id="3241" x="1440" y="400" width="16" height="16">
   <properties>
    <property name="NoSpawn" value="All"/>
   </properties>
  </object>
  <object id="3242" x="1440" y="432" width="16" height="16">
   <properties>
    <property name="NoSpawn" value="All"/>
   </properties>
  </object>
  <object id="3243" x="1296" y="432" width="16" height="16">
   <properties>
    <property name="NoSpawn" value="All"/>
   </properties>
  </object>
  <object id="3244" x="1312" y="432" width="16" height="16">
   <properties>
    <property name="NoSpawn" value="All"/>
   </properties>
  </object>
  <object id="3245" x="1392" y="432" width="16" height="16">
   <properties>
    <property name="NoSpawn" value="All"/>
   </properties>
  </object>
  <object id="3246" x="1408" y="432" width="16" height="16">
   <properties>
    <property name="NoSpawn" value="All"/>
   </properties>
  </object>
  <object id="3248" x="1248" y="448" width="16" height="16">
   <properties>
    <property name="NoSpawn" value="All"/>
   </properties>
  </object>
  <object id="3249" x="1232" y="448" width="16" height="16">
   <properties>
    <property name="NoSpawn" value="All"/>
   </properties>
  </object>
  <object id="3250" x="1200" y="432" width="16" height="16">
   <properties>
    <property name="NoSpawn" value="All"/>
   </properties>
  </object>
  <object id="3251" x="1200" y="400" width="16" height="16">
   <properties>
    <property name="NoSpawn" value="All"/>
   </properties>
  </object>
  <object id="3252" x="1232" y="400" width="16" height="16">
   <properties>
    <property name="NoSpawn" value="All"/>
   </properties>
  </object>
  <object id="3253" x="1216" y="400" width="16" height="16">
   <properties>
    <property name="NoSpawn" value="All"/>
   </properties>
  </object>
  <object id="3254" x="1264" y="384" width="16" height="16">
   <properties>
    <property name="NoSpawn" value="All"/>
   </properties>
  </object>
  <object id="3255" x="1280" y="384" width="16" height="16">
   <properties>
    <property name="NoSpawn" value="All"/>
   </properties>
  </object>
  <object id="3256" x="1360" y="384" width="16" height="16">
   <properties>
    <property name="NoSpawn" value="All"/>
   </properties>
  </object>
  <object id="3257" x="1392" y="400" width="16" height="16">
   <properties>
    <property name="NoSpawn" value="All"/>
   </properties>
  </object>
  <object id="3258" x="1184" y="416" width="16" height="16">
   <properties>
    <property name="NoSpawn" value="All"/>
   </properties>
  </object>
  <object id="3259" x="784" y="480" width="16" height="16">
   <properties>
    <property name="NoSpawn" value="All"/>
   </properties>
  </object>
  <object id="3260" x="800" y="480" width="16" height="16">
   <properties>
    <property name="NoSpawn" value="All"/>
   </properties>
  </object>
  <object id="3261" x="800" y="464" width="16" height="16">
   <properties>
    <property name="NoSpawn" value="All"/>
   </properties>
  </object>
  <object id="3263" x="1008" y="304" width="16" height="16">
   <properties>
    <property name="NoSpawn" value="All"/>
   </properties>
  </object>
  <object id="3264" x="992" y="304" width="16" height="16">
   <properties>
    <property name="NoSpawn" value="All"/>
   </properties>
  </object>
  <object id="3265" x="992" y="288" width="16" height="16">
   <properties>
    <property name="NoSpawn" value="All"/>
   </properties>
  </object>
  <object id="3266" x="1008" y="288" width="16" height="16">
   <properties>
    <property name="NoSpawn" value="All"/>
   </properties>
  </object>
  <object id="3267" x="608" y="528" width="16" height="16">
   <properties>
    <property name="NoSpawn" value="All"/>
   </properties>
  </object>
  <object id="3269" x="544" y="496" width="16" height="16">
   <properties>
    <property name="NoSpawn" value="All"/>
   </properties>
  </object>
  <object id="3270" x="992" y="272" width="16" height="16">
   <properties>
    <property name="NoSpawn" value="All"/>
   </properties>
  </object>
  <object id="3271" x="1024" y="288" width="16" height="16">
   <properties>
    <property name="NoSpawn" value="All"/>
   </properties>
  </object>
 </objectgroup>
 <objectgroup id="12" name="Buildings"/>
 <objectgroup id="14" name="Front"/>
 <objectgroup id="15" name="AlwaysFront"/>
 <objectgroup id="18" name="Paths" visible="0">
  <object id="3199" name="TileData" x="880" y="832" width="16" height="16">
   <properties>
    <property name="SpawnTree" value="fruit 631 5"/>
   </properties>
  </object>
  <object id="3200" name="TileData" x="1456" y="512" width="16" height="16">
   <properties>
    <property name="SpawnTree" value="fruit 630 5"/>
   </properties>
  </object>
  <object id="3202" name="TileData" x="272" y="752" width="16" height="16">
   <properties>
    <property name="SpawnTree" value="fruit 629 5"/>
   </properties>
  </object>
  <object id="3203" name="TileData" x="160" y="304" width="16" height="16">
   <properties>
    <property name="SpawnTree" value="fruit 628 5"/>
   </properties>
  </object>
  <object id="3204" name="TileData" x="944" y="256" width="16" height="16">
   <properties>
    <property name="SpawnTree" value="fruit 632 5"/>
   </properties>
  </object>
  <object id="3205" name="TileData" x="656" y="784" width="16" height="16">
   <properties>
    <property name="SpawnTree" value="fruit 633 5"/>
   </properties>
  </object>
  <object id="3206" name="TileData" x="1424" y="864" width="16" height="16">
   <properties>
    <property name="SpawnTree" value="fruit 69 5"/>
   </properties>
  </object>
  <object id="3207" name="TileData" x="352" y="784" width="16" height="16">
   <properties>
    <property name="SpawnTree" value="fruit 835 5"/>
   </properties>
  </object>
 </objectgroup>
</map>
