<?xml version="1.0" encoding="UTF-8"?>
<map version="1.10" tiledversion="1.12.1" orientation="orthogonal" renderorder="left-down" width="10" height="10" tilewidth="16" tileheight="16" infinite="0" nextlayerid="13" nextobjectid="1">
 <tileset firstgid="1" name="townInterior" tilewidth="16" tileheight="16" tilecount="2176" columns="32">
  <image source="Tilesheet/townInterior.png" width="512" height="1088"/>
 </tileset>
 <tileset firstgid="2177" name="townInterior_2" tilewidth="16" tileheight="16" tilecount="1312" columns="32">
  <image source="Tilesheet/townInterior_2.png" width="512" height="656"/>
 </tileset>
 <layer id="1" name="Back" width="10" height="10">
  <data encoding="csv">
0,0,0,0,0,0,0,0,0,0,
0,200,201,201,201,201,201,0,0,0,
200,201,201,233,233,233,233,201,201,201,
232,233,233,265,265,265,265,233,233,233,
264,265,265,232,232,264,265,265,265,265,
264,264,264,264,264,264,264,264,264,265,
264,265,265,233,233,233,233,233,233,233,
200,264,265,265,265,265,265,265,265,265,
232,232,232,232,232,232,232,232,264,265,
264,264,264,264,264,264,264,264,264,265
</data>
 </layer>
 <layer id="12" name="Back2" width="10" height="10">
  <data encoding="csv">
0,0,0,0,0,0,0,0,0,0,
0,200,201,201,201,201,201,0,0,0,
200,201,201,233,233,233,233,201,201,201,
232,233,233,265,265,265,265,233,233,233,
264,265,265,232,2417,2418,265,265,265,265,
264,264,264,264,2449,2450,264,264,264,265,
264,265,265,233,2481,2482,233,233,233,233,
200,264,265,265,265,265,265,265,265,265,
232,232,232,232,232,232,232,232,264,265,
264,264,264,264,264,264,264,264,264,265
</data>
 </layer>
 <layer id="2" name="Buildings" width="10" height="10">
  <data encoding="csv">
1,2,3,3,3,3,3,3,4,1,
33,34,35,35,35,35,35,35,36,37,
65,66,67,67,67,67,67,67,68,69,
65,98,99,99,99,99,99,99,100,69,
65,130,0,0,0,0,0,0,132,69,
65,2867,0,0,0,0,0,0,0,69,
65,2899,0,0,0,0,0,0,2765,69,
65,2931,0,0,0,0,0,0,0,69,
65,0,0,0,0,0,0,0,0,69,
65,0,0,0,0,0,0,2639,2640,69
</data>
 </layer>
 <layer id="11" name="Buildings2" width="10" height="10">
  <data encoding="csv">
1,2,3,3,3,3,3,3,4,1,
33,34,35,35,35,35,35,35,36,37,
65,66,580,581,2219,2219,580,581,68,69,
65,98,612,613,2251,2251,612,613,100,69,
65,130,644,645,0,0,644,645,132,69,
65,0,0,0,0,0,0,0,0,69,
65,513,0,0,0,0,0,0,0,69,
65,0,0,0,0,0,0,0,0,69,
65,0,0,0,0,0,0,0,0,69,
65,0,0,0,0,0,0,0,0,69
</data>
 </layer>
 <layer id="3" name="Paths" width="10" height="10">
  <data encoding="csv">
0,0,0,0,0,0,0,0,0,0,
0,0,0,0,0,0,0,0,0,0,
0,0,0,0,0,0,0,0,0,0,
0,0,0,0,0,0,0,0,0,0,
0,0,0,0,0,0,0,0,0,0,
0,0,0,0,0,0,0,0,0,0,
0,0,0,0,0,0,0,0,0,0,
0,0,0,0,0,0,0,0,0,0,
0,0,0,0,0,0,0,0,0,0,
0,0,0,0,0,0,0,0,0,0
</data>
 </layer>
 <layer id="4" name="Front" width="10" height="10">
  <data encoding="csv">
0,0,0,0,0,0,0,0,0,0,
0,0,0,0,0,0,0,0,0,0,
0,0,0,0,0,0,0,0,0,0,
0,0,0,0,0,0,0,0,0,0,
0,0,0,0,0,0,0,0,0,0,
0,0,0,0,0,0,0,0,0,0,
0,0,0,0,0,0,0,0,0,0,
0,0,0,0,0,0,0,0,0,0,
0,0,0,0,0,0,0,0,0,0,
0,0,0,0,0,0,0,0,0,0
</data>
 </layer>
 <objectgroup id="6" name="Back"/>
 <objectgroup id="7" name="Buildings"/>
 <objectgroup id="8" name="Paths"/>
 <objectgroup id="9" name="Front"/>
 <objectgroup id="10" name="AlwaysFront"/>
 <layer id="5" name="AlwaysFront" width="10" height="10">
  <data encoding="csv">
0,0,0,0,0,0,0,0,0,0,
0,0,994,994,994,994,994,994,0,0,
0,0,545,1030,0,0,481,514,0,0,
0,0,0,0,0,0,0,0,0,0,
0,0,0,0,0,0,0,0,2701,0,
0,0,0,0,0,0,0,0,2733,0,
0,0,0,0,0,0,0,0,0,0,
0,0,0,0,0,0,0,2575,2576,0,
0,0,0,0,0,0,0,2607,2608,0,
0,0,0,0,0,0,0,0,0,0
</data>
 </layer>
</map>
